kodak-4k.cube
# Loaded 4097 keypoints.
# Shape: (4913, 3)
LUT_3D_SIZE 17
0.8194 0.7102 0.6078
0.8244 0.7062 0.6060
0.0486 0.0294 0.0248
0.0923 0.0238 0.0201
0.1360 0.0182 0.0154
0.1796 0.0127 0.0107
0.2233 0.0071 0.0060
0.2670 0.0015 0.0013
0.3214 0.0000 0.0000
0.3618 0.0000 0.0000
0.4023 0.0000 0.0000
0.4428 0.0000 0.0000
0.4832 0.0000 0.0000
0.5237 0.0000 0.0000
0.5465 0.0000 0.0000
0.8952 0.6499 0.5806
0.9002 0.6458 0.5788
0.0356 0.0331 0.0261
0.0413 0.0351 0.0228
0.0489 0.0367 0.0204
0.0662 0.0351 0.0187
0.0962 0.0337 0.0077
0.1396 0.0275 0.0000
0.2017 0.0000 0.0000
0.2704 0.0000 0.0000
0.3374 0.0000 0.0000
0.3975 0.0000 0.0000
0.4513 0.0000 0.0000
0.4916 0.0000 0.0000
0.5239 0.0000 0.0000
0.5466 0.0000 0.0000
0.5689 0.0000 0.0000
0.9000 0.6756 0.5819
0.9051 0.6715 0.5801
0.0380 0.0719 0.0225
0.0451 0.0442 0.0151
0.0526 0.0447 0.0140
0.0662 0.0463 0.0059
0.1021 0.0455 0.0000
0.1485 0.0380 0.0000
0.2150 0.0213 0.0000
0.2815 0.0046 0.0000
0.3494 0.0000 0.0000
0.4149 0.0000 0.0000
0.4692 0.0000 0.0000
0.5100 0.0000 0.0000
0.5443 0.0000 0.0000
0.5677 0.0000 0.0000
0.5898 0.0000 0.0000
0.6113 0.0000 0.0000
0.9099 0.6972 0.5813
0.0404 0.1107 0.0189
0.0498 0.0550 0.0076
0.0604 0.0591 0.0054
0.0739 0.0633 0.0012
0.1137 0.0662 0.0000
0.1671 0.0529 0.0000
0.2317 0.0270 0.0000
0.2971 0.0046 0.0000
0.3685 0.0000 0.0000
0.4324 0.0000 0.0000
0.4917 0.0000 0.0000
0.5289 0.0000 0.0000
0.5623 0.0000 0.0000
0.5901 0.0000 0.0000
0.6090 0.0000 0.0000
0.6420 0.0689 0.0000
0.9147 0.7229 0.5826
0.0428 0.1496 0.0153
0.0610 0.0818 0.0010
0.0716 0.0859 0.0000
0.0851 0.0910 0.0000
0.1261 0.0949 0.0000
0.1848 0.0811 0.0000
0.2494 0.0552 0.0000
0.3227 0.0524 0.0000
0.3928 0.0253 0.0000
0.4569 0.0271 0.0000
0.5216 0.0466 0.0000
0.5663 0.0621 0.0000
0.6036 0.0782 0.0000
0.6205 0.0667 0.0000
0.6314 0.0144 0.0000
0.6732 0.1400 0.0000
0.9196 0.7486 0.5838
0.0452 0.1884 0.0117
0.0702 0.1267 0.0000
0.0823 0.1275 0.0000
0.0981 0.1291 0.0000
0.1431 0.1353 0.0000
0.2105 0.1408 0.0000
0.2843 0.1396 0.0000
0.3581 0.1384 0.0000
0.4336 0.1297 0.0000
0.4944 0.1140 0.0000
0.5595 0.1276 0.0000
0.6082 0.1427 0.0000
0.6360 0.1459 0.0000
0.6516 0.1326 0.0000
0.6653 0.1033 0.0000
0.7043 0.2112 0.0000
0.9244 0.7744 0.5850
0.0477 0.2272 0.0081
0.0732 0.1843 0.0000
0.0889 0.1841 0.0000
0.1154 0.1884 0.0000
0.1629 0.2000 0.0000
0.2424 0.2113 0.0000
0.3194 0.2243 0.0000
0.3935 0.2244 0.0000
0.4702 0.2196 0.0000
0.5358 0.2127 0.0000
0.5974 0.2086 0.0000
0.6501 0.2233 0.0000
0.6671 0.2118 0.0000
0.6827 0.1985 0.0000
0.7021 0.1960 0.0000
0.7355 0.2823 0.0000
0.9292 0.8001 0.5863
0.0501 0.2660 0.0045
0.0752 0.2421 0.0000
0.0946 0.2437 0.0000
0.1259 0.2547 0.0000
0.1754 0.2680 0.0000
0.2590 0.2882 0.0000
0.3406 0.2972 0.0000
0.4223 0.3061 0.0000
0.4999 0.3137 0.0000
0.5715 0.3163 0.0000
0.6399 0.3145 0.0000
0.6873 0.3026 0.0000
0.7082 0.3032 0.0000
0.7292 0.3039 0.0000
0.7492 0.3119 0.0000
0.7666 0.3534 0.0000
0.9340 0.8258 0.5875
0.0525 0.3049 0.0009
0.0741 0.3059 0.0000
0.0912 0.3117 0.0000
0.1288 0.3215 0.0000
0.1837 0.3333 0.0000
0.2701 0.3583 0.0000
0.3550 0.3761 0.0000
0.4460 0.3822 0.0000
0.5331 0.3935 0.0000
0.6067 0.4013 0.0000
0.6760 0.4077 0.0000
0.7314 0.4126 0.0000
0.7538 0.4016 0.0000
0.7742 0.4067 0.0000
0.7917 0.4167 0.0000
0.7979 0.4253 0.0000
0.9389 0.8515 0.5888
0.0116 0.3564 0.0000
0.0491 0.3651 0.0000
0.0874 0.3762 0.0000
0.1388 0.3863 0.0000
0.1911 0.3969 0.0000
0.2733 0.4231 0.0000
0.3744 0.4448 0.0000
0.4692 0.4586 0.0000
0.5563 0.4704 0.0000
0.6434 0.4821 0.0000
0.7061 0.4891 0.0000
0.7610 0.4908 0.0000
0.7932 0.4925 0.0000
0.8102 0.4940 0.0000
0.8223 0.4950 0.0000
0.8164 0.4733 0.0000
0.9437 0.8772 0.5900
0.0000 0.3984 0.0000
0.0402 0.4085 0.0000
0.0769 0.4196 0.0000
0.1312 0.4350 0.0000
0.1981 0.4526 0.0000
0.2865 0.4734 0.0000
0.3866 0.4957 0.0000
0.4852 0.5091 0.0000
0.5747 0.5225 0.0000
0.6614 0.5350 0.0000
0.7308 0.5474 0.0000
0.7768 0.5461 0.0000
0.8109 0.5471 0.0000
0.8267 0.5520 0.0000
0.8395 0.5567 0.0000
0.8277 0.5027 0.0000
0.9485 0.9029 0.5912
0.0000 0.4367 0.0000
0.0360 0.4469 0.0000
0.0713 0.4538 0.0000
0.1245 0.4652 0.0000
0.2089 0.4805 0.0000
0.3029 0.4988 0.0000
0.4008 0.5206 0.0000
0.5016 0.5429 0.0000
0.5929 0.5594 0.0000
0.6790 0.5738 0.0000
0.7440 0.5804 0.0000
0.7914 0.5790 0.0000
0.8172 0.5736 0.0000
0.8365 0.5742 0.0000
0.8499 0.5819 0.0000
0.8391 0.5322 0.0000
0.9534 0.9286 0.5925
0.8773 1.0186 0.6227
0.0168 0.4621 0.0000
0.0733 0.4705 0.0000
0.1425 0.4829 0.0000
0.2267 0.5004 0.0000
0.3223 0.5179 0.0000
0.4202 0.5397 0.0000
0.5203 0.5628 0.0000
0.6086 0.5768 0.0000
0.6893 0.5885 0.0000
0.7523 0.5973 0.0000
0.8013 0.6029 0.0000
0.8236 0.6001 0.0000
0.8464 0.5964 0.0000
0.8564 0.6026 0.0000
0.8504 0.5616 0.0000
0.9582 0.9543 0.5937
0.8822 1.0443 0.6239
0.0254 0.4761 0.0000
0.0893 0.4860 0.0000
0.1608 0.4967 0.0000
0.2510 0.5163 0.0000
0.3426 0.5363 0.0000
0.4423 0.5566 0.0000
0.5392 0.5740 0.0000
0.6299 0.5892 0.0000
0.7072 0.6007 0.0000
0.7709 0.6092 0.0000
0.8127 0.6142 0.0000
0.8374 0.6156 0.0000
0.8558 0.6159 0.0000
0.8637 0.6172 0.0000
0.8618 0.5910 0.0000
0.9630 0.9800 0.5950
0.8870 1.0700 0.6251
0.0576 0.4911 0.0000
0.1297 0.5013 0.0000
0.2037 0.5155 0.0000
0.2836 0.5315 0.0000
0.3761 0.5506 0.0000
0.4714 0.5705 0.0000
0.5641 0.5881 0.0000
0.6556 0.6038 0.0000
0.7185 0.6117 0.0000
0.7761 0.6187 0.0000
0.8220 0.6241 0.0000
0.8454 0.6268 0.0000
0.8630 0.6285 0.0000
0.8717 0.6298 0.0000
0.8731 0.6205 0.0000
0.9679 1.0057 0.5962
0.8918 1.0957 0.6264
0.8969 1.0917 0.6246
0.9019 1.0877 0.6228
0.9070 1.0837 0.6210
0.9120 1.0796 0.6191
0.9171 1.0756 0.6173
0.9221 1.0716 0.6155
0.5965 0.6044 0.0000
0.6491 0.6130 0.0000
0.6831 0.6180 0.0000
0.7171 0.6230 0.0000
0.7511 0.6279 0.0000
0.7851 0.6329 0.0000
0.8191 0.6379 0.0000
0.8530 0.6428 0.0000
0.8839 0.6474 0.0000
0.9727 1.0314 0.5974
0.8967 1.1214 0.6276
0.9017 1.1174 0.6258
0.9068 1.1134 0.6240
0.9118 1.1094 0.6222
0.9169 1.1053 0.6204
0.9219 1.1013 0.6186
0.9270 1.0973 0.6168
0.9320 1.0933 0.6150
0.9371 1.0893 0.6132
0.9421 1.0852 0.6113
0.9472 1.0812 0.6095
0.9522 1.0772 0.6077
0.9573 1.0732 0.6059
0.9624 1.0691 0.6041
0.9674 1.0651 0.6023
0.9725 1.0611 0.6005
0.9775 1.0571 0.5987
0.8223 0.7104 0.6372
0.0396 0.0304 0.0303
0.0473 0.0311 0.0291
0.0640 0.0312 0.0277
0.0937 0.0294 0.0225
0.1382 0.0160 0.0123
0.1963 0.0037 0.0036
0.2629 0.0000 0.0001
0.3284 0.0000 0.0000
0.3879 0.0000 0.0000
0.4397 0.0000 0.0000
0.4784 0.0000 0.0000
0.5058 0.0000 0.0000
0.5298 0.0000 0.0000
0.5530 0.0000 0.0000
0.8981 0.6500 0.6101
0.9032 0.6460 0.6083
0.0370 0.0347 0.0313
0.0431 0.0354 0.0287
0.0506 0.0361 0.0286
0.0627 0.0354 0.0271
0.0962 0.0367 0.0158
0.1410 0.0286 0.0019
0.2033 0.0091 0.0007
0.2717 0.0000 0.0000
0.3399 0.0000 0.0000
0.4017 0.0000 0.0000
0.4552 0.0000 0.0000
0.4961 0.0000 0.0000
0.5283 0.0000 0.0000
0.5519 0.0000 0.0000
0.5736 0.0000 0.0000
0.9029 0.6757 0.6113
0.9080 0.6717 0.6095
0.0411 0.0423 0.0284
0.0454 0.0440 0.0256
0.0538 0.0441 0.0246
0.0708 0.0463 0.0168
0.1029 0.0471 0.0058
0.1497 0.0429 0.0001
0.2132 0.0154 0.0000
0.2824 0.0000 0.0000
0.3533 0.0000 0.0000
0.4171 0.0000 0.0000
0.4740 0.0000 0.0000
0.5149 0.0000 0.0000
0.5459 0.0000 0.0000
0.5732 0.0000 0.0000
0.5946 0.0000 0.0000
0.6175 0.0000 0.0000
0.9128 0.6974 0.6108
0.0464 0.0572 0.0128
0.0519 0.0582 0.0125
0.0611 0.0593 0.0105
0.0799 0.0605 0.0018
0.1139 0.0653 0.0000
0.1631 0.0604 0.0000
0.2279 0.0358 0.0000
0.2989 0.0077 0.0000
0.3712 0.0000 0.0000
0.4376 0.0000 0.0000
0.4949 0.0000 0.0000
0.5376 0.0000 0.0000
0.5711 0.0000 0.0000
0.5947 0.0000 0.0000
0.6148 0.0000 0.0000
0.6419 0.0363 0.0000
0.9176 0.7231 0.6120
0.0533 0.0877 0.0005
0.0608 0.0860 0.0000
0.0693 0.0891 0.0000
0.0884 0.0896 0.0000
0.1289 0.0948 0.0000
0.1834 0.0937 0.0000
0.2531 0.0890 0.0000
0.3243 0.0661 0.0000
0.3953 0.0376 0.0000
0.4603 0.0000 0.0000
0.5180 0.0000 0.0000
0.5635 0.0000 0.0000
0.5943 0.0000 0.0000
0.6183 0.0000 0.0000
0.6347 0.0027 0.0000
0.6709 0.1007 0.0000
0.9225 0.7488 0.6133
0.0608 0.1294 0.0001
0.0682 0.1238 0.0006
0.0799 0.1333 0.0000
0.0999 0.1339 0.0000
0.1430 0.1365 0.0000
0.2038 0.1474 0.0000
0.2825 0.1529 0.0000
0.3600 0.1450 0.0000
0.4324 0.1268 0.0000
0.4971 0.0940 0.0000
0.5519 0.0548 0.0000
0.5940 0.0335 0.0000
0.6239 0.0183 0.0000
0.6445 0.0232 0.0000
0.6597 0.0359 0.0000
0.7000 0.1650 0.0000
0.9273 0.7745 0.6145
0.0681 0.1723 0.0000
0.0768 0.1780 0.0000
0.0903 0.1833 0.0000
0.1150 0.1908 0.0000
0.1603 0.2013 0.0000
0.2245 0.2127 0.0000
0.3107 0.2231 0.0000
0.3931 0.2263 0.0000
0.4775 0.2297 0.0000
0.5449 0.2132 0.0000
0.6026 0.2026 0.0000
0.6432 0.1851 0.0000
0.6740 0.1687 0.0000
0.6924 0.1642 0.0000
0.7091 0.2020 0.0000
0.7304 0.2398 0.0000
0.9321 0.8002 0.6157
0.0655 0.2371 0.0000
0.0807 0.2433 0.0000
0.0942 0.2501 0.0000
0.1243 0.2589 0.0000
0.1736 0.2703 0.0000
0.2447 0.2870 0.0000
0.3347 0.3001 0.0000
0.4281 0.3137 0.0000
0.5137 0.3215 0.0000
0.5908 0.3224 0.0000
0.6503 0.3166 0.0000
0.6956 0.3095 0.0000
0.7255 0.3066 0.0000
0.7448 0.3107 0.0000
0.7585 0.3242 0.0000
0.7726 0.3440 0.0000
0.9370 0.8259 0.6170
0.0513 0.3030 0.0000
0.0710 0.3132 0.0000
0.0911 0.3224 0.0000
0.1353 0.3364 0.0000
0.1853 0.3455 0.0000
0.2658 0.3669 0.0000
0.3578 0.3824 0.0000
0.4557 0.4003 0.0000
0.5470 0.4115 0.0000
0.6267 0.4185 0.0000
0.6903 0.4216 0.0000
0.7406 0.4211 0.0000
0.7686 0.4158 0.0000
0.7909 0.4247 0.0000
0.8010 0.4298 0.0000
0.8117 0.4414 0.0000
0.9418 0.8516 0.6182
0.0241 0.3651 0.0000
0.0471 0.3730 0.0000
0.0805 0.3814 0.0000
0.1348 0.3983 0.0000
0.1942 0.4127 0.0000
0.2811 0.4332 0.0000
0.3763 0.4515 0.0000
0.4765 0.4702 0.0000
0.5679 0.4841 0.0000
0.6535 0.4949 0.0000
0.7184 0.4953 0.0000
0.7693 0.4992 0.0000
0.8011 0.5013 0.0000
0.8194 0.5040 0.0000
0.8286 0.5072 0.0000
0.8390 0.5181 0.0000
0.9466 0.8773 0.6195
0.0000 0.4148 0.0000
0.0026 0.4265 0.0000
0.0675 0.4353 0.0000
0.1278 0.4486 0.0000
0.1966 0.4640 0.0000
0.2877 0.4856 0.0000
0.3923 0.5031 0.0000
0.4934 0.5203 0.0000
0.5878 0.5371 0.0000
0.6743 0.5549 0.0000
0.7415 0.5585 0.0000
0.7907 0.5645 0.0000
0.8193 0.5604 0.0000
0.8400 0.5642 0.0000
0.8482 0.5641 0.0000
0.8554 0.5687 0.0000
0.9514 0.9030 0.6207
0.0000 0.4488 0.0000
0.0019 0.4588 0.0000
0.0567 0.4686 0.0000
0.1228 0.4781 0.0000
0.2076 0.4944 0.0000
0.3020 0.5171 0.0000
0.4068 0.5391 0.0000
0.5084 0.5593 0.0000
0.6056 0.5764 0.0000
0.6890 0.5889 0.0000
0.7559 0.5949 0.0000
0.8031 0.5984 0.0000
0.8342 0.6023 0.0000
0.8537 0.6024 0.0000
0.8656 0.6086 0.0000
0.8675 0.6060 0.0000
0.9563 0.9287 0.6219
0.0000 0.4747 0.0000
0.0000 0.4801 0.0000
0.0539 0.4873 0.0000
0.1370 0.4988 0.0000
0.2232 0.5159 0.0000
0.3197 0.5382 0.0000
0.4236 0.5596 0.0000
0.5254 0.5788 0.0000
0.6162 0.5939 0.0000
0.7025 0.6068 0.0000
0.7654 0.6135 0.0000
0.8153 0.6192 0.0000
0.8453 0.6225 0.0000
0.8617 0.6240 0.0000
0.8706 0.6241 0.0000
0.8750 0.6251 0.0000
0.9611 0.9544 0.6232
0.0000 0.4918 0.0000
0.0123 0.4962 0.0000
0.0784 0.5034 0.0000
0.1500 0.5153 0.0000
0.2458 0.5344 0.0000
0.3463 0.5555 0.0000
0.4481 0.5763 0.0000
0.5468 0.5935 0.0000
0.6382 0.6099 0.0000
0.7204 0.6234 0.0000
0.7807 0.6288 0.0000
0.8236 0.6309 0.0000
0.8508 0.6352 0.0000
0.8678 0.6374 0.0000
0.8777 0.6385 0.0000
0.8812 0.6397 0.0000
0.9659 0.9801 0.6244
0.0000 0.5098 0.0000
0.0288 0.5132 0.0000
0.1155 0.5237 0.0000
0.1954 0.5379 0.0000
0.2830 0.5539 0.0000
0.3812 0.5759 0.0000
0.4804 0.5946 0.0000
0.5748 0.6118 0.0000
0.6643 0.6268 0.0000
0.7352 0.6374 0.0000
0.7967 0.6441 0.0000
0.8347 0.6461 0.0000
0.8595 0.6491 0.0000
0.8746 0.6509 0.0000
0.8835 0.6535 0.0000
0.8878 0.6555 0.0000
0.9708 1.0058 0.6257
0.8947 1.0959 0.6558
0.0860 0.5419 0.0000
0.1754 0.5500 0.0000
0.2530 0.5654 0.0000
0.3396 0.5831 0.0000
0.4280 0.6010 0.0000
0.5200 0.6181 0.0000
0.6085 0.6335 0.0000
0.6887 0.6461 0.0000
0.7600 0.6565 0.0000
0.8123 0.6622 0.0000
0.8493 0.6662 0.0000
0.8711 0.6677 0.0000
0.8803 0.6702 0.0000
0.8894 0.6728 0.0000
0.8971 0.6752 0.0000
0.9756 1.0316 0.6269
0.8996 1.1216 0.6571
0.9046 1.1176 0.6553
0.9097 1.1136 0.6535
0.9147 1.1095 0.6517
0.9198 1.1055 0.6498
0.9248 1.1015 0.6480
0.9299 1.0975 0.6462
0.9349 1.0935 0.6444
0.9400 1.0894 0.6426
0.9451 1.0854 0.6408
0.9501 1.0814 0.6390
0.9552 1.0774 0.6372
0.9602 1.0733 0.6354
0.9653 1.0693 0.6336
0.9703 1.0653 0.6318
0.9754 1.0613 0.6300
0.9804 1.0573 0.6281
0.8252 0.7105 0.6667
0.0418 0.0328 0.0393
0.0494 0.0331 0.0359
0.0661 0.0334 0.0361
0.0957 0.0317 0.0376
0.1404 0.0189 0.0316
0.1993 0.0045 0.0156
0.2662 0.0000 0.0039
0.3320 0.0000 0.0014
0.3929 0.0000 0.0000
0.4425 0.0000 0.0000
0.4837 0.0000 0.0000
0.5134 0.0000 0.0000
0.5362 0.0000 0.0000
0.5598 0.0000 0.0000
0.9010 0.6502 0.6396
0.9061 0.6462 0.6378
0.0384 0.0370 0.0376
0.0453 0.0373 0.0343
0.0527 0.0385 0.0344
0.0700 0.0395 0.0342
0.0980 0.0378 0.0305
0.1436 0.0320 0.0253
0.2055 0.0112 0.0071
0.2750 0.0000 0.0001
0.3443 0.0000 0.0000
0.4062 0.0000 0.0000
0.4614 0.0000 0.0000
0.5016 0.0000 0.0000
0.5334 0.0000 0.0000
0.5579 0.0000 0.0000
0.5803 0.0000 0.0000
0.9058 0.6759 0.6408
0.9109 0.6719 0.6390
0.0419 0.0446 0.0363
0.0490 0.0461 0.0364
0.0564 0.0473 0.0359
0.0686 0.0489 0.0330
0.1043 0.0497 0.0227
0.1499 0.0490 0.0048
0.2150 0.0197 0.0000
0.2849 0.0000 0.0000
0.3581 -0.0000 0.0000
0.4214 0.0000 0.0000
0.4794 0.0000 0.0000
0.5222 0.0000 0.0000
0.5543 0.0000 0.0000
0.5805 0.0000 0.0000
0.6023 0.0000 0.0000
0.6239 0.0000 0.0000
0.9157 0.6976 0.6402
0.0470 0.0583 0.0355
0.0533 0.0598 0.0330
0.0622 0.0644 0.0250
0.0781 0.0664 0.0247
0.1155 0.0698 0.0087
0.1662 0.0652 0.0031
0.2323 0.0494 0.0000
0.3028 0.0142 0.0000
0.3760 0.0000 0.0000
0.4436 0.0000 0.0000
0.4997 0.0000 0.0000
0.5448 0.0000 0.0000
0.5785 0.0000 0.0000
0.6015 0.0000 0.0000
0.6217 0.0000 0.0000
0.6438 0.0105 0.0000
0.9206 0.7233 0.6415
0.0544 0.0928 0.0204
0.0609 0.0864 0.0022
0.0693 0.0895 0.0010
0.0924 0.0933 0.0035
0.1282 0.0972 -0.0000
0.1850 0.1022 0.0000
0.2568 0.0957 0.0000
0.3301 0.0780 0.0000
0.3987 0.0410 0.0000
0.4657 0.0000 0.0000
0.5254 0.0000 0.0000
0.5702 0.0074 0.0000
0.6003 0.0012 0.0000
0.6241 0.0001 0.0000
0.6427 0.0000 0.0000
0.6715 0.0737 0.0000
0.9254 0.7490 0.6427
0.0618 0.1276 0.0051
0.0696 0.1250 0.0000
0.0811 0.1300 0.0000
0.1043 0.1342 0.0000
0.1449 0.1440 0.0000
0.2047 0.1502 0.0000
0.2864 0.1568 0.0000
0.3663 0.1514 0.0000
0.4379 0.1282 0.0000
0.5054 0.0930 0.0000
0.5635 0.0766 0.0000
0.6115 0.1028 0.0000
0.6353 0.0576 0.0000
0.6524 0.0231 0.0000
0.6711 0.0506 0.0000
0.7006 0.1477 0.0000
0.9302 0.7747 0.6440
0.0656 0.1798 0.0000
0.0760 0.1836 0.0000
0.0886 0.1901 0.0000
0.1108 0.1989 0.0000
0.1604 0.2074 0.0000
0.2274 0.2184 0.0000
0.3149 0.2286 0.0000
0.4014 0.2371 0.0000
0.4787 0.2314 0.0000
0.5530 0.2250 0.0000
0.6113 0.2126 0.0000
0.6521 0.1969 0.0000
0.6847 0.1971 0.0000
0.7048 0.1870 0.0000
0.7217 0.2178 0.0000
0.7423 0.2538 0.0000
0.9350 0.8004 0.6452
0.0652 0.2429 0.0000
0.0768 0.2509 0.0000
0.0928 0.2589 0.0000
0.1209 0.2671 0.0000
0.1757 0.2798 0.0000
0.2486 0.2961 0.0000
0.3396 0.3094 0.0000
0.4358 0.3237 0.0000
0.5207 0.3280 0.0000
0.6006 0.3307 0.0000
0.6623 0.3260 0.0000
0.7063 0.3197 0.0000
0.7332 0.3205 0.0000
0.7569 0.3226 0.0000
0.7714 0.3384 0.0000
0.7849 0.3591 0.0000
0.9399 0.8261 0.6464
0.0355 0.3146 0.0000
0.0531 0.3210 0.0000
0.0863 0.3329 0.0000
0.1284 0.3456 0.0000
0.1853 0.3624 0.0000
0.2656 0.3797 0.0000
0.3634 0.3966 0.0000
0.4626 0.4133 0.0000
0.5552 0.4220 0.0000
0.6354 0.4267 0.0000
0.7006 0.4318 0.0000
0.7484 0.4357 0.0000
0.7796 0.4342 0.0000
0.7992 0.4355 0.0000
0.8119 0.4431 0.0000
0.8212 0.4562 0.0000
0.9447 0.8518 0.6477
0.0145 0.3814 0.0000
0.0109 0.3879 0.0000
0.0675 0.3952 0.0000
0.1194 0.4082 0.0000
0.1925 0.4270 0.0000
0.2799 0.4475 0.0000
0.3835 0.4700 0.0000
0.4852 0.4900 0.0000
0.5790 0.4995 0.0000
0.6618 0.5105 0.0000
0.7312 0.5147 0.0000
0.7754 0.5140 0.0000
0.8136 0.5187 0.0000
0.8301 0.5212 0.0000
0.8410 0.5272 0.0000
0.8501 0.5344 0.0000
0.9495 0.8775 0.6489
0.0000 0.4336 0.0000
0.0017 0.4419 0.0000
0.0545 0.4495 0.0000
0.1187 0.4649 0.0000
0.1948 0.4820 0.0000
0.2892 0.5023 0.0000
0.3959 0.5242 0.0000
0.5013 0.5448 0.0000
0.5997 0.5574 0.0000
0.6815 0.5691 0.0000
0.7522 0.5762 0.0000
0.8018 0.5823 0.0000
0.8302 0.5780 0.0000
0.8501 0.5806 0.0000
0.8602 0.5872 0.0000
0.8667 0.5879 0.0000
0.9544 0.9032 0.6502
0.0000 0.4648 0.0000
0.0017 0.4783 0.0000
0.0509 0.4845 0.0000
0.1087 0.4965 0.0000
0.2054 0.5133 0.0000
0.3036 0.5362 0.0000
0.4098 0.5575 0.0000
0.5152 0.5772 0.0000
0.6135 0.5965 0.0000
0.6966 0.6070 0.0000
0.7666 0.6135 0.0000
0.8141 0.6182 0.0000
0.8443 0.6206 0.0000
0.8640 0.6218 0.0000
0.8766 0.6258 0.0000
0.8767 0.6158 0.0000
0.9592 0.9289 0.6514
0.0000 0.4961 0.0000
0.0003 0.5032 0.0000
0.0168 0.5069 0.0000
0.1187 0.5193 0.0000
0.2210 0.5363 0.0000
0.3196 0.5580 0.0000
0.4277 0.5794 0.0000
0.5323 0.5999 0.0000
0.6273 0.6149 0.0000
0.7096 0.6269 0.0000
0.7789 0.6354 0.0000
0.8255 0.6391 0.0000
0.8544 0.6434 0.0000
0.8724 0.6452 0.0000
0.8828 0.6480 0.0000
0.8866 0.6437 0.0000
0.9640 0.9546 0.6526
0.0000 0.5171 0.0000
0.0003 0.5209 0.0000
0.0460 0.5265 0.0000
0.1462 0.5379 0.0000
0.2454 0.5561 0.0000
0.3492 0.5773 0.0000
0.4536 0.5983 0.0000
0.5560 0.6171 0.0000
0.6456 0.6316 0.0000
0.7267 0.6435 0.0000
0.7914 0.6508 0.0000
0.8361 0.6558 0.0000
0.8618 0.6562 0.0000
0.8782 0.6598 0.0000
0.8884 0.6622 0.0000
0.8948 0.6655 0.0000
0.9689 0.9803 0.6539
0.0000 0.5379 0.0000
0.0159 0.5396 0.0000
0.0867 0.5477 0.0000
0.1920 0.5628 0.0000
0.2853 0.5793 0.0000
0.3845 0.5991 0.0000
0.4886 0.6186 0.0000
0.5834 0.6352 0.0000
0.6747 0.6513 0.0000
0.7498 0.6620 0.0000
0.8085 0.6673 0.0000
0.8450 0.6716 0.0000
0.8733 0.6746 0.0000
0.8876 0.6755 0.0000
0.8943 0.6775 0.0000
0.9019 0.6831 0.0000
0.9737 1.0060 0.6551
0.0000 0.5677 0.0409
0.0576 0.5651 0.0000
0.1613 0.5762 0.0000
0.2461 0.5912 0.0000
0.3350 0.6090 0.0000
0.4320 0.6269 0.0000
0.5279 0.6453 0.0000
0.6184 0.6607 0.0000
0.7012 0.6734 0.0000
0.7705 0.6841 0.0000
0.8209 0.6885 0.0000
0.8608 0.6926 0.0000
0.8837 0.6958 0.0000
0.8927 0.6982 0.0000
0.9016 0.7006 0.0000
0.9102 0.7028 0.0000
0.9785 1.0317 0.6564
0.9025 1.1218 0.6865
0.9075 1.1178 0.6847
0.9126 1.1137 0.6829
0.9176 1.1097 0.6811
0.9227 1.1057 0.6793
0.9278 1.1017 0.6775
0.9328 1.0976 0.6757
0.9379 1.0936 0.6739
0.9429 1.0896 0.6721
0.9480 1.0856 0.6703
0.9530 1.0816 0.6685
0.9581 1.0775 0.6666
0.9631 1.0735 0.6648
0.9682 1.0695 0.6630
0.9732 1.0655 0.6612
0.9783 1.0614 0.6594
0.9833 1.0574 0.6576
0.8281 0.7107 0.6962
0.0427 0.0374 0.0567
0.0518 0.0365 0.0477
0.0686 0.0365 0.0493
0.0980 0.0347 0.0558
0.1478 0.0180 0.0530
0.2034 0.0025 0.0364
0.2696 0.0000 0.0128
0.3358 0.0000 0.0204
0.4011 0.0000 0.0316
0.4476 0.0000 0.0000
0.4916 0.0000 0.0000
0.5215 0.0000 0.0000
0.5439 0.0000 0.0000
0.5670 0.0000 0.0049
0.9039 0.6504 0.6690
0.9090 0.6464 0.6672
0.0393 0.0400 0.0520
0.0457 0.0412 0.0535
0.0535 0.0419 0.0524
0.0694 0.0430 0.0520
0.1007 0.0424 0.0500
0.1480 0.0364 0.0449
0.2107 0.0183 0.0337
0.2805 0.0017 0.0315
0.3485 0.0000 0.0000
0.4115 0.0000 0.0000
0.4682 0.0000 0.0000
0.5093 0.0000 0.0000
0.5432 0.0000 0.0000
0.5665 0.0000 0.0000
0.5891 0.0000 0.0000
0.6150 0.0000 0.0000
