kodak-4k.cube
# Loaded 4097 keypoints.
# Shape: (4913, 3)
LUT_3D_SIZE 5
0.8194 0.7102 0.6078
0.1360 0.0182 0.0154
0.3214 0.0000 0.0000
0.4832 0.0000 0.0000
0.9002 0.6458 0.5788
0.0428 0.1496 0.0153
0.1261 0.0949 0.0000
0.3928 0.0253 0.0000
0.6036 0.0782 0.0000
0.9196 0.7486 0.5838
0.0525 0.3049 0.0009
0.1837 0.3333 0.0000
0.5331 0.3935 0.0000
0.7538 0.4016 0.0000
0.9389 0.8515 0.5888
0.8773 1.0186 0.6227
0.2267 0.5004 0.0000
0.6086 0.5768 0.0000
0.8236 0.6001 0.0000
0.9582 0.9543 0.5937
0.8967 1.1214 0.6276
0.9169 1.1053 0.6204
0.9371 1.0893 0.6132
0.9573 1.0732 0.6059
0.9775 1.0571 0.5987
0.8310 0.7109 0.7256
0.0996 0.0422 0.0862
0.3421 0.0000 0.0736
0.5310 0.0000 0.0280
0.9119 0.6465 0.6967
0.0478 0.1082 0.1000
0.1308 0.1133 0.0823
0.4242 0.1074 0.0395
0.6246 0.0266 0.0000
0.9312 0.7493 0.7016
0.0174 0.3544 0.0384
0.1778 0.4066 0.0000
0.5765 0.4757 0.0000
0.8109 0.4877 0.0000
0.9505 0.8521 0.7066
0.0000 0.5746 0.0000
0.2003 0.6022 0.0000
0.6486 0.6818 0.0000
0.8836 0.7104 0.0000
0.9699 0.9550 0.7116
0.9083 1.1221 0.7455
0.9285 1.1060 0.7382
0.9487 1.0899 0.7310
0.9690 1.0739 0.7238
0.9892 1.0578 0.7165
0.0000 0.0428 0.3571
0.1099 0.0254 0.3852
0.3966 0.0000 0.4228
0.6009 0.0000 0.4426
0.9236 0.6472 0.8145
0.0002 0.1472 0.4769
0.1201 0.1298 0.4869
0.4724 0.1328 0.5050
0.7056 0.0948 0.5152
0.9429 0.7500 0.8195
0.0000 0.5128 0.6074
0.0793 0.5433 0.6267
0.5975 0.5968 0.5949
0.8648 0.6196 0.5665
0.9622 0.8528 0.8244
0.0000 0.7940 0.6826
0.0600 0.8050 0.6531
0.6572 0.8581 0.5209
0.9220 0.8913 0.5107
0.9815 0.9556 0.8294
0.9200 1.1228 0.8633
0.9402 1.1067 0.8561
0.9604 1.0906 0.8488
0.9806 1.0745 0.8416
1.0008 1.0585 0.8344
0.8544 0.7122 0.9613
0.0922 0.0000 0.6614
0.4262 0.0000 0.6878
0.6430 0.0000 0.7184
0.9352 0.6479 0.9323
0.0000 0.1322 0.7438
0.0820 0.0488 0.7480
0.4862 0.0509 0.7704
0.7363 0.0121 0.7924
0.9545 0.7507 0.9373
0.0000 0.5614 0.9327
0.0000 0.5734 0.9351
0.6026 0.6215 0.9179
0.8865 0.6402 0.9120
0.9739 0.8535 0.9423
0.0000 0.8749 1.0000
0.0095 0.8817 0.9976
0.6575 0.9298 0.9747
0.9483 0.9573 0.9527
0.9932 0.9563 0.9472
0.9316 1.1235 0.9811
0.9518 1.1074 0.9739
0.9721 1.0913 0.9667
0.9923 1.0752 0.9594
1.0125 1.0591 0.9522
0.8660 0.7129 1.0791
0.8862 0.6968 1.0719
0.9064 0.6808 1.0647
0.9267 0.6647 1.0574
0.9469 0.6486 1.0502
0.8853 0.8157 1.0841
0.9055 0.7997 1.0768
0.9258 0.7836 1.0696
0.9460 0.7675 1.0624
0.9662 0.7514 1.0551
0.9047 0.9185 1.0890
0.9249 0.9025 1.0818
0.9451 0.8864 1.0746
0.9653 0.8703 1.0673
0.9855 0.8542 1.0601
0.9240 1.0214 1.0940
0.9442 1.0053 1.0868
0.9644 0.9892 1.0795
0.9846 0.9731 1.0723
1.0048 0.9570 1.0651
0.9433 1.1242 1.0990
0.9635 1.1081 1.0917
0.9837 1.0920 1.0845
1.0039 1.0759 1.0773
1.0242 1.0598 1.0700
