kodak-4k.cube
# Loaded 4097 keypoints.
# Shape: (4913, 3)
LUT_3D_SIZE 9
0.8194 0.7102 0.6078
0.0486 0.0294 0.0248
0.1360 0.0182 0.0154
0.2233 0.0071 0.0060
0.3214 0.0000 0.0000
0.4023 0.0000 0.0000
0.4832 0.0000 0.0000
0.5465 0.0000 0.0000
0.9002 0.6458 0.5788
0.0380 0.0719 0.0225
0.0526 0.0447 0.0140
0.1021 0.0455 0.0000
0.2150 0.0213 0.0000
0.3494 0.0000 0.0000
0.4692 0.0000 0.0000
0.5443 0.0000 0.0000
0.5898 0.0000 0.0000
0.9099 0.6972 0.5813
0.0428 0.1496 0.0153
0.0716 0.0859 0.0000
0.1261 0.0949 0.0000
0.2494 0.0552 0.0000
0.3928 0.0253 0.0000
0.5216 0.0466 0.0000
0.6036 0.0782 0.0000
0.6314 0.0144 0.0000
0.9196 0.7486 0.5838
0.0477 0.2272 0.0081
0.0889 0.1841 0.0000
0.1629 0.2000 0.0000
0.3194 0.2243 0.0000
0.4702 0.2196 0.0000
0.5974 0.2086 0.0000
0.6671 0.2118 0.0000
0.7021 0.1960 0.0000
0.9292 0.8001 0.5863
0.0525 0.3049 0.0009
0.0912 0.3117 0.0000
0.1837 0.3333 0.0000
0.3550 0.3761 0.0000
0.5331 0.3935 0.0000
0.6760 0.4077 0.0000
0.7538 0.4016 0.0000
0.7917 0.4167 0.0000
0.9389 0.8515 0.5888
0.0000 0.3984 0.0000
0.0769 0.4196 0.0000
0.1981 0.4526 0.0000
0.3866 0.4957 0.0000
0.5747 0.5225 0.0000
0.7308 0.5474 0.0000
0.8109 0.5471 0.0000
0.8395 0.5567 0.0000
0.9485 0.9029 0.5912
0.8773 1.0186 0.6227
0.0733 0.4705 0.0000
0.2267 0.5004 0.0000
0.4202 0.5397 0.0000
0.6086 0.5768 0.0000
0.7523 0.5973 0.0000
0.8236 0.6001 0.0000
0.8564 0.6026 0.0000
0.9582 0.9543 0.5937
0.8870 1.0700 0.6251
0.1297 0.5013 0.0000
0.2836 0.5315 0.0000
0.4714 0.5705 0.0000
0.6556 0.6038 0.0000
0.7761 0.6187 0.0000
0.8454 0.6268 0.0000
0.8717 0.6298 0.0000
0.9679 1.0057 0.5962
0.8967 1.1214 0.6276
0.9068 1.1134 0.6240
0.9169 1.1053 0.6204
0.9270 1.0973 0.6168
0.9371 1.0893 0.6132
0.9472 1.0812 0.6095
0.9573 1.0732 0.6059
0.9674 1.0651 0.6023
0.9775 1.0571 0.5987
0.8252 0.7105 0.6667
0.0494 0.0331 0.0359
0.0957 0.0317 0.0376
0.1993 0.0045 0.0156
0.3320 0.0000 0.0014
0.4425 0.0000 0.0000
0.5134 0.0000 0.0000
0.5598 0.0000 0.0000
0.9061 0.6462 0.6378
0.0419 0.0446 0.0363
0.0564 0.0473 0.0359
0.1043 0.0497 0.0227
0.2150 0.0197 0.0000
0.3581 -0.0000 0.0000
0.4794 0.0000 0.0000
0.5543 0.0000 0.0000
0.6023 0.0000 0.0000
0.9157 0.6976 0.6402
0.0544 0.0928 0.0204
0.0693 0.0895 0.0010
0.1282 0.0972 -0.0000
0.2568 0.0957 0.0000
0.3987 0.0410 0.0000
0.5254 0.0000 0.0000
0.6003 0.0012 0.0000
0.6427 0.0000 0.0000
0.9254 0.7490 0.6427
0.0656 0.1798 0.0000
0.0886 0.1901 0.0000
0.1604 0.2074 0.0000
0.3149 0.2286 0.0000
0.4787 0.2314 0.0000
0.6113 0.2126 0.0000
0.6847 0.1971 0.0000
0.7217 0.2178 0.0000
0.9350 0.8004 0.6452
0.0355 0.3146 0.0000
0.0863 0.3329 0.0000
0.1853 0.3624 0.0000
0.3634 0.3966 0.0000
0.5552 0.4220 0.0000
0.7006 0.4318 0.0000
0.7796 0.4342 0.0000
0.8119 0.4431 0.0000
0.9447 0.8518 0.6477
0.0000 0.4336 0.0000
0.0545 0.4495 0.0000
0.1948 0.4820 0.0000
0.3959 0.5242 0.0000
0.5997 0.5574 0.0000
0.7522 0.5762 0.0000
0.8302 0.5780 0.0000
0.8602 0.5872 0.0000
0.9544 0.9032 0.6502
0.0000 0.4961 0.0000
0.0168 0.5069 0.0000
0.2210 0.5363 0.0000
0.4277 0.5794 0.0000
0.6273 0.6149 0.0000
0.7789 0.6354 0.0000
0.8544 0.6434 0.0000
0.8828 0.6480 0.0000
0.9640 0.9546 0.6526
0.0000 0.5379 0.0000
0.0867 0.5477 0.0000
0.2853 0.5793 0.0000
0.4886 0.6186 0.0000
0.6747 0.6513 0.0000
0.8085 0.6673 0.0000
0.8733 0.6746 0.0000
0.8943 0.6775 0.0000
0.9737 1.0060 0.6551
0.9025 1.1218 0.6865
0.9126 1.1137 0.6829
0.9227 1.1057 0.6793
0.9328 1.0976 0.6757
0.9429 1.0896 0.6721
0.9530 1.0816 0.6685
0.9631 1.0735 0.6648
0.9732 1.0655 0.6612
0.9833 1.0574 0.6576
0.8310 0.7109 0.7256
0.0502 0.0432 0.0918
0.0996 0.0422 0.0862
0.2125 0.0057 0.0860
0.3421 0.0000 0.0736
0.4601 0.0000 0.0549
0.5310 0.0000 0.0280
0.5786 0.0000 0.0557
0.9119 0.6465 0.6967
0.0400 0.0610 0.0995
0.0578 0.0591 0.0922
0.1096 0.0620 0.0862
0.2296 0.0492 0.0802
0.3736 0.0000 0.0699
0.4939 0.0000 0.0286
0.5730 0.0000 0.0000
0.6229 0.0134 0.0284
0.9216 0.6979 0.6992
0.0478 0.1082 0.1000
0.0709 0.1087 0.0832
0.1308 0.1133 0.0823
0.2658 0.1204 0.0547
0.4242 0.1074 0.0395
0.5522 0.0812 0.0365
0.6246 0.0266 0.0000
0.6721 0.1003 0.0000
0.9312 0.7493 0.7016
0.0315 0.2114 0.0795
0.0782 0.2161 0.0384
0.1598 0.2338 0.0178
0.3243 0.2594 0.0000
0.5027 0.2715 0.0336
0.6422 0.2673 0.0000
0.7198 0.2602 0.0000
0.7576 0.2817 0.0000
0.9409 0.8007 0.7041
0.0174 0.3544 0.0384
0.0351 0.3823 0.0000
0.1778 0.4066 0.0000
0.3697 0.4427 0.0000
0.5765 0.4757 0.0000
0.7265 0.4838 0.0000
0.8109 0.4877 0.0000
0.8431 0.4986 0.0000
0.9505 0.8521 0.7066
0.0000 0.5086 0.0000
0.0033 0.5211 0.0000
0.1464 0.5445 0.0000
0.4026 0.5847 0.0000
0.6185 0.6222 0.0000
0.7782 0.6399 0.0000
0.8605 0.6464 0.0000
0.8917 0.6489 0.0000
0.9602 0.9036 0.7091
0.0000 0.5746 0.0000
0.0034 0.5814 0.0000
0.2003 0.6022 0.0000
0.4361 0.6464 0.0000
0.6486 0.6818 0.0000
0.8059 0.7030 0.0000
0.8836 0.7104 0.0000
0.9102 0.7141 0.0000
0.9699 0.9550 0.7116
0.0000 0.6133 0.0000
0.0731 0.6215 0.0000
0.2738 0.6420 0.0000
0.4941 0.6826 0.0000
0.6908 0.7156 0.0000
0.8280 0.7318 0.0000
0.8966 0.7389 0.0000
0.9217 0.7427 0.0000
0.9795 1.0064 0.7140
0.9083 1.1221 0.7455
0.9184 1.1141 0.7418
0.9285 1.1060 0.7382
0.9386 1.0980 0.7346
0.9487 1.0899 0.7310
0.9589 1.0819 0.7274
0.9690 1.0739 0.7238
0.9791 1.0658 0.7201
0.9892 1.0578 0.7165
0.0159 0.0490 0.2070
0.0423 0.0540 0.1986
0.1054 0.0512 0.2006
0.2263 0.0150 0.2083
0.3700 0.0000 0.2221
0.4886 0.0000 0.2250
0.5644 0.0000 0.2271
0.6126 0.0000 0.2384
0.9177 0.6469 0.7556
0.0212 0.0692 0.2166
0.0471 0.0722 0.2234
0.1136 0.0746 0.2274
0.2473 0.0607 0.2321
0.4003 0.0000 0.2431
0.5303 0.0000 0.2462
0.6118 0.0000 0.2488
0.6614 0.0184 0.2515
0.9274 0.6983 0.7581
0.0181 0.1364 0.2551
0.0543 0.1292 0.2577
0.1321 0.1364 0.2617
0.2839 0.1445 0.2611
0.4532 0.1245 0.2587
0.5885 0.1190 0.2604
0.6694 0.1036 0.2569
0.7165 0.1687 0.2504
0.9370 0.7497 0.7606
0.0052 0.2520 0.2937
0.0329 0.2633 0.3012
0.1453 0.2781 0.2931
0.3292 0.3044 0.2747
0.5208 0.3216 0.2547
0.6672 0.3291 0.2390
0.7508 0.3355 0.2170
0.7886 0.3622 0.1593
0.9467 0.8011 0.7630
0.0000 0.4504 0.3193
0.0000 0.4601 0.3145
0.1326 0.4755 0.2893
0.3701 0.5111 0.2019
0.5804 0.5422 0.1003
0.7423 0.5584 0.1283
0.8343 0.5638 0.0984
0.8637 0.5757 0.0172
0.9564 0.8525 0.7655
0.0000 0.6076 0.2731
0.0000 0.6279 0.3014
0.0947 0.6367 0.2398
0.3900 0.6735 0.1685
0.6198 0.7088 0.0000
0.7921 0.7317 0.0046
0.8832 0.7381 0.0023
0.9130 0.7356 0.0015
0.9660 0.9039 0.7680
0.0000 0.6872 0.3004
0.0000 0.6993 0.2765
0.1135 0.6992 0.1867
0.4213 0.7386 0.0719
0.6497 0.7751 0.0877
0.8171 0.7964 0.0000
0.9045 0.8053 0.0000
0.9323 0.8077 0.0025
0.9757 0.9553 0.7705
0.0000 0.7220 0.2989
0.0000 0.7251 0.2513
0.2188 0.7312 0.1777
0.4845 0.7699 0.1095
0.6944 0.8025 0.0444
0.8410 0.8215 0.0213
0.9146 0.8290 0.0018
0.9388 0.8313 0.0000
0.9853 1.0067 0.7730
0.9141 1.1225 0.8044
0.9242 1.1144 0.8008
0.9344 1.1064 0.7971
0.9445 1.0983 0.7935
0.9546 1.0903 0.7899
0.9647 1.0822 0.7863
0.9748 1.0742 0.7827
0.9849 1.0662 0.7791
0.9950 1.0581 0.7754
0.0000 0.0428 0.3571
0.0243 0.0273 0.3768
0.1099 0.0254 0.3852
0.2409 0.0000 0.4064
0.3966 0.0000 0.4228
0.5242 0.0000 0.4366
0.6009 0.0000 0.4426
0.6516 0.0000 0.4597
0.9236 0.6472 0.8145
0.0000 0.0723 0.4173
0.0000 0.0481 0.4267
0.1031 0.0229 0.4279
0.2589 0.0121 0.4454
0.4245 0.0000 0.4633
0.5620 0.0000 0.4777
0.6513 0.0000 0.4896
0.7023 0.0033 0.4989
0.9332 0.6986 0.8170
0.0002 0.1472 0.4769
0.0040 0.1420 0.4848
0.1201 0.1298 0.4869
0.2923 0.1445 0.4962
0.4724 0.1328 0.5050
0.6151 0.1018 0.5092
0.7056 0.0948 0.5152
0.7558 0.1581 0.5238
0.9429 0.7500 0.8195
0.0000 0.2958 0.5448
0.0000 0.3049 0.5639
0.1142 0.3066 0.5624
0.3364 0.3309 0.5635
0.5421 0.3478 0.5618
0.6997 0.3536 0.5567
0.7887 0.3617 0.5483
0.8307 0.3923 0.5571
0.9525 0.8014 0.8220
0.0000 0.5128 0.6074
0.0000 0.5436 0.6428
0.0793 0.5433 0.6267
0.3661 0.5652 0.6061
0.5975 0.5968 0.5949
0.7719 0.6134 0.5724
0.8648 0.6196 0.5665
0.8991 0.6319 0.5637
0.9622 0.8528 0.8244
0.0000 0.6919 0.6434
0.0000 0.7384 0.6872
0.0453 0.7297 0.6509
0.3782 0.7568 0.6288
0.6300 0.7894 0.5910
0.8110 0.8097 0.5632
0.9068 0.8164 0.5510
0.9393 0.8193 0.5195
0.9719 0.9042 0.8269
0.0000 0.7940 0.6826
0.0000 0.8165 0.6952
0.0600 0.8050 0.6531
0.4049 0.8314 0.6164
0.6572 0.8581 0.5209
0.8303 0.8849 0.5432
0.9220 0.8913 0.5107
0.9538 0.8957 0.5151
0.9815 0.9556 0.8294
0.0000 0.8243 0.6785
0.0000 0.8349 0.6936
0.1776 0.8298 0.6582
0.4755 0.8582 0.6196
0.6994 0.8864 0.5589
0.8592 0.9074 0.5483
0.9344 0.9148 0.5215
0.9604 0.9160 0.4849
0.9912 1.0070 0.8319
0.9200 1.1228 0.8633
0.9301 1.1148 0.8597
0.9402 1.1067 0.8561
0.9503 1.0987 0.8524
0.9604 1.0906 0.8488
0.9705 1.0826 0.8452
0.9806 1.0745 0.8416
0.9907 1.0665 0.8380
1.0008 1.0585 0.8344
0.0000 0.0156 0.5161
0.0000 0.0000 0.5563
0.1025 0.0000 0.5627
0.2559 0.0000 0.5806
0.4138 0.0000 0.5949
0.5469 0.0000 0.6151
0.6270 0.0000 0.6251
0.6822 0.0000 0.6513
0.9294 0.6475 0.8734
0.0000 0.0181 0.5889
0.0000 0.0002 0.6045
0.0997 0.0000 0.6087
0.2724 0.0000 0.6262
0.4445 0.0000 0.6461
0.5872 0.0000 0.6632
0.6772 0.0000 0.6749
0.7283 0.0000 0.6888
0.9390 0.6990 0.8759
0.0000 0.1318 0.6522
0.0000 0.1210 0.6680
0.0991 0.1035 0.6669
0.2898 0.0863 0.6742
0.4821 0.0797 0.6841
0.6335 0.0370 0.6925
0.7246 0.0388 0.6961
0.7751 0.1396 0.7132
0.9487 0.7504 0.8784
0.0000 0.3208 0.7338
0.0000 0.3222 0.7560
0.0788 0.3107 0.7523
0.3310 0.3317 0.7564
0.5482 0.3480 0.7550
0.7115 0.3554 0.7603
0.8084 0.3583 0.7602
0.8501 0.3986 0.7685
0.9584 0.8018 0.8809
0.0000 0.5528 0.8366
0.0000 0.5772 0.8609
0.0174 0.5677 0.8319
0.3578 0.5903 0.8309
0.6023 0.6202 0.8259
0.7846 0.6351 0.8181
0.8815 0.6412 0.8135
0.9180 0.6506 0.8105
0.9680 0.8532 0.8834
0.0000 0.7584 0.8849
0.0000 0.7837 0.9223
0.0065 0.7774 0.8954
0.3604 0.7959 0.8737
0.6315 0.8251 0.8575
0.8228 0.8429 0.8367
0.9199 0.8560 0.8255
0.9609 0.8589 0.8252
0.9777 0.9046 0.8858
0.0000 0.8559 0.9221
0.0000 0.8781 0.9409
0.0000 0.8624 0.9077
0.3540 0.8790 0.8794
0.6592 0.9137 0.8637
0.8470 0.9347 0.8466
0.9418 0.9421 0.8197
0.9754 0.9443 0.8164
0.9873 0.9560 0.8883
0.0000 0.8984 0.9447
0.0000 0.9018 0.9428
0.1039 0.8810 0.8997
0.4596 0.9083 0.8773
0.7066 0.9386 0.8550
0.8708 0.9576 0.8388
0.9531 0.9658 0.8277
0.9801 0.9657 0.8096
0.9970 1.0074 0.8908
0.9258 1.1231 0.9222
0.9359 1.1151 0.9186
0.9460 1.1071 0.9150
0.9561 1.0990 0.9114
0.9662 1.0910 0.9077
0.9763 1.0829 0.9041
0.9864 1.0749 0.9005
0.9966 1.0668 0.8969
1.0067 1.0588 0.8933
0.8544 0.7122 0.9613
0.0000 0.0000 0.6474
0.0922 0.0000 0.6614
0.2630 0.0000 0.6765
0.4262 0.0000 0.6878
0.5626 0.0000 0.7058
0.6430 0.0000 0.7184
0.6970 0.0000 0.7454
0.9352 0.6479 0.9323
0.0000 0.0423 0.6878
0.0000 0.0000 0.6942
0.0965 0.0000 0.7032
0.2793 0.0000 0.7171
0.4552 0.0000 0.7358
0.5993 0.0000 0.7533
0.6890 0.0000 0.7681
0.7417 0.0000 0.7804
0.9449 0.6993 0.9348
0.0000 0.1322 0.7438
0.0000 0.1154 0.7500
0.0820 0.0488 0.7480
0.2945 0.0737 0.7576
0.4862 0.0509 0.7704
0.6458 0.0646 0.7857
0.7363 0.0121 0.7924
0.7850 0.1256 0.8051
0.9545 0.7507 0.9373
0.0000 0.3256 0.8337
0.0000 0.3244 0.8457
0.0705 0.3121 0.8381
0.3254 0.3250 0.8385
0.5484 0.3444 0.8438
0.7151 0.3476 0.8500
0.8137 0.3540 0.8525
0.8550 0.3898 0.8559
0.9642 0.8021 0.9398
0.0000 0.5614 0.9327
0.0000 0.5854 0.9502
0.0000 0.5734 0.9351
0.3439 0.5927 0.9247
0.6026 0.6215 0.9179
0.7838 0.6355 0.9171
0.8865 0.6402 0.9120
0.9247 0.6551 0.9119
0.9739 0.8535 0.9423
0.0000 0.7580 0.9850
0.0000 0.7985 0.9969
0.0037 0.7966 0.9927
0.3397 0.8014 0.9738
0.6302 0.8387 0.9638
0.8222 0.8453 0.9509
0.9315 0.8660 0.9438
0.9664 0.8652 0.9409
0.9835 0.9049 0.9448
0.0000 0.8749 1.0000
0.0000 0.8885 1.0000
0.0095 0.8817 0.9976
0.3772 0.8942 0.9859
0.6575 0.9298 0.9747
0.8490 0.9510 0.9578
0.9483 0.9573 0.9527
0.9833 0.9622 0.9460
0.9932 0.9563 0.9472
0.0000 0.9095 0.9980
0.0000 0.9125 1.0000
0.0388 0.8972 0.9918
0.4517 0.9271 0.9883
0.7011 0.9562 0.9707
0.8701 0.9761 0.9600
0.9602 0.9847 0.9510
0.9894 0.9876 0.9485
1.0028 1.0077 0.9497
0.9316 1.1235 0.9811
0.9417 1.1154 0.9775
0.9518 1.1074 0.9739
0.9620 1.0994 0.9703
0.9721 1.0913 0.9667
0.9822 1.0833 0.9630
0.9923 1.0752 0.9594
1.0024 1.0672 0.9558
1.0125 1.0591 0.9522
0.8602 0.7126 1.0202
0.0000 0.0000 0.6897
0.0924 0.0000 0.7004
0.2704 0.0000 0.7165
0.4363 0.0000 0.7367
0.5725 0.0000 0.7499
0.6492 0.0000 0.7668
0.7087 0.0000 0.7894
0.9410 0.6482 0.9913
0.8698 0.7640 1.0227
0.0000 0.0000 0.7328
0.1010 0.0000 0.7398
0.2857 0.0000 0.7543
0.4595 0.0000 0.7722
0.6050 0.0000 0.7881
0.6988 0.0000 0.8022
0.7507 0.0000 0.8165
0.9507 0.6996 0.9937
0.0000 0.1397 0.7779
0.0000 0.1217 0.7871
0.0926 0.0888 0.7861
0.2962 0.0438 0.7904
0.4942 0.0671 0.8030
0.6490 0.0427 0.8144
0.7423 0.0273 0.8246
0.7932 0.1380 0.8390
0.9604 0.7510 0.9962
0.0000 0.3398 0.8679
0.0000 0.3442 0.8802
0.0295 0.3191 0.8688
0.3345 0.3407 0.8730
0.5544 0.3600 0.8780
0.7212 0.3654 0.8821
0.8194 0.3667 0.8861
0.8625 0.4028 0.8949
0.9700 0.8025 0.9987
0.0000 0.5823 0.9703
0.0000 0.6006 0.9839
0.0173 0.5845 0.9659
0.3528 0.6042 0.9562
0.6065 0.6343 0.9524
0.7883 0.6477 0.9497
0.8918 0.6543 0.9483
0.9289 0.6650 0.9489
0.9797 0.8539 1.0012
0.0000 0.7818 1.0000
0.0000 0.7977 1.0000
0.0024 0.7923 1.0000
0.3516 0.8061 1.0000
0.6340 0.8417 0.9925
0.8292 0.8612 0.9864
0.9321 0.8720 0.9812
0.9702 0.8742 0.9814
0.9893 0.9053 1.0037
0.0000 0.8664 1.0000
0.0000 0.8862 1.0000
0.0027 0.8789 1.0000
0.3705 0.8923 1.0000
0.6506 0.9300 0.9992
0.8497 0.9566 0.9973
0.9501 0.9639 0.9929
0.9840 0.9648 0.9891
0.9990 0.9567 1.0062
0.0000 0.9074 1.0000
0.0000 0.9077 1.0000
0.0119 0.8938 1.0000
0.4457 0.9237 1.0000
0.7014 0.9594 1.0000
0.8727 0.9817 0.9985
0.9616 0.9916 0.9939
0.9912 0.9935 0.9897
1.0087 1.0081 1.0086
0.9375 1.1238 1.0400
0.9476 1.1158 1.0364
0.9577 1.1077 1.0328
0.9678 1.0997 1.0292
0.9779 1.0917 1.0256
0.9880 1.0836 1.0220
0.9981 1.0756 1.0183
1.0082 1.0675 1.0147
1.0183 1.0595 1.0111
0.8660 0.7129 1.0791
0.8761 0.7049 1.0755
0.8862 0.6968 1.0719
0.8963 0.6888 1.0683
0.9064 0.6808 1.0647
0.9166 0.6727 1.0610
0.9267 0.6647 1.0574
0.9368 0.6566 1.0538
0.9469 0.6486 1.0502
0.8757 0.7643 1.0816
0.8858 0.7563 1.0780
0.8959 0.7482 1.0744
0.9060 0.7402 1.0708
0.9161 0.7322 1.0671
0.9262 0.7241 1.0635
0.9363 0.7161 1.0599
0.9464 0.7080 1.0563
0.9565 0.7000 1.0527
0.8853 0.8157 1.0841
0.8954 0.8077 1.0805
0.9055 0.7997 1.0768
0.9157 0.7916 1.0732
0.9258 0.7836 1.0696
0.9359 0.7755 1.0660
0.9460 0.7675 1.0624
0.9561 0.7594 1.0588
0.9662 0.7514 1.0551
0.8950 0.8671 1.0866
0.9051 0.8591 1.0829
0.9152 0.8511 1.0793
0.9253 0.8430 1.0757
0.9354 0.8350 1.0721
0.9455 0.8269 1.0685
0.9556 0.8189 1.0649
0.9657 0.8108 1.0612
0.9759 0.8028 1.0576
0.9047 0.9185 1.0890
0.9148 0.9105 1.0854
0.9249 0.9025 1.0818
0.9350 0.8944 1.0782
0.9451 0.8864 1.0746
0.9552 0.8783 1.0710
0.9653 0.8703 1.0673
0.9754 0.8622 1.0637
0.9855 0.8542 1.0601
0.9143 0.9700 1.0915
0.9244 0.9619 1.0879
0.9345 0.9539 1.0843
0.9446 0.9458 1.0807
0.9547 0.9378 1.0771
0.9649 0.9297 1.0734
0.9750 0.9217 1.0698
0.9851 0.9136 1.0662
0.9952 0.9056 1.0626
0.9240 1.0214 1.0940
0.9341 1.0133 1.0904
0.9442 1.0053 1.0868
0.9543 0.9972 1.0832
0.9644 0.9892 1.0795
0.9745 0.9811 1.0759
0.9846 0.9731 1.0723
0.9947 0.9651 1.0687
1.0048 0.9570 1.0651
0.9336 1.0728 1.0965
0.9437 1.0647 1.0929
0.9538 1.0567 1.0893
0.9640 1.0486 1.0856
0.9741 1.0406 1.0820
0.9842 1.0325 1.0784
0.9943 1.0245 1.0748
1.0044 1.0165 1.0712
1.0145 1.0084 1.0676
0.9433 1.1242 1.0990
0.9534 1.1161 1.0953
0.9635 1.1081 1.0917
0.9736 1.1000 1.0881
0.9837 1.0920 1.0845
0.9938 1.0840 1.0809
1.0039 1.0759 1.0773
1.0140 1.0679 1.0736
1.0242 1.0598 1.0700
