LUTs/blue-grey.cube
LUT_3D_SIZE 2
0 0 0
1 0 0
0 1 0
1 1 0
0.2 0.2 0.5
1 0 1
0 1 1
1 1 1
