LUTs/blue-grey_interp.cube

#Loaded 9 keypoints.
# header
LUT_3D_SIZE 9
0.0 0.0 0.0
0.025 0.025 0.0625
0.05 0.05 0.125
0.07500000000000001 0.07500000000000001 0.1875
0.1 0.1 0.25
0.125 0.125 0.3125
0.15000000000000002 0.15000000000000002 0.375
0.17500000000000002 0.17500000000000002 0.4375
0.2 0.2 0.5
0.0 0.125 0.0
0.0 0.125 0.125
0.025 0.15 0.1875
0.05 0.175 0.25
0.07500000000000001 0.2 0.3125
0.1 0.225 0.375
0.125 0.25 0.4375
0.15000000000000002 0.275 0.5
0.17500000000000002 0.30000000000000004 0.5625
0.0 0.25 0.0
0.0 0.25 0.125
0.0 0.25 0.25
0.025 0.275 0.3125
0.05 0.3 0.375
0.07500000000000001 0.325 0.4375
0.1 0.35 0.5
0.125 0.375 0.5625
0.15000000000000002 0.4 0.625
0.0 0.375 0.0
0.0 0.375 0.125
0.0 0.375 0.25
0.0 0.375 0.375
0.025 0.4 0.4375
0.05 0.425 0.5
0.07500000000000001 0.45 0.5625
0.1 0.475 0.625
0.125 0.5 0.6875
0.0 0.5 0.0
0.0 0.5 0.125
0.0 0.5 0.25
0.0 0.5 0.375
0.0 0.5 0.5
0.025 0.525 0.5625
0.05 0.55 0.625
0.07500000000000001 0.575 0.6875
0.1 0.6 0.75
0.0 0.625 0.0
0.0 0.625 0.125
0.0 0.625 0.25
0.0 0.625 0.375
0.0 0.625 0.5
0.0 0.625 0.625
0.025 0.65 0.6875
0.05 0.675 0.75
0.07500000000000001 0.7 0.8125
0.0 0.75 0.0
0.0 0.75 0.125
0.0 0.75 0.25
0.0 0.75 0.375
0.0 0.75 0.5
0.0 0.75 0.625
0.0 0.75 0.75
0.025 0.775 0.8125
0.05 0.8 0.875
0.0 0.875 0.0
0.0 0.875 0.125
0.0 0.875 0.25
0.0 0.875 0.375
0.0 0.875 0.5
0.0 0.875 0.625
0.0 0.875 0.75
0.0 0.875 0.875
0.025 0.9 0.9375
0.0 1.0 0.0
0.0 1.0 0.125
0.0 1.0 0.25
0.0 1.0 0.375
0.0 1.0 0.5
0.0 1.0 0.625
0.0 1.0 0.75
0.0 1.0 0.875
0.0 1.0 1.0
0.125 0.0 0.0
0.15 0.025 0.0625
0.175 0.05 0.125
0.2 0.07500000000000001 0.1875
0.225 0.1 0.25
0.25 0.125 0.3125
0.275 0.15000000000000002 0.375
0.30000000000000004 0.17500000000000002 0.4375
0.30000000000000004 0.17500000000000002 0.5625
0.125 0.125 0.0
0.125 0.125 0.125
0.15 0.15 0.1875
0.175 0.175 0.25
0.2 0.2 0.3125
0.225 0.225 0.375
0.25 0.25 0.4375
0.275 0.275 0.5
0.275 0.275 0.625
0.125 0.25 0.0
0.125 0.25 0.125
0.125 0.25 0.25
0.15 0.275 0.3125
0.175 0.3 0.375
0.2 0.325 0.4375
0.225 0.35 0.5
0.25 0.375 0.5625
0.25 0.375 0.6875
0.125 0.375 0.0
0.125 0.375 0.125
0.125 0.375 0.25
0.125 0.375 0.375
0.15 0.4 0.4375
0.175 0.425 0.5
0.2 0.45 0.5625
0.225 0.475 0.625
0.225 0.475 0.75
0.125 0.5 0.0
0.125 0.5 0.125
0.125 0.5 0.25
0.125 0.5 0.375
0.125 0.5 0.5
0.15 0.525 0.5625
0.175 0.55 0.625
0.2 0.575 0.6875
0.2 0.575 0.8125
0.125 0.625 0.0
0.125 0.625 0.125
0.125 0.625 0.25
0.125 0.625 0.375
0.125 0.625 0.5
0.125 0.625 0.625
0.15 0.65 0.6875
0.175 0.675 0.75
0.175 0.675 0.875
0.125 0.75 0.0
0.125 0.75 0.125
0.125 0.75 0.25
0.125 0.75 0.375
0.125 0.75 0.5
0.125 0.75 0.625
0.125 0.75 0.75
0.15 0.775 0.8125
0.15 0.775 0.9375
0.125 0.875 0.0
0.125 0.875 0.125
0.125 0.875 0.25
0.125 0.875 0.375
0.125 0.875 0.5
0.125 0.875 0.625
0.125 0.875 0.75
0.125 0.875 0.875
0.125 0.875 1.0
0.125 1.0 0.0
0.125 1.0 0.125
0.125 1.0 0.25
0.125 1.0 0.375
0.125 1.0 0.5
0.125 1.0 0.625
0.125 1.0 0.75
0.125 1.0 0.875
0.125 1.0 1.0
0.25 0.0 0.0
0.275 0.025 0.0625
0.3 0.05 0.125
0.325 0.07500000000000001 0.1875
0.35 0.1 0.25
0.375 0.125 0.3125
0.4 0.15000000000000002 0.375
0.4 0.15000000000000002 0.5
0.4 0.15000000000000002 0.625
0.25 0.125 0.0
0.25 0.125 0.125
0.275 0.15 0.1875
0.3 0.175 0.25
0.325 0.2 0.3125
0.35 0.225 0.375
0.375 0.25 0.4375
0.375 0.25 0.5625
0.375 0.25 0.6875
0.25 0.25 0.0
0.25 0.25 0.125
0.25 0.25 0.25
0.275 0.275 0.3125
0.3 0.3 0.375
0.325 0.325 0.4375
0.35 0.35 0.5
0.35 0.35 0.625
0.35 0.35 0.75
0.25 0.375 0.0
0.25 0.375 0.125
0.25 0.375 0.25
0.25 0.375 0.375
0.275 0.4 0.4375
0.3 0.425 0.5
0.325 0.45 0.5625
0.325 0.45 0.6875
0.325 0.45 0.8125
0.25 0.5 0.0
0.25 0.5 0.125
0.25 0.5 0.25
0.25 0.5 0.375
0.25 0.5 0.5
0.275 0.525 0.5625
0.3 0.55 0.625
0.3 0.55 0.75
0.3 0.55 0.875
0.25 0.625 0.0
0.25 0.625 0.125
0.25 0.625 0.25
0.25 0.625 0.375
0.25 0.625 0.5
0.25 0.625 0.625
0.275 0.65 0.6875
0.275 0.65 0.8125
0.275 0.65 0.9375
0.25 0.75 0.0
0.25 0.75 0.125
0.25 0.75 0.25
0.25 0.75 0.375
0.25 0.75 0.5
0.25 0.75 0.625
0.25 0.75 0.75
0.25 0.75 0.875
0.25 0.75 1.0
0.25 0.875 0.0
0.25 0.875 0.125
0.25 0.875 0.25
0.25 0.875 0.375
0.25 0.875 0.5
0.25 0.875 0.625
0.25 0.875 0.75
0.25 0.875 0.875
0.25 0.875 1.0
0.25 1.0 0.0
0.25 1.0 0.125
0.25 1.0 0.25
0.25 1.0 0.375
0.25 1.0 0.5
0.25 1.0 0.625
0.25 1.0 0.75
0.25 1.0 0.875
0.25 1.0 1.0
0.375 0.0 0.0
0.4 0.025 0.0625
0.425 0.05 0.125
0.45 0.07500000000000001 0.1875
0.475 0.1 0.25
0.5 0.125 0.3125
0.5 0.125 0.4375
0.5 0.125 0.5625
0.5 0.125 0.6875
0.375 0.125 0.0
0.375 0.125 0.125
0.4 0.15 0.1875
0.425 0.175 0.25
0.45 0.2 0.3125
0.475 0.225 0.375
0.475 0.225 0.5
0.475 0.225 0.625
0.475 0.225 0.75
0.375 0.25 0.0
0.375 0.25 0.125
0.375 0.25 0.25
0.4 0.275 0.3125
0.425 0.3 0.375
0.45 0.325 0.4375
0.45 0.325 0.5625
0.45 0.325 0.6875
0.45 0.325 0.8125
0.375 0.375 0.0
0.375 0.375 0.125
0.375 0.375 0.25
0.375 0.375 0.375
0.4 0.4 0.4375
0.425 0.425 0.5
0.425 0.425 0.625
0.425 0.425 0.75
0.425 0.425 0.875
0.375 0.5 0.0
0.375 0.5 0.125
0.375 0.5 0.25
0.375 0.5 0.375
0.375 0.5 0.5
0.4 0.525 0.5625
0.4 0.525 0.6875
0.4 0.525 0.8125
0.4 0.525 0.9375
0.375 0.625 0.0
0.375 0.625 0.125
0.375 0.625 0.25
0.375 0.625 0.375
0.375 0.625 0.5
0.375 0.625 0.625
0.375 0.625 0.75
0.375 0.625 0.875
0.375 0.625 1.0
0.375 0.75 0.0
0.375 0.75 0.125
0.375 0.75 0.25
0.375 0.75 0.375
0.375 0.75 0.5
0.375 0.75 0.625
0.375 0.75 0.75
0.375 0.75 0.875
0.375 0.75 1.0
0.375 0.875 0.0
0.375 0.875 0.125
0.375 0.875 0.25
0.375 0.875 0.375
0.375 0.875 0.5
0.375 0.875 0.625
0.375 0.875 0.75
0.375 0.875 0.875
0.375 0.875 1.0
0.375 1.0 0.0
0.375 1.0 0.125
0.375 1.0 0.25
0.375 1.0 0.375
0.375 1.0 0.5
0.375 1.0 0.625
0.375 1.0 0.75
0.375 1.0 0.875
0.375 1.0 1.0
0.5 0.0 0.0
0.525 0.025 0.0625
0.55 0.05 0.125
0.575 0.07500000000000001 0.1875
0.6 0.1 0.25
0.6 0.1 0.375
0.6 0.1 0.5
0.6 0.1 0.625
0.6 0.1 0.75
0.5 0.125 0.0
0.5 0.125 0.125
0.525 0.15 0.1875
0.55 0.175 0.25
0.575 0.2 0.3125
0.575 0.2 0.4375
0.575 0.2 0.5625
0.575 0.2 0.6875
0.575 0.2 0.8125
0.5 0.25 0.0
0.5 0.25 0.125
0.5 0.25 0.25
0.525 0.275 0.3125
0.55 0.3 0.375
0.55 0.3 0.5
0.55 0.3 0.625
0.55 0.3 0.75
0.55 0.3 0.875
0.5 0.375 0.0
0.5 0.375 0.125
0.5 0.375 0.25
0.5 0.375 0.375
0.525 0.4 0.4375
0.525 0.4 0.5625
0.525 0.4 0.6875
0.525 0.4 0.8125
0.525 0.4 0.9375
0.5 0.5 0.0
0.5 0.5 0.125
0.5 0.5 0.25
0.5 0.5 0.375
0.5 0.5 0.5
0.5 0.5 0.625
0.5 0.5 0.75
0.5 0.5 0.875
0.5 0.5 1.0
0.5 0.625 0.0
0.5 0.625 0.125
0.5 0.625 0.25
0.5 0.625 0.375
0.5 0.625 0.5
0.5 0.625 0.625
0.5 0.625 0.75
0.5 0.625 0.875
0.5 0.625 1.0
0.5 0.75 0.0
0.5 0.75 0.125
0.5 0.75 0.25
0.5 0.75 0.375
0.5 0.75 0.5
0.5 0.75 0.625
0.5 0.75 0.75
0.5 0.75 0.875
0.5 0.75 1.0
0.5 0.875 0.0
0.5 0.875 0.125
0.5 0.875 0.25
0.5 0.875 0.375
0.5 0.875 0.5
0.5 0.875 0.625
0.5 0.875 0.75
0.5 0.875 0.875
0.5 0.875 1.0
0.5 1.0 0.0
0.5 1.0 0.125
0.5 1.0 0.25
0.5 1.0 0.375
0.5 1.0 0.5
0.5 1.0 0.625
0.5 1.0 0.75
0.5 1.0 0.875
0.5 1.0 1.0
0.625 0.0 0.0
0.65 0.025 0.0625
0.675 0.05 0.125
0.7 0.07500000000000001 0.1875
0.7 0.07500000000000001 0.3125
0.7 0.07500000000000001 0.4375
0.7 0.07500000000000001 0.5625
0.7 0.07500000000000001 0.6875
0.7 0.07500000000000001 0.8125
0.625 0.125 0.0
0.625 0.125 0.125
0.65 0.15 0.1875
0.675 0.175 0.25
0.675 0.175 0.375
0.675 0.175 0.5
0.675 0.175 0.625
0.675 0.175 0.75
0.675 0.175 0.875
0.625 0.25 0.0
0.625 0.25 0.125
0.625 0.25 0.25
0.65 0.275 0.3125
0.65 0.275 0.4375
0.65 0.275 0.5625
0.65 0.275 0.6875
0.65 0.275 0.8125
0.65 0.275 0.9375
0.625 0.375 0.0
0.625 0.375 0.125
0.625 0.375 0.25
0.625 0.375 0.375
0.625 0.375 0.5
0.625 0.375 0.625
0.625 0.375 0.75
0.625 0.375 0.875
0.625 0.375 1.0
0.625 0.5 0.0
0.625 0.5 0.125
0.625 0.5 0.25
0.625 0.5 0.375
0.625 0.5 0.5
0.625 0.5 0.625
0.625 0.5 0.75
0.625 0.5 0.875
0.625 0.5 1.0
0.625 0.625 0.0
0.625 0.625 0.125
0.625 0.625 0.25
0.625 0.625 0.375
0.625 0.625 0.5
0.625 0.625 0.625
0.625 0.625 0.75
0.625 0.625 0.875
0.625 0.625 1.0
0.625 0.75 0.0
0.625 0.75 0.125
0.625 0.75 0.25
0.625 0.75 0.375
0.625 0.75 0.5
0.625 0.75 0.625
0.625 0.75 0.75
0.625 0.75 0.875
0.625 0.75 1.0
0.625 0.875 0.0
0.625 0.875 0.125
0.625 0.875 0.25
0.625 0.875 0.375
0.625 0.875 0.5
0.625 0.875 0.625
0.625 0.875 0.75
0.625 0.875 0.875
0.625 0.875 1.0
0.625 1.0 0.0
0.625 1.0 0.125
0.625 1.0 0.25
0.625 1.0 0.375
0.625 1.0 0.5
0.625 1.0 0.625
0.625 1.0 0.75
0.625 1.0 0.875
0.625 1.0 1.0
0.75 0.0 0.0
0.775 0.025 0.0625
0.8 0.05 0.125
0.8 0.05 0.25
0.8 0.05 0.375
0.8 0.05 0.5
0.8 0.05 0.625
0.8 0.05 0.75
0.8 0.05 0.875
0.75 0.125 0.0
0.75 0.125 0.125
0.775 0.15 0.1875
0.775 0.15 0.3125
0.775 0.15 0.4375
0.775 0.15 0.5625
0.775 0.15 0.6875
0.775 0.15 0.8125
0.775 0.15 0.9375
0.75 0.25 0.0
0.75 0.25 0.125
0.75 0.25 0.25
0.75 0.25 0.375
0.75 0.25 0.5
0.75 0.25 0.625
0.75 0.25 0.75
0.75 0.25 0.875
0.75 0.25 1.0
0.75 0.375 0.0
0.75 0.375 0.125
0.75 0.375 0.25
0.75 0.375 0.375
0.75 0.375 0.5
0.75 0.375 0.625
0.75 0.375 0.75
0.75 0.375 0.875
0.75 0.375 1.0
0.75 0.5 0.0
0.75 0.5 0.125
0.75 0.5 0.25
0.75 0.5 0.375
0.75 0.5 0.5
0.75 0.5 0.625
0.75 0.5 0.75
0.75 0.5 0.875
0.75 0.5 1.0
0.75 0.625 0.0
0.75 0.625 0.125
0.75 0.625 0.25
0.75 0.625 0.375
0.75 0.625 0.5
0.75 0.625 0.625
0.75 0.625 0.75
0.75 0.625 0.875
0.75 0.625 1.0
0.75 0.75 0.0
0.75 0.75 0.125
0.75 0.75 0.25
0.75 0.75 0.375
0.75 0.75 0.5
0.75 0.75 0.625
0.75 0.75 0.75
0.75 0.75 0.875
0.75 0.75 1.0
0.75 0.875 0.0
0.75 0.875 0.125
0.75 0.875 0.25
0.75 0.875 0.375
0.75 0.875 0.5
0.75 0.875 0.625
0.75 0.875 0.75
0.75 0.875 0.875
0.75 0.875 1.0
0.75 1.0 0.0
0.75 1.0 0.125
0.75 1.0 0.25
0.75 1.0 0.375
0.75 1.0 0.5
0.75 1.0 0.625
0.75 1.0 0.75
0.75 1.0 0.875
0.75 1.0 1.0
0.875 0.0 0.0
0.9 0.025 0.0625
0.9 0.025 0.1875
0.9 0.025 0.3125
0.9 0.025 0.4375
0.9 0.025 0.5625
0.9 0.025 0.6875
0.9 0.025 0.8125
0.9 0.025 0.9375
0.875 0.125 0.0
0.875 0.125 0.125
0.875 0.125 0.25
0.875 0.125 0.375
0.875 0.125 0.5
0.875 0.125 0.625
0.875 0.125 0.75
0.875 0.125 0.875
0.875 0.125 1.0
0.875 0.25 0.0
0.875 0.25 0.125
0.875 0.25 0.25
0.875 0.25 0.375
0.875 0.25 0.5
0.875 0.25 0.625
0.875 0.25 0.75
0.875 0.25 0.875
0.875 0.25 1.0
0.875 0.375 0.0
0.875 0.375 0.125
0.875 0.375 0.25
0.875 0.375 0.375
0.875 0.375 0.5
0.875 0.375 0.625
0.875 0.375 0.75
0.875 0.375 0.875
0.875 0.375 1.0
0.875 0.5 0.0
0.875 0.5 0.125
0.875 0.5 0.25
0.875 0.5 0.375
0.875 0.5 0.5
0.875 0.5 0.625
0.875 0.5 0.75
0.875 0.5 0.875
0.875 0.5 1.0
0.875 0.625 0.0
0.875 0.625 0.125
0.875 0.625 0.25
0.875 0.625 0.375
0.875 0.625 0.5
0.875 0.625 0.625
0.875 0.625 0.75
0.875 0.625 0.875
0.875 0.625 1.0
0.875 0.75 0.0
0.875 0.75 0.125
0.875 0.75 0.25
0.875 0.75 0.375
0.875 0.75 0.5
0.875 0.75 0.625
0.875 0.75 0.75
0.875 0.75 0.875
0.875 0.75 1.0
0.875 0.875 0.0
0.875 0.875 0.125
0.875 0.875 0.25
0.875 0.875 0.375
0.875 0.875 0.5
0.875 0.875 0.625
0.875 0.875 0.75
0.875 0.875 0.875
0.875 0.875 1.0
0.875 1.0 0.0
0.875 1.0 0.125
0.875 1.0 0.25
0.875 1.0 0.375
0.875 1.0 0.5
0.875 1.0 0.625
0.875 1.0 0.75
0.875 1.0 0.875
0.875 1.0 1.0
1.0 0.0 0.0
1.0 0.0 0.125
1.0 0.0 0.25
1.0 0.0 0.375
1.0 0.0 0.5
1.0 0.0 0.625
1.0 0.0 0.75
1.0 0.0 0.875
1.0 0.0 1.0
1.0 0.125 0.0
1.0 0.125 0.125
1.0 0.125 0.25
1.0 0.125 0.375
1.0 0.125 0.5
1.0 0.125 0.625
1.0 0.125 0.75
1.0 0.125 0.875
1.0 0.125 1.0
1.0 0.25 0.0
1.0 0.25 0.125
1.0 0.25 0.25
1.0 0.25 0.375
1.0 0.25 0.5
1.0 0.25 0.625
1.0 0.25 0.75
1.0 0.25 0.875
1.0 0.25 1.0
1.0 0.375 0.0
1.0 0.375 0.125
1.0 0.375 0.25
1.0 0.375 0.375
1.0 0.375 0.5
1.0 0.375 0.625
1.0 0.375 0.75
1.0 0.375 0.875
1.0 0.375 1.0
1.0 0.5 0.0
1.0 0.5 0.125
1.0 0.5 0.25
1.0 0.5 0.375
1.0 0.5 0.5
1.0 0.5 0.625
1.0 0.5 0.75
1.0 0.5 0.875
1.0 0.5 1.0
1.0 0.625 0.0
1.0 0.625 0.125
1.0 0.625 0.25
1.0 0.625 0.375
1.0 0.625 0.5
1.0 0.625 0.625
1.0 0.625 0.75
1.0 0.625 0.875
1.0 0.625 1.0
1.0 0.75 0.0
1.0 0.75 0.125
1.0 0.75 0.25
1.0 0.75 0.375
1.0 0.75 0.5
1.0 0.75 0.625
1.0 0.75 0.75
1.0 0.75 0.875
1.0 0.75 1.0
1.0 0.875 0.0
1.0 0.875 0.125
1.0 0.875 0.25
1.0 0.875 0.375
1.0 0.875 0.5
1.0 0.875 0.625
1.0 0.875 0.75
1.0 0.875 0.875
1.0 0.875 1.0
1.0 1.0 0.0
1.0 1.0 0.125
1.0 1.0 0.25
1.0 1.0 0.375
1.0 1.0 0.5
1.0 1.0 0.625
1.0 1.0 0.75
1.0 1.0 0.875
1.0 1.0 1.0
