LUTs/kodak.cube
# Loaded 129 keypoints.
LUT_3D_SIZE 5
0.3453 -0.2820 -0.2555
0.4213 -0.2860 -0.3509
0.4973 -0.2901 -0.4463
0.5732 -0.2942 -0.5416
0.6492 -0.2983 -0.6370
0.3225 0.1073 -0.0692
0.1533 0.1468 0.0000
0.4026 0.1507 0.0000
0.5505 0.0950 -0.3553
0.6264 0.0910 -0.4506
0.2997 0.4965 0.1172
0.2165 0.3199 0.0000
0.5190 0.3986 0.0000
0.7341 0.3934 0.0000
0.6036 0.4802 -0.2643
0.2770 0.8857 0.3035
0.3529 0.8816 0.2082
0.5399 0.5481 0.0000
0.8323 0.5978 0.0000
0.5808 0.8694 -0.0779
0.2542 1.2749 0.4899
0.3301 1.2709 0.3945
0.4061 1.2668 0.2992
0.4821 1.2627 0.2038
0.5581 1.2586 0.1084
0.2238 -0.2774 0.0358
0.1693 0.0307 0.0912
0.3608 0.0139 0.0951
0.4517 -0.2896 -0.2503
0.5277 -0.2937 -0.3457
0.2010 0.1118 0.2221
0.1622 0.1341 0.0741
0.4130 0.1092 0.0641
0.6442 0.1424 0.0707
0.5049 0.0956 -0.1593
0.1782 0.5011 0.4085
0.1741 0.3697 0.0741
0.5625 0.4801 0.0000
0.7992 0.4708 0.0419
0.4821 0.4848 0.0270
0.1554 0.8903 0.5948
0.2003 0.6047 0.0177
0.6379 0.6877 0.0000
0.8756 0.7200 0.0000
0.4593 0.8740 0.2134
0.1326 1.2795 0.7812
0.2086 1.2754 0.6858
0.2846 1.2714 0.5905
0.3605 1.2673 0.4951
0.4365 1.2632 0.3997
0.1022 -0.2728 0.3271
0.1782 -0.2769 0.2317
0.2542 -0.2809 0.1363
0.3301 -0.2850 0.0410
0.4061 -0.2891 -0.0544
0.0794 0.1164 0.5134
0.1360 0.1139 0.4647
0.4580 0.1759 0.4937
0.7151 0.2499 0.5225
0.3833 0.1001 0.1320
0.0566 0.5057 0.6998
0.1600 0.5021 0.5951
0.5550 0.5486 0.5192
0.8506 0.5886 0.5549
0.3605 0.4894 0.3183
0.0338 0.8949 0.8861
0.1118 0.7965 0.6175
0.6368 0.8426 0.5614
0.8873 0.8478 0.5053
0.3377 0.8786 0.5047
0.0111 1.2841 1.0725
0.0870 1.2800 0.9771
0.1630 1.2759 0.8818
0.2390 1.2719 0.7864
0.3149 1.2678 0.6910
-0.0193 -0.2682 0.6184
0.0566 -0.2723 0.5230
0.1326 -0.2764 0.4276
0.2086 -0.2804 0.3323
0.2846 -0.2845 0.2369
-0.0421 0.1210 0.8047
0.0960 0.1567 0.7647
0.4782 0.1134 0.7709
0.7186 0.1270 0.8048
0.2618 0.1047 0.4233
-0.0649 0.5102 0.9911
0.1258 0.5462 0.9045
0.5879 0.6089 0.9055
0.8493 0.6275 0.9063
0.2390 0.4939 0.6096
0.0000 0.8451 0.9891
0.2635 0.8738 0.9766
0.6377 0.9122 0.9668
0.9276 0.8956 0.9409
0.2162 0.8832 0.7960
-0.1105 1.2887 1.3638
-0.0345 1.2846 1.2684
0.0414 1.2805 1.1731
0.1174 1.2765 1.0777
0.1934 1.2724 0.9823
-0.1409 -0.2636 0.9097
-0.0649 -0.2677 0.8143
0.0111 -0.2718 0.7189
0.0870 -0.2759 0.6236
0.1630 -0.2799 0.5282
-0.1637 0.1256 1.0960
-0.0877 0.1215 1.0007
-0.0117 0.1174 0.9053
0.0642 0.1134 0.8099
0.1402 0.1093 0.7146
-0.1865 0.5148 1.2824
-0.1105 0.5107 1.1870
-0.0345 0.5067 1.0916
0.0414 0.5026 0.9963
0.1174 0.4985 0.9009
-0.2093 0.9040 1.4687
-0.1333 0.9000 1.3734
-0.0573 0.8959 1.2780
0.0186 0.8918 1.1826
0.0946 0.8877 1.0873
-0.2321 1.2933 1.6551
-0.1561 1.2892 1.5597
-0.0801 1.2851 1.4644
-0.0041 1.2810 1.3690
0.0718 1.2770 1.2736
