LUTs/Kodak_interp2.cube
#Loaded 137 keypoints.
# header
LUT_3D_SIZE 5
0.0 0.0 0.0
0.0 2.569469637059285e-18 0.24999999999999997
0.0 5.13893927411857e-18 0.49999999999999994
0.0 7.708408911177855e-18 0.7499999999999999
0.0 0.0 1.0
0.0 0.25 0.0
0.0 0.1467671370967742 0.1533115887096774
0.0 0.15069727702702698 0.40255102702702694
0.0 0.15413671428571427 0.7017267499999998
0.0 0.25 1.0
0.0 0.5 0.0
0.0 0.3198517272727273 0.2165313125
0.0 0.39856743877551026 0.5189523214285714
0.0 0.4196981884615385 0.7914271807692307
0.0 0.5 1.0
0.0 0.75 0.0
0.0 0.5431865 0.22514433333333334
0.0 0.5481229375000001 0.5399056250000001
0.0 0.5978328671874998 0.8323490546875
0.0 0.75 1.0
0.0 1.0 0.0
0.0 1.0 0.25
0.0 1.0 0.5
0.0 1.0 0.75
0.0 1.0 1.0
0.25 0.0 0.0
0.09121217077464787 0.030745820422535215 0.16929502464788726
0.09511087676056337 0.013915762323943663 0.3607603855633802
0.13283780921052624 0.0 0.5927522105263157
0.25 0.0 1.0
0.3618696721698115 0.3074364056603775 0.0
0.07413391874999999 0.13407336875 0.16222791875
0.06411576502732234 0.10924762158469944 0.41301617144808744
0.07073676923076921 0.14241011298076922 0.6441719567307692
0.25 0.25 1.0
0.3712570125 0.559998675 0.0
0.07409950000000001 0.3696653333333333 0.17412733333333333
0.0 0.48008930452127657 0.5624712466755318
0.04193099315068493 0.4707907568493151 0.799245462328767
0.25 0.5 1.0
0.3712570125 0.809998675 0.0
0.01773502307692308 0.6047310807692308 0.20028413846153847
0.0 0.6877365675675676 0.6379223412162162
0.0 0.7199944243515851 0.8755686095100865
0.25 0.75 1.0
0.24999999999999997 1.0 3.95764199190296e-17
0.25 1.0 0.25
0.25 1.0 0.5
0.25 1.0 0.75
0.25 1.0 1.0
0.5 0.0 0.0
0.4158089825085323 0.02155658831058021 0.19286372738907848
0.4479753805460752 0.013982651877133104 0.4067825529010239
0.46493233223684205 0.0 0.6110101118421052
0.5 0.0 1.0
0.6145691124999999 0.31220846249999995 0.0
0.46468913178294574 0.11385197480620156 0.1360114127906977
0.49370667264150936 0.1758682566037736 0.458008941509434
0.5225292222982216 0.2499472965116279 0.7150561186730506
0.5 0.25 1.0
0.723739344339623 0.614872811320755 0.0
0.5951332755905512 0.5020731131889764 0.1600040137795276
0.5191631038062282 0.5486291453287199 0.5549779619377164
0.554889685381356 0.5886191980932203 0.8506254915254238
0.5 0.5 1.0
0.7398012429577463 0.8553269154929579 0.0
0.6174832623152708 0.7964529064039408 0.11183177339901468
0.5613835714285715 0.8425632392857143 0.6367753285714286
0.5052835493055554 0.847752923611111 0.8872649069444445
0.5 0.75 1.0
0.49999999999999994 1.0 7.91528398380592e-17
0.5 0.9999999999999999 0.25000000000000006
0.5 1.0 0.5
0.5 1.0 0.75
0.5 1.0 1.0
0.75 -1.0802667510523281e-17 -1.1978397024270394e-17
0.7239876902730378 0.006991325938566552 0.20339127645051194
0.7536797500000001 0.0 0.42008557692307696
0.75367975 0.0 0.6700855769230769
0.75 0.0 1.0
0.8645691124999999 0.31220846249999995 0.0
0.7647150528846154 0.1566790384615385 0.09601064903846152
0.770893466080402 0.11341053643216081 0.4781544579145728
0.8047971785714285 0.12699580714285713 0.7185981714285715
0.75 0.25 1.0
0.979138225 0.6244169249999999 0.0
0.9044979017857143 0.5461538325892857 0.1257943258928572
0.9054608362800566 0.6088798822489392 0.5878794016973126
0.9062604013157896 0.6274697006578948 0.8492501809210526
0.75 0.5 1.0
0.9890520083333333 0.8450948749999999 0.0
0.9765831922535211 0.8738242605633804 0.26352549647887324
0.9667959511278195 0.912163894736842 0.6376682669172932
0.9406772704918034 0.8968235163934426 0.9287091803278689
0.75 0.75 1.0
0.7499999999999999 1.0 1.1872925975708877e-16
0.75 0.9999999999999998 0.2500000000000001
0.75 1.0 0.5
0.75 1.0 0.75
0.75 1.0 1.0
1.0 0.0 0.0
1.0 0.0 0.25
1.0 0.0 0.5
1.0 0.0 0.75
1.0 0.0 1.0
1.0 0.25 0.0
1.0 0.25 0.25
0.9999999999999999 0.25000000000000006 0.5
1.0 0.2500000000000001 0.75
1.0 0.25 1.0
1.0 0.5 0.0
1.0 0.5 0.25
1.0 0.5 0.5
0.9999999999999999 0.5 0.75
1.0 0.5 1.0
1.0 0.75 0.0
1.0 0.75 0.25
1.0 0.75 0.5
1.0 0.75 0.75
1.0 0.75 1.0
0.9999999999999999 1.0 1.583056796761184e-16
1.0 1.0 0.25000000000000017
1.0 0.9999999999999998 0.5000000000000001
1.0 0.9999999999999999 0.75
1.0 1.0 1.0
