LUTs/kodak.cube
# Loaded 129 keypoints.
LUT_3D_SIZE 9
0.3453 -0.2820 -0.2555
0.3833 -0.2840 -0.3032
0.4213 -0.2860 -0.3509
0.4593 -0.2881 -0.3986
0.4973 -0.2901 -0.4463
0.5353 -0.2921 -0.4940
0.5732 -0.2942 -0.5416
0.6112 -0.2962 -0.5893
0.6492 -0.2983 -0.6370
0.3339 -0.0873 -0.1624
0.3719 -0.0894 -0.2100
0.4099 -0.0914 -0.2577
0.2331 0.0855 0.0000
0.3530 0.0411 0.0000
0.5239 -0.0975 -0.4008
0.5619 -0.0996 -0.4485
0.5998 -0.1016 -0.4961
0.6378 -0.1036 -0.5438
0.3225 0.1073 -0.0692
0.3605 0.1052 -0.1169
0.1533 0.1468 0.0000
0.2826 0.1952 0.0000
0.4026 0.1507 0.0000
0.5423 0.1388 0.0000
0.5505 0.0950 -0.3553
0.5884 0.0930 -0.4030
0.6264 0.0910 -0.4506
0.3111 0.3019 0.0240
0.3491 0.2998 -0.0237
0.2001 0.2295 0.0000
0.3309 0.2926 0.0000
0.4549 0.2649 0.0000
0.6064 0.2724 0.0000
0.5391 0.2897 -0.2621
0.5770 0.2876 -0.3098
0.6150 0.2856 -0.3575
0.2997 0.4965 0.1172
0.3377 0.4945 0.0695
0.2165 0.3199 0.0000
0.3732 0.3765 0.0000
0.5190 0.3986 0.0000
0.6669 0.4022 0.0000
0.7341 0.3934 0.0000
0.5657 0.4822 -0.2166
0.6036 0.4802 -0.2643
0.2884 0.6911 0.2104
0.3263 0.6891 0.1627
0.2169 0.4142 0.0000
0.3746 0.4620 0.0000
0.5361 0.4808 0.0000
0.6863 0.4869 0.0000
0.8006 0.5291 0.0000
0.5543 0.6768 -0.1234
0.5922 0.6748 -0.1711
0.2770 0.8857 0.3035
0.3149 0.8837 0.2559
0.3529 0.8816 0.2082
0.3909 0.8796 0.1605
0.5399 0.5481 0.0000
0.7014 0.5669 0.0000
0.8323 0.5978 0.0000
0.5429 0.8715 -0.0302
0.5808 0.8694 -0.0779
0.2656 1.0803 0.3967
0.3035 1.0783 0.3490
0.3415 1.0763 0.3014
0.3795 1.0742 0.2537
0.4175 1.0722 0.2060
0.4555 1.0701 0.1583
0.4935 1.0681 0.1106
0.5315 1.0661 0.0629
0.5694 1.0640 0.0153
0.2542 1.2749 0.4899
0.2921 1.2729 0.4422
0.3301 1.2709 0.3945
0.3681 1.2688 0.3469
0.4061 1.2668 0.2992
0.4441 1.2648 0.2515
0.4821 1.2627 0.2038
0.5201 1.2607 0.1561
0.5581 1.2586 0.1084
0.2846 -0.2797 -0.1099
0.3225 -0.2817 -0.1576
0.3605 -0.2837 -0.2053
0.3985 -0.2858 -0.2529
0.4365 -0.2878 -0.3006
0.4745 -0.2899 -0.3483
0.5125 -0.2919 -0.3960
0.5505 -0.2939 -0.4437
0.5884 -0.2960 -0.4914
0.2732 -0.0851 -0.0167
0.0635 0.0557 0.0357
0.1137 0.0520 0.0426
0.2310 0.0384 0.0139
0.3541 0.0104 0.0067
0.4690 0.0000 0.0000
0.5554 0.0000 0.0000
0.5391 -0.0993 -0.3505
0.5770 -0.1014 -0.3982
0.2618 0.1096 0.0765
0.0732 0.1055 0.0315
0.1457 0.1168 0.0142
0.2684 0.1217 0.0000
0.4164 0.1046 0.0035
0.5186 0.0558 0.0012
0.6108 0.0721 0.0000
0.5277 0.0953 -0.2573
0.5657 0.0933 -0.3050
0.2504 0.3042 0.1697
0.0727 0.2039 0.0256
0.1753 0.2102 0.0045
0.3175 0.2317 0.0000
0.4744 0.2263 0.0000
0.6039 0.2240 0.0000
0.6839 0.2131 0.0000
0.5163 0.2899 -0.1641
0.5543 0.2879 -0.2118
0.2390 0.4988 0.2628
0.0762 0.3376 0.0028
0.1900 0.3445 0.0000
0.3428 0.3633 0.0000
0.5275 0.3897 0.0000
0.6641 0.4119 0.0000
0.7742 0.4319 0.0000
0.5049 0.4845 -0.0710
0.5429 0.4825 -0.1186
0.2276 0.6934 0.3560
0.0947 0.4507 0.0000
0.2034 0.4677 0.0000
0.3866 0.5115 0.0000
0.5782 0.5511 0.0000
0.6931 0.5358 0.0000
0.8117 0.5335 0.0000
0.8240 0.4921 0.0000
0.5315 0.6771 -0.0255
0.2162 0.8880 0.4492
0.0798 0.5076 0.0000
0.2267 0.5463 0.0000
0.4244 0.5816 0.0000
0.6206 0.6251 0.0000
0.7354 0.6383 0.0000
0.8412 0.6381 0.0000
0.8779 0.6321 0.0000
0.5201 0.8717 0.0677
0.2048 1.0826 0.5424
0.1088 0.5543 0.0000
0.3048 0.5908 0.0000
0.4535 0.6229 0.0000
0.5760 0.6414 0.0000
0.7023 0.6599 0.0000
0.4327 1.0704 0.2563
0.4707 1.0684 0.2086
0.5087 1.0663 0.1609
0.1934 1.2772 0.6356
0.2314 1.2752 0.5879
0.2694 1.2732 0.5402
0.3073 1.2711 0.4925
0.3453 1.2691 0.4448
0.3833 1.2670 0.3971
0.4213 1.2650 0.3495
0.4593 1.2630 0.3018
0.4973 1.2609 0.2541
0.2238 -0.2774 0.0358
0.0736 0.0392 0.0893
0.1693 0.0307 0.0912
0.2650 0.0223 0.0932
0.3608 0.0139 0.0951
0.4565 0.0055 0.0971
0.4517 -0.2896 -0.2503
0.4897 -0.2916 -0.2980
0.5277 -0.2937 -0.3457
0.2124 -0.0828 0.1289
0.0578 0.0653 0.0938
0.1355 0.0562 0.0915
0.2430 0.0450 0.0697
0.3641 0.0303 0.0726
0.4934 0.0379 0.0651
0.5775 0.0181 0.0860
0.4783 -0.0970 -0.2048
0.5163 -0.0991 -0.2525
0.2010 0.1118 0.2221
0.0694 0.1221 0.0950
0.1622 0.1341 0.0741
0.2752 0.1232 0.0739
0.4130 0.1092 0.0641
0.5553 0.1045 0.0636
0.6442 0.1424 0.0707
0.6879 0.1702 0.0004
0.5049 0.0956 -0.1593
0.1896 0.3065 0.3153
0.0636 0.2217 0.0742
0.1668 0.2392 0.0858
0.3211 0.2574 0.0099
0.4916 0.2838 0.0000
0.6250 0.2633 0.0000
0.7084 0.2761 0.0234
0.7614 0.3167 0.0000
0.4935 0.2902 -0.0662
0.1782 0.5011 0.4085
0.0695 0.3674 0.0661
0.1741 0.3697 0.0741
0.3685 0.4139 0.0284
0.5625 0.4801 0.0000
0.6995 0.4838 0.0000
0.7992 0.4708 0.0419
0.8256 0.4771 0.0319
0.4821 0.4848 0.0270
0.1668 0.6957 0.5017
0.0268 0.5166 0.0000
0.1841 0.5076 0.0482
0.4083 0.5613 0.0286
0.6066 0.6180 0.0000
0.7405 0.6114 0.0000
0.8420 0.6116 0.0000
0.8752 0.6139 0.0272
0.4707 0.6794 0.1202
0.1554 0.8903 0.5948
0.0051 0.5733 0.0000
0.2003 0.6047 0.0177
0.4328 0.6439 0.0016
0.6379 0.6877 0.0000
0.7748 0.7099 0.0000
0.8756 0.7200 0.0000
0.9092 0.7192 0.0000
0.4593 0.8740 0.2134
0.1440 1.0849 0.6880
0.0583 0.6379 0.1271
0.2835 0.6497 0.0000
0.4794 0.6917 0.0000
0.6144 0.7109 0.0000
0.7426 0.7301 0.0209
0.8580 0.7519 0.1286
0.9139 0.7570 0.1724
0.4479 1.0686 0.3066
0.1326 1.2795 0.7812
0.1706 1.2775 0.7335
0.2086 1.2754 0.6858
0.2466 1.2734 0.6382
0.2846 1.2714 0.5905
0.3225 1.2693 0.5428
0.3605 1.2673 0.4951
0.3985 1.2653 0.4474
0.4365 1.2632 0.3997
0.1630 -0.2751 0.1814
0.2010 -0.2771 0.1337
0.2390 -0.2792 0.0860
0.2909 0.0235 0.2732
0.3866 0.0151 0.2751
0.4823 0.0067 0.2771
0.3909 -0.2873 -0.1047
0.4289 -0.2893 -0.1524
0.4669 -0.2914 -0.2001
0.1516 -0.0805 0.2746
0.0368 0.0634 0.2316
0.1184 0.0820 0.2421
0.2522 0.0626 0.2433
0.3952 0.0545 0.2471
0.5350 0.0346 0.2554
0.6043 0.0547 0.2506
0.4175 -0.0947 -0.0592
0.4555 -0.0968 -0.1069
0.1402 0.1141 0.3678
0.0571 0.1337 0.2638
0.1455 0.1407 0.2655
0.2748 0.1261 0.2597
0.4495 0.1836 0.2441
0.6026 0.1977 0.1798
0.6786 0.2112 0.2237
0.7162 0.2059 0.1788
0.4441 0.0978 -0.0137
0.1288 0.3088 0.4610
0.0585 0.2823 0.3167
0.1507 0.2792 0.2784
0.3113 0.3152 0.2504
0.5043 0.3475 0.1932
0.6748 0.3795 0.0885
0.7557 0.3602 0.2255
0.7912 0.3673 0.2026
0.4327 0.2925 0.0795
0.1174 0.5034 0.5541
0.0337 0.4451 0.3333
0.1421 0.4483 0.2602
0.3730 0.4937 0.2042
0.5667 0.5333 0.1013
0.7427 0.5538 0.0388
0.8139 0.5073 0.1849
0.8449 0.5073 0.2320
0.4213 0.4871 0.1727
0.1060 0.6980 0.6473
0.0089 0.6079 0.3499
0.1463 0.6241 0.2315
0.4013 0.6559 0.2605
0.6055 0.6897 0.1164
0.7822 0.7022 0.0846
0.8479 0.6878 0.1997
0.8977 0.6559 0.2405
0.4099 0.6817 0.2658
0.0946 0.8926 0.7405
0.0000 0.6928 0.3052
0.1643 0.7037 0.1904
0.4125 0.7331 0.1351
0.6395 0.7704 0.0621
0.8162 0.7920 0.0610
0.8847 0.7924 0.1703
0.9214 0.7761 0.2281
0.3985 0.8763 0.3590
0.0832 1.0872 0.8337
0.0555 0.7391 0.4225
0.2170 0.7352 0.1927
0.4869 0.7674 0.1930
0.6266 0.7863 0.1757
0.7636 0.8040 0.1565
0.8982 0.8221 0.1501
0.9374 0.8290 0.3129
0.3871 1.0709 0.4522
0.0718 1.2818 0.9269
0.1098 1.2798 0.8792
0.1478 1.2777 0.8315
0.1858 1.2757 0.7838
0.2238 1.2737 0.7361
0.2618 1.2716 0.6884
0.2997 1.2696 0.6408
0.3377 1.2675 0.5931
0.3757 1.2655 0.5454
0.1022 -0.2728 0.3271
0.1402 -0.2748 0.2794
0.1782 -0.2769 0.2317
0.2162 -0.2789 0.1840
0.2542 -0.2809 0.1363
0.5082 0.0079 0.4571
0.3301 -0.2850 0.0410
0.3681 -0.2871 -0.0067
0.4061 -0.2891 -0.0544
0.0908 -0.0782 0.4202
0.0060 0.0538 0.4204
0.1077 0.0286 0.4408
0.2558 0.0275 0.4470
0.4051 0.0249 0.4486
0.5713 0.0872 0.4730
0.6363 0.0767 0.4812
0.3567 -0.0924 0.0865
0.3947 -0.0945 0.0388
0.0794 0.1164 0.5134
0.0285 0.1304 0.4643
0.1360 0.1139 0.4647
0.2831 0.1109 0.4721
0.4580 0.1759 0.4937
0.6293 0.2439 0.5096
0.7151 0.2499 0.5225
0.7634 0.2252 0.4937
0.3833 0.1001 0.1320
0.0680 0.3110 0.6066
0.0641 0.3025 0.5236
0.1494 0.3042 0.5267
0.3176 0.3237 0.5411
0.5128 0.3612 0.5469
0.6932 0.4032 0.4884
0.7923 0.4176 0.5518
0.8296 0.4170 0.5578
0.3719 0.2947 0.2251
0.0566 0.5057 0.6998
0.0725 0.5162 0.6127
0.1600 0.5021 0.5951
0.3537 0.5269 0.5599
0.5550 0.5486 0.5192
0.7598 0.5803 0.4429
0.8506 0.5886 0.5549
0.8778 0.5698 0.5159
0.3605 0.4894 0.3183
0.0452 0.7003 0.7930
0.0393 0.6837 0.6350
0.1633 0.6837 0.5906
0.3906 0.7152 0.5331
0.5925 0.7434 0.5151
0.8019 0.7921 0.4828
0.8709 0.7684 0.4687
0.9221 0.7224 0.4664
0.3491 0.6840 0.4115
0.0338 0.8949 0.8861
0.0000 0.8059 0.6692
0.1118 0.7965 0.6175
0.4149 0.8150 0.5707
0.6368 0.8426 0.5614
0.8206 0.8501 0.4083
0.8873 0.8478 0.5053
0.9386 0.8089 0.4947
0.3377 0.8786 0.5047
0.0224 1.0895 0.9793
0.0087 0.8298 0.7089
0.1025 0.8128 0.5776
0.4716 0.8465 0.5733
0.6030 0.8689 0.5782
0.7445 0.8834 0.5448
0.8998 0.8884 0.4708
0.9548 0.8871 0.5330
0.3263 1.0732 0.5979
0.0111 1.2841 1.0725
0.0490 1.2821 1.0248
0.0870 1.2800 0.9771
0.1250 1.2780 0.9295
0.1630 1.2759 0.8818
0.2010 1.2739 0.8341
0.2390 1.2719 0.7864
0.2770 1.2698 0.7387
0.3149 1.2678 0.6910
0.0414 -0.2705 0.4727
0.0794 -0.2725 0.4250
0.1174 -0.2746 0.3773
0.1554 -0.2766 0.3297
0.1934 -0.2787 0.2820
0.2314 -0.2807 0.2343
0.2694 -0.2827 0.1866
0.3073 -0.2848 0.1389
0.3453 -0.2868 0.0912
0.0300 -0.0759 0.5659
0.0313 0.0108 0.5950
0.1180 0.0167 0.5850
0.2705 0.0108 0.6153
0.4442 0.0503 0.6402
0.5789 0.0936 0.6578
0.6806 0.0979 0.6597
0.2959 -0.0902 0.2321
0.3339 -0.0922 0.1844
0.0186 0.1187 0.6591
0.0378 0.1255 0.6354
0.1453 0.0943 0.6551
0.2906 0.0912 0.6612
0.4831 0.1828 0.6867
0.6464 0.2380 0.6998
0.7276 0.1995 0.6846
0.7798 0.1856 0.6941
0.3225 0.1024 0.2776
0.0073 0.3133 0.7523
0.0467 0.3138 0.7035
0.0927 0.3054 0.6740
0.3286 0.3088 0.6719
0.5196 0.3376 0.7157
0.7102 0.4062 0.7555
0.8046 0.3891 0.7358
0.8385 0.4153 0.7069
0.3111 0.2970 0.3708
-0.0041 0.5079 0.8454
0.0568 0.5447 0.7819
0.1660 0.5394 0.7563
0.3663 0.5601 0.7441
0.5598 0.5836 0.7801
0.7540 0.6085 0.8068
0.8591 0.6249 0.7752
0.9050 0.6331 0.7461
0.2997 0.4916 0.4640
-0.0155 0.7026 0.9386
0.0838 0.7317 0.8607
0.2300 0.7426 0.8441
0.3866 0.7625 0.8125
0.5911 0.7888 0.7907
0.8011 0.8193 0.7310
0.8893 0.8022 0.7218
0.9396 0.7633 0.7230
0.2884 0.6863 0.5571
-0.0269 0.8972 1.0318
0.0489 0.8558 0.9077
0.2090 0.8731 0.8996
0.3985 0.8634 0.8482
0.6242 0.8844 0.8076
0.8121 0.9021 0.7544
0.9127 0.8837 0.7429
0.9560 0.8427 0.7598
0.2770 0.8809 0.6503
-0.0383 1.0918 1.1250
0.0013 0.8846 0.8934
0.1320 0.8821 0.8703
0.4680 0.9013 0.8266
0.6225 0.9159 0.8046
0.7651 0.9324 0.7900
0.9076 0.9488 0.7753
0.9696 0.9342 0.7985
0.2656 1.0755 0.7435
-0.0497 1.2864 1.2182
-0.0117 1.2844 1.1705
0.0262 1.2823 1.1228
0.0642 1.2803 1.0751
0.1022 1.2782 1.0274
0.1402 1.2762 0.9797
0.1782 1.2742 0.9321
0.2162 1.2721 0.8844
0.2542 1.2701 0.8367
-0.0193 -0.2682 0.6184
0.0186 -0.2703 0.5707
0.0566 -0.2723 0.5230
0.0946 -0.2743 0.4753
0.1326 -0.2764 0.4276
0.1706 -0.2784 0.3799
0.2086 -0.2804 0.3323
0.2466 -0.2825 0.2846
0.2846 -0.2845 0.2369
-0.0307 -0.0736 0.7115
0.0505 0.0218 0.6894
0.1484 0.0263 0.7052
0.2754 0.0019 0.7070
0.4509 0.0000 0.7180
0.5634 0.0000 0.7315
0.6563 0.0000 0.7556
0.2352 -0.0879 0.3778
0.2732 -0.0899 0.3301
-0.0421 0.1210 0.8047
0.0331 0.1418 0.7509
0.0960 0.1567 0.7647
0.2828 0.1076 0.7612
0.4782 0.1134 0.7709
0.6311 0.1441 0.7869
0.7186 0.1270 0.8048
0.7908 0.1516 0.8061
0.2618 0.1047 0.4233
-0.0535 0.3156 0.8979
0.0000 0.3250 0.8271
0.0308 0.3082 0.8175
0.3016 0.3211 0.8178
0.5345 0.3411 0.8340
0.6988 0.3487 0.8400
0.8114 0.3628 0.8447
0.8514 0.4171 0.8332
0.2504 0.2993 0.5164
-0.0649 0.5102 0.9911
0.0046 0.5516 0.9213
0.1258 0.5462 0.9045
0.3308 0.5683 0.8937
0.5879 0.6089 0.9055
0.7662 0.6112 0.9052
0.8493 0.6275 0.9063
0.9209 0.6524 0.9074
0.2390 0.4939 0.6096
-0.0763 0.7048 1.0843
0.1245 0.7661 0.9727
0.2571 0.7793 0.9619
0.3948 0.7905 0.9514
0.6184 0.8060 0.9478
0.7950 0.8223 0.9460
0.8862 0.8016 0.9347
0.9477 0.7743 0.9248
0.2276 0.6885 0.7028
0.0000 0.8451 0.9891
0.1158 0.8528 0.9854
0.2635 0.8738 0.9766
0.4314 0.8883 0.9700
0.6377 0.9122 0.9668
0.8365 0.9219 0.9547
0.9276 0.8956 0.9409
0.9604 0.8564 0.9299
0.2162 0.8832 0.7960
0.0000 0.9066 0.9969
0.0958 0.9137 0.9897
0.2870 0.9189 0.9810
0.4782 0.9241 0.9724
0.6623 0.9477 0.9599
0.8179 0.9605 0.9112
0.9268 0.9792 0.9452
0.9668 0.9365 0.9346
0.2048 1.0778 0.8892
-0.1105 1.2887 1.3638
-0.0725 1.2866 1.3161
-0.0345 1.2846 1.2684
0.0035 1.2826 1.2208
0.0414 1.2805 1.1731
0.0794 1.2785 1.1254
0.1174 1.2765 1.0777
0.1554 1.2744 1.0300
0.1934 1.2724 0.9823
-0.0801 -0.2659 0.7640
-0.0421 -0.2680 0.7163
-0.0041 -0.2700 0.6686
0.0338 -0.2720 0.6210
0.0718 -0.2741 0.5733
0.1098 -0.2761 0.5256
0.1478 -0.2781 0.4779
0.1858 -0.2802 0.4302
0.2238 -0.2822 0.3825
-0.0915 -0.0713 0.8572
-0.0535 -0.0734 0.8095
-0.0155 -0.0754 0.7618
0.3264 0.0113 0.7601
0.4494 0.0242 0.7744
0.5961 0.0000 0.7842
0.1364 -0.0835 0.5711
0.1744 -0.0856 0.5234
0.2124 -0.0876 0.4757
-0.1029 0.1233 0.9504
0.0096 0.1402 0.7807
0.1493 0.1128 0.7923
0.3319 0.1438 0.8084
0.5011 0.1692 0.8268
0.6472 0.1529 0.8331
0.7464 0.1341 0.8318
0.1630 0.1090 0.6166
0.2010 0.1070 0.5689
-0.1143 0.3179 1.0436
0.0000 0.3626 0.8751
0.1108 0.3463 0.8722
0.3198 0.3478 0.8739
0.5423 0.3634 0.8786
0.6837 0.3600 0.8825
0.7848 0.3694 0.8842
0.8606 0.4043 0.8935
0.1896 0.3016 0.6621
-0.1257 0.5125 1.1367
0.0173 0.5870 0.9628
0.1718 0.5917 0.9531
0.3844 0.5800 0.9425
0.5962 0.5985 0.9291
0.6989 0.5958 0.9322
0.8312 0.5105 0.9086
0.1402 0.4983 0.8029
0.1782 0.4962 0.7553
-0.1371 0.7071 1.2299
0.0246 0.6815 0.9760
0.2147 0.7254 0.9744
0.4008 0.7182 0.9661
0.6195 0.7247 0.9535
0.7579 0.6660 0.9384
0.0908 0.6949 0.9438
0.1288 0.6929 0.8961
0.1668 0.6908 0.8484
-0.1485 0.9017 1.3231
-0.1105 0.8997 1.2754
0.2318 0.8256 0.9905
0.4143 0.8630 0.9861
0.6394 0.8518 0.9782
0.0414 0.8916 1.0847
0.0794 0.8895 1.0370
0.1174 0.8875 0.9893
0.1554 0.8854 0.9416
-0.1599 1.0964 1.4163
-0.1219 1.0943 1.3686
-0.0839 1.0923 1.3209
-0.0459 1.0902 1.2732
-0.0079 1.0882 1.2255
0.0300 1.0862 1.1779
0.0680 1.0841 1.1302
0.1060 1.0821 1.0825
0.1440 1.0801 1.0348
-0.1713 1.2910 1.5095
-0.1333 1.2889 1.4618
-0.0953 1.2869 1.4141
-0.0573 1.2849 1.3664
-0.0193 1.2828 1.3187
0.0186 1.2808 1.2710
0.0566 1.2787 1.2234
0.0946 1.2767 1.1757
0.1326 1.2747 1.1280
-0.1409 -0.2636 0.9097
-0.1029 -0.2657 0.8620
-0.0649 -0.2677 0.8143
-0.0269 -0.2697 0.7666
0.0111 -0.2718 0.7189
0.0490 -0.2738 0.6712
0.0870 -0.2759 0.6236
0.1250 -0.2779 0.5759
0.1630 -0.2799 0.5282
-0.1523 -0.0690 1.0028
-0.1143 -0.0711 0.9552
-0.0763 -0.0731 0.9075
-0.0383 -0.0751 0.8598
-0.0003 -0.0772 0.8121
0.0376 -0.0792 0.7644
0.0756 -0.0812 0.7167
0.1136 -0.0833 0.6691
0.1516 -0.0853 0.6214
-0.1637 0.1256 1.0960
-0.1257 0.1236 1.0483
-0.0877 0.1215 1.0007
-0.0497 0.1195 0.9530
-0.0117 0.1174 0.9053
0.0262 0.1154 0.8576
0.0642 0.1134 0.8099
0.1022 0.1113 0.7622
0.1402 0.1093 0.7146
-0.1751 0.3202 1.1892
-0.1371 0.3182 1.1415
-0.0991 0.3161 1.0938
-0.0611 0.3141 1.0462
-0.0231 0.3120 0.9985
0.0148 0.3100 0.9508
0.0528 0.3080 0.9031
0.0908 0.3059 0.8554
0.1288 0.3039 0.8077
-0.1865 0.5148 1.2824
-0.1485 0.5128 1.2347
-0.1105 0.5107 1.1870
-0.0725 0.5087 1.1393
-0.0345 0.5067 1.0916
0.0035 0.5046 1.0440
0.0414 0.5026 0.9963
0.0794 0.5005 0.9486
0.1174 0.4985 0.9009
-0.1979 0.7094 1.3756
-0.1599 0.7074 1.3279
-0.1219 0.7053 1.2802
-0.0839 0.7033 1.2325
-0.0459 0.7013 1.1848
-0.0079 0.6992 1.1371
0.0300 0.6972 1.0895
0.0680 0.6952 1.0418
0.1060 0.6931 0.9941
-0.2093 0.9040 1.4687
-0.1713 0.9020 1.4211
-0.1333 0.9000 1.3734
-0.0953 0.8979 1.3257
-0.0573 0.8959 1.2780
-0.0193 0.8938 1.2303
0.0186 0.8918 1.1826
0.0566 0.8898 1.1350
0.0946 0.8877 1.0873
-0.2207 1.0986 1.5619
-0.1827 1.0966 1.5142
-0.1447 1.0946 1.4666
-0.1067 1.0925 1.4189
-0.0687 1.0905 1.3712
-0.0307 1.0885 1.3235
0.0073 1.0864 1.2758
0.0452 1.0844 1.2281
0.0832 1.0823 1.1805
-0.2321 1.2933 1.6551
-0.1941 1.2912 1.6074
-0.1561 1.2892 1.5597
-0.1181 1.2871 1.5121
-0.0801 1.2851 1.4644
-0.0421 1.2831 1.4167
-0.0041 1.2810 1.3690
0.0338 1.2790 1.3213
0.0718 1.2770 1.2736
