LUTs/Kodak_interp.cube

#Loaded 117 keypoints.
# header
LUT_3D_SIZE 9
-4.0 -4.0 -4.0
-4.0 -4.0 -4.0
-4.0 -4.0 -4.0
-4.0 -4.0 -4.0
-4.0 -4.0 -4.0
-4.0 -4.0 -4.0
-4.0 -4.0 -4.0
-4.0 -4.0 -4.0
-4.0 -4.0 -4.0
-4.0 -4.0 -4.0
-4.0 -4.0 -4.0
-4.0 -4.0 -4.0
-4.0 -4.0 -4.0
-4.0 -4.0 -4.0
-4.0 -4.0 -4.0
-4.0 -4.0 -4.0
-4.0 -4.0 -4.0
-4.0 -4.0 -4.0
-4.0 -4.0 -4.0
-4.0 -4.0 -4.0
-4.0 -4.0 -4.0
-4.0 -4.0 -4.0
-4.0 -4.0 -4.0
-4.0 -4.0 -4.0
-4.0 -4.0 -4.0
-4.0 -4.0 -4.0
-4.0 -4.0 -4.0
-4.0 -4.0 -4.0
-4.0 -4.0 -4.0
-4.0 -4.0 -4.0
-4.0 -4.0 -4.0
-4.0 -4.0 -4.0
-4.0 -4.0 -4.0
-4.0 -4.0 -4.0
-4.0 -4.0 -4.0
-4.0 -4.0 -4.0
-4.0 -4.0 -4.0
-4.0 -4.0 -4.0
-4.0 -4.0 -4.0
-4.0 -4.0 -4.0
-4.0 -4.0 -4.0
-4.0 -4.0 -4.0
-4.0 -4.0 -4.0
0.7740696647727272 0.4034384943181819 0.0
-4.0 -4.0 -4.0
-4.0 -4.0 -4.0
-4.0 -4.0 -4.0
-4.0 -4.0 -4.0
-4.0 -4.0 -4.0
-4.0 -4.0 -4.0
-4.0 -4.0 -4.0
-4.0 -4.0 -4.0
-4.0 -4.0 -4.0
-4.0 -4.0 -4.0
-4.0 -4.0 -4.0
-4.0 -4.0 -4.0
-4.0 -4.0 -4.0
-4.0 -4.0 -4.0
-4.0 -4.0 -4.0
-4.0 -4.0 -4.0
-4.0 -4.0 -4.0
-4.0 -4.0 -4.0
-4.0 -4.0 -4.0
-4.0 -4.0 -4.0
-4.0 -4.0 -4.0
-4.0 -4.0 -4.0
-4.0 -4.0 -4.0
-4.0 -4.0 -4.0
-4.0 -4.0 -4.0
-4.0 -4.0 -4.0
-4.0 -4.0 -4.0
-4.0 -4.0 -4.0
-4.0 -4.0 -4.0
-4.0 -4.0 -4.0
-4.0 -4.0 -4.0
-4.0 -4.0 -4.0
-4.0 -4.0 -4.0
-4.0 -4.0 -4.0
-4.0 -4.0 -4.0
-4.0 -4.0 -4.0
-4.0 -4.0 -4.0
-4.0 -4.0 -4.0
-4.0 -4.0 -4.0
-4.0 -4.0 -4.0
-4.0 -4.0 -4.0
-4.0 -4.0 -4.0
-4.0 -4.0 -4.0
-4.0 -4.0 -4.0
-4.0 -4.0 -4.0
-4.0 -4.0 -4.0
-4.0 -4.0 -4.0
-4.0 -4.0 -4.0
0.12732191837606838 0.07046639038461537 0.05033093888888886
0.23153134359903382 0.040582896739130445 0.041645472222222236
0.36294561360182365 0.021630980623100315 0.002758420212765974
0.45820682017543857 3.8596491228070124e-07 0.0
0.5531018913551402 0.0 0.0
-4.0 -4.0 -4.0
-4.0 -4.0 -4.0
-4.0 -4.0 -4.0
0.08755767060810811 0.14066741216216216 0.023486020270270257
0.1762871702991453 0.1118206576923077 0.032080838888888866
0.2698769999999999 0.09302500000000002 0.0342415
0.4076021414285714 0.07315236857142855 2.2571428571428574e-07
0.5126258028350515 0.03549891365979382 6.520618556701032e-07
0.6033947895833334 0.03864267083333333 2.2916666666666648e-07
-4.0 -4.0 -4.0
-4.0 -4.0 -4.0
-4.0 -4.0 -4.0
0.13885182692307693 0.18746084615384612 0.0006584903846153938
0.23181511713836478 0.20714228616352198 0.0
0.32425360416666665 0.22722477083333334 0.0
0.4754832328519855 0.23902848691335732 1.1642599277978303e-07
0.6107087877475248 0.2396740544554456 8.997524752475248e-07
0.6755926140536723 0.24858063524011298 2.365819209039547e-07
0.72531162 0.23215586999999996 0.0
-4.0 -4.0 -4.0
-4.0 -4.0 -4.0
0.15918055622146118 0.30419522631278534 0.0
0.25619687385844747 0.34811230251141556 0.0
0.3513404426100629 0.38227886399371075 0.0
0.5391407689530686 0.40461334341155236 3.8447653429602837e-07
0.657781133027523 0.4141298467125382 3.9602446483180437e-07
0.76585275 0.43589925175233646 0.0
0.8004871773952096 0.4314997185628743 0.0
-4.0 -4.0 -4.0
-4.0 -4.0 -4.0
0.147294587962963 0.3954726481481481 0.0
0.2738298796296297 0.45533613773148146 0.0
0.3959918111702127 0.5097647047872341 0.0
0.5910326946078431 0.5454623784313725 0.0
0.7065597334437086 0.5618641084437086 0.0
0.8111760290000001 0.578725092 0.0
0.8523041182634731 0.5673639790419162 0.0
-4.0 -4.0 -4.0
-4.0 -4.0 -4.0
0.11087307552083339 0.47477423177083317 0.0
0.23272310879629635 0.5308282210648148 0.0
0.4320718107798165 0.5728785860091743 0.003916026376146787
0.6276337820512821 0.6145162423076923 0.0
0.7389565441176471 0.6305005147058824 0.0
0.8254526548507463 0.6363130233208955 0.0
0.8817051727272727 0.6417948636363636 0.0
-4.0 -4.0 -4.0
-4.0 -4.0 -4.0
-4.0 -4.0 -4.0
0.2793426991758242 0.5892981092032967 0.010218861607142875
0.467999033557047 0.623586110738255 0.01905054844798657
0.664125812919463 0.6551238951342281 0.010947415058724827
0.7742898310157195 0.6679806931680774 0.018429322551390532
0.8524258027272725 0.6744099886363636 0.0
-4.0 -4.0 -4.0
-4.0 -4.0 -4.0
-4.0 -4.0 -4.0
-4.0 -4.0 -4.0
-4.0 -4.0 -4.0
-4.0 -4.0 -4.0
-4.0 -4.0 -4.0
-4.0 -4.0 -4.0
-4.0 -4.0 -4.0
-4.0 -4.0 -4.0
-4.0 -4.0 -4.0
-4.0 -4.0 -4.0
-4.0 -4.0 -4.0
-4.0 -4.0 -4.0
-4.0 -4.0 -4.0
-4.0 -4.0 -4.0
-4.0 -4.0 -4.0
-4.0 -4.0 -4.0
-4.0 -4.0 -4.0
-4.0 -4.0 -4.0
-4.0 -4.0 -4.0
0.059468428170144465 0.07969560934991973 0.11338356300160518
0.13300014144736844 0.06810461184210526 0.11605760526315788
0.23627668961864406 0.05748190889830509 0.08975245550847459
0.37035039999999997 0.048810450000000005 0.04952299999999999
0.4992209446721311 0.04246188456284152 0.03275409153005464
0.5747639 0.0 0.050131050000000024
-4.0 -4.0 -4.0
-4.0 -4.0 -4.0
-4.0 -4.0 -4.0
0.07699323902027026 0.13117790540540541 0.11640407567567568
0.17065142307692302 0.12293315384615386 0.09350563461538461
0.27726746052631585 0.1314173815789474 0.07656785526315786
0.41952254262295086 0.1062746475409836 0.035140927868852465
0.5427834686123348 0.09292859911894273 0.024067107929515413
0.6250133839285714 0.07640785714285712 0.048923125000000046
0.6878715980392157 0.12785560294117648 0.07019546568627451
-4.0 -4.0 -4.0
-4.0 -4.0 -4.0
0.10948951114341085 0.23435103343023256 0.11176769234496117
0.20633464295212767 0.24393043417553195 0.10399744348404258
0.316555375 0.26683142147435907 0.05284471153846152
0.47825060410764875 0.27255321494334284 9.645892351274783e-07
0.6118221235659655 0.26690460468451244 0.05353716132887187
0.6908548708726416 0.29205852594339626 7.558962264150942e-07
0.7588642332589286 0.2933767767857143 2.2321428571426973e-09
-4.0 -4.0 -4.0
-4.0 -4.0 -4.0
0.10706721762208068 0.3903970867834395 0.10348561199575367
0.22829459323770493 0.4126245020491804 0.05882600512295078
0.3634302100000001 0.44204295000000005 0.0
0.5327112861445783 0.46156826927710837 4.1686746987951796e-07
0.6573809423996176 0.4598307048279158 0.041124042543021065
0.7867999756637168 0.45679175884955747 0.13162314823008844
0.8330799508928571 0.4796507276785714 0.0
-4.0 -4.0 -4.0
-4.0 -4.0 -4.0
0.07601880257936507 0.513613160218254 0.11683750000000001
0.2021495595760233 0.5684360391081871 0.10926907894736845
0.409553754032258 0.5649640295698924 0.012982439516129034
0.5827747604166666 0.5926585447916666 0.0
0.6942247822580646 0.6132680625 0.004044298387096782
0.8422413225308641 0.6435909799382715 0.14064789792768956
0.8733281846514744 0.6127676712466488 0.024368795241286826
-4.0 -4.0 -4.0
-4.0 -4.0 -4.0
0.03491203174603173 0.5891052435515874 0.11683750000000005
0.23833115646258504 0.6229414510204082 0.10507986394557822
0.44727503419811315 0.6320058183962264 0.03612666273584905
0.6379062329545455 0.6780406912878788 0.09200448863636362
0.7686590781249999 0.7083299578125001 0.14261207187499997
0.86357378125 0.7171823831249999 0.13226877874999995
0.8951668238188975 0.7148226161417323 0.07453291633858268
-4.0 -4.0 -4.0
-4.0 -4.0 -4.0
0.0902629487951807 0.6296914352409638 0.13243103915662652
0.2822330725806451 0.6590472411290322 0.06561433467741938
0.4841868070469798 0.6916107382550335 0.05281360423657716
0.6702984820627802 0.7291486283632287 0.16142922043161434
0.8087551986094317 0.7531278159008464 0.2336796685308343
0.8713830154358354 0.7510536643462469 0.17497954116222758
0.90867445 0.7469592071428571 0.11882049642857148
-4.0 -4.0 -4.0
-4.0 -4.0 -4.0
-4.0 -4.0 -4.0
-4.0 -4.0 -4.0
-4.0 -4.0 -4.0
-4.0 -4.0 -4.0
-4.0 -4.0 -4.0
-4.0 -4.0 -4.0
-4.0 -4.0 -4.0
-4.0 -4.0 -4.0
-4.0 -4.0 -4.0
-4.0 -4.0 -4.0
-4.0 -4.0 -4.0
-4.0 -4.0 -4.0
0.32760026096491235 0.0 0.23717634429824555
-4.0 -4.0 -4.0
-4.0 -4.0 -4.0
-4.0 -4.0 -4.0
-4.0 -4.0 -4.0
-4.0 -4.0 -4.0
0.046923535714285716 0.07148004464285716 0.2372992924107143
0.1547718145604396 0.06311441895604396 0.24633046703296707
0.24889819999999996 0.056520085000000025 0.24228398000000018
0.39799497500000003 0.013478575000000003 0.25746207499999996
0.5245137366071428 0.05359741964285716 0.2435513973214286
0.6013061780612244 0.04980957908163261 0.24983299132653058
0.6684628146067418 0.05420563483146059 0.2905957162921355
-4.0 -4.0 -4.0
-4.0 -4.0 -4.0
0.05211071718036529 0.16807443150684934 0.2811839223744292
0.14056577789548022 0.14093029555084746 0.25450254413841805
0.27806071734234233 0.1413985664414415 0.2711996227477479
0.448763875 0.12708695833333336 0.2646019416666667
0.5761255450892857 0.13230787053571427 0.25343576651785715
0.6821992040059348 0.18156858308605342 0.2695134028189911
0.7246505601045294 0.18946476175958185 0.28420911476480826
-4.0 -4.0 -4.0
-4.0 -4.0 -4.0
0.07046351555365296 0.3060355650684931 0.3259115987442922
0.1437018499293785 0.2917467976694915 0.27861643185028245
0.32679759744897957 0.3101752943877551 0.22248127040816323
0.5055249289940829 0.32020478920118345 0.23945314497041414
0.6557778948374762 0.31183430186424466 0.2976453307839388
0.7495691310840707 0.3180406852876106 0.29667852544247786
0.791819287037037 0.34205365740740745 0.2684146944444445
-4.0 -4.0 -4.0
-4.0 -4.0 -4.0
0.06584935222222221 0.45056915703703704 0.33842882259259255
0.1320535763888889 0.467974125 0.2850277222222224
0.3763202869318182 0.4947991221590909 0.15569912784090906
0.5600768336206897 0.513242200862069 0.16480152068965517
0.7070471982758622 0.5140520948275862 0.3020151508620691
0.805117239197531 0.5230566466049383 0.27570426102292767
0.862748325617284 0.553515710733882 0.20445055486968447
-4.0 -4.0 -4.0
-4.0 -4.0 -4.0
0.016631153888888868 0.6078670914814813 0.28839026870370355
0.10494751168224295 0.6277877566199377 0.26799769976635524
0.3916884344473008 0.6373138075192801 0.15808326156812347
0.6087811782670455 0.6792397147253788 0.17220756676136362
0.7504472866419295 0.6902226310296846 0.2822597678571429
0.842891490616622 0.6886702258713138 0.24620886226541552
0.9031591172839507 0.6986027061042523 0.3055907169067215
-4.0 -4.0 -4.0
-4.0 -4.0 -4.0
0.04753871255060729 0.692794677631579 0.3288019028340082
0.17890943802521 0.6846901407563026 0.2314460609243698
0.45778451238881834 0.692932377382465 0.1313073098792884
0.6426059087357954 0.7523156248816288 0.2350691214488636
0.8013660651763223 0.7970376643576826 0.3360332745591939
0.8673647135826772 0.8023456643700787 0.30257402460629923
0.9254934527027027 0.7858557702702702 0.32924815202702706
-4.0 -4.0 -4.0
-4.0 -4.0 -4.0
0.07152295774647885 0.7257767975352112 0.4116210492957747
0.2777374385964912 0.7358163421052631 0.21222719298245615
0.49273978373579547 0.7631856248816288 0.1584783714488636
0.6754849204035874 0.8037642180493274 0.3234048277746637
0.8290550486453203 0.829405058497537 0.4354923583743843
0.8863696935483871 0.8326061572580646 0.3779375423387099
0.9348755354803494 0.8170656438318777 0.34944351855895206
-4.0 -4.0 -4.0
-4.0 -4.0 -4.0
-4.0 -4.0 -4.0
-4.0 -4.0 -4.0
-4.0 -4.0 -4.0
-4.0 -4.0 -4.0
-4.0 -4.0 -4.0
-4.0 -4.0 -4.0
-4.0 -4.0 -4.0
-4.0 -4.0 -4.0
-4.0 -4.0 -4.0
-4.0 -4.0 -4.0
-4.0 -4.0 -4.0
0.24132525 9.201528428093298e-18 0.3883406530612242
-4.0 -4.0 -4.0
-4.0 -4.0 -4.0
-4.0 -4.0 -4.0
-4.0 -4.0 -4.0
-4.0 -4.0 -4.0
-4.0 -4.0 -4.0
0.030029387755102045 0.06343153826530615 0.4063999738520408
0.10492384134615383 0.03421285576923076 0.4264642307692308
0.25373445905172415 0.03820884913793103 0.42744306034482754
0.4266574500000001 0.009350749137931031 0.440192675862069
0.5248832147832817 0.0114059709752322 0.4461671404798761
0.629249947072072 0.046179031531531516 0.459442652027027
0.7017215422077923 0.08685720779220779 0.4844098262987013
-4.0 -4.0 -4.0
-4.0 -4.0 -4.0
0.033538455981182796 0.1595789126344086 0.4715348037634409
0.10233653581460671 0.129764283005618 0.4738972507022472
0.2817949083333333 0.1620219277777778 0.4999517611111111
0.4596091287519747 0.14421430410742497 0.49947560545023695
0.6111362545045045 0.16689834572072074 0.4935385641891891
0.710885378458498 0.20898754743083003 0.5045486837944664
0.760645625 0.24175562499999997 0.5232704999999999
-4.0 -4.0 -4.0
-4.0 -4.0 -4.0
0.038308083333333326 0.33564673611111107 0.5541281805555556
0.15093564017660044 0.3099035027593819 0.5315847262693156
0.3224145744897959 0.320510018877551 0.5100490790816324
0.5066293801020408 0.33539143622448975 0.5293875841836735
0.6959209583333332 0.3542307395833333 0.55445340625
0.7697338055555556 0.37836975000000006 0.5519119212962964
0.824309640625 0.394996375 0.52614878125
-4.0 -4.0 -4.0
-4.0 -4.0 -4.0
0.029424711658354114 0.5185549635286784 0.59298118298005
0.06637355049875311 0.5093029382793017 0.5388302711970074
0.35026385584815317 0.5246007294801641 0.4975535967852257
0.5723101441947566 0.5557798829588014 0.4772694756554307
0.7546850902014652 0.5588566231684982 0.5593941506410257
0.8298118218085107 0.5908039478058511 0.5528873018617021
0.89053865234375 0.6158145312500001 0.5369593671874999
-4.0 -4.0 -4.0
-4.0 -4.0 -4.0
0.0 0.6851138295454545 0.6398754242424243
0.048922999999999946 0.6984152043991417 0.6127298031115879
0.3413066130300957 0.7333699871751025 0.544534779240766
0.6162607653388278 0.7533260764652016 0.5217739919871794
0.7937447227564103 0.7360736794871795 0.5515011746794871
0.8715219787234043 0.7691803134973405 0.5413682832446807
0.9360815129310346 0.7774474594827586 0.5875859551724137
-4.0 -4.0 -4.0
-4.0 -4.0 -4.0
0.03187034020618556 0.7996247226159794 0.6584909481314434
0.09742388571428569 0.7896265857142857 0.6050311428571429
0.4208444646529562 0.8005085739074549 0.5486694694730077
0.6425352534942821 0.8385008179796696 0.5287302252223633
0.830385902255639 0.8830560714285715 0.5459528110902256
0.9036322619047619 0.869685511904762 0.5852715714285716
0.9437677447916666 0.8387302369791665 0.538951765625
-4.0 -4.0 -4.0
-4.0 -4.0 -4.0
0.005270112676056314 0.8082477482394366 0.6896165352112678
0.19749156862745096 0.8148625122549019 0.6062913725490197
0.4884378451986754 0.8429619221854303 0.5204858857615893
0.6830002712264152 0.8738167924528303 0.5219951250000001
0.8355699679802957 0.8931137463054188 0.6241150615763548
0.8991254272959186 0.8847914094387755 0.5629963437500002
0.9499966024193549 0.8559473656451613 0.5128901006451614
-4.0 -4.0 -4.0
-4.0 -4.0 -4.0
-4.0 -4.0 -4.0
-4.0 -4.0 -4.0
-4.0 -4.0 -4.0
-4.0 -4.0 -4.0
-4.0 -4.0 -4.0
-4.0 -4.0 -4.0
-4.0 -4.0 -4.0
-4.0 -4.0 -4.0
-4.0 -4.0 -4.0
-4.0 -4.0 -4.0
-4.0 -4.0 -4.0
-4.0 -4.0 -4.0
-4.0 -4.0 -4.0
-4.0 -4.0 -4.0
-4.0 -4.0 -4.0
-4.0 -4.0 -4.0
-4.0 -4.0 -4.0
-4.0 -4.0 -4.0
0.00021576875 0.044280175000000026 0.599445575
0.09260590774907748 0.0 0.5931464644833948
0.24980620554493316 0.0040908377151051695 0.5941551278680688
0.4443753088235295 0.03806298529411765 0.5994023786764706
0.5388929908088236 0.03384229136029411 0.6158361966911765
0.6334106727941177 0.029621597426470588 0.6322700147058824
0.7344348899812734 0.10177336610486892 0.6783241549625468
-4.0 -4.0 -4.0
-4.0 -4.0 -4.0
0.0288809264112903 0.1272736103830645 0.6448476401209676
0.1027543870967742 0.0871287943548387 0.6425251653225805
0.2851641695675105 0.10172451133966247 0.6323896202531645
0.46990638645339655 0.09712407306477094 0.6360317363744076
0.6105046888674389 0.12718305807593308 0.6359957895752896
0.7105827437900643 0.2032227098357372 0.6826078185096154
0.7889448399122807 0.24591258552631576 0.693185692982456
-4.0 -4.0 -4.0
-4.0 -4.0 -4.0
0.06185411309523811 0.33135911904761906 0.7344641644345238
0.14482914285714288 0.3326959464285714 0.7413266830357141
0.3265486111111111 0.326714912037037 0.740520023148148
0.5214670011013216 0.3300647816629956 0.7207271445484582
0.6961973601973684 0.33910358497807014 0.705906211622807
0.7767036519953052 0.36715215375586857 0.7121826919014085
0.8409741354166665 0.4033669479166667 0.7343603333333334
-4.0 -4.0 -4.0
-4.0 -4.0 -4.0
0.0 0.5604103985507245 0.8151614601449275
0.028992889005602172 0.5547181320028012 0.7839213249299719
0.3269057887055838 0.5659576922588831 0.8046649777918782
0.573603243283582 0.5920461649253731 0.7961178063432837
0.7543468627049181 0.5965639918032788 0.7699976426229509
0.8415153194143168 0.6231980965292842 0.7685867006507592
0.9093230167197451 0.6350695270700637 0.7768401234076433
-4.0 -4.0 -4.0
-4.0 -4.0 -4.0
0.0 0.725505572463768 0.8448428677536233
0.0 0.7419309039855072 0.8714272971014492
0.3145980698847262 0.7759962143371759 0.8585127496397694
0.6238199958955224 0.7987290313432837 0.8413176108208955
0.7667166895491803 0.8111265430327871 0.8254456762295083
0.9050258770491804 0.8244791680327871 0.8108159512295083
0.9556384794303797 0.8380981297468354 0.7962399794303797
-4.0 -4.0 -4.0
-4.0 -4.0 -4.0
0.006454536931818184 0.8481806770833333 0.8641132433712121
0.06568427564102562 0.8545182702991453 0.8805363215811965
0.34941656081081085 0.8815791734234235 0.8664461430180181
0.634129125 0.9070000156249999 0.8562394999999998
0.7973494963235295 0.9220953345588235 0.8409344669117648
0.9387845371621621 0.934851216216216 0.8242514966216214
0.9637133384279477 0.8874191940502184 0.7533266097161574
-4.0 -4.0 -4.0
-4.0 -4.0 -4.0
0.0 0.8541193445945946 0.8259003044763513
0.144716052631579 0.8830816425438598 0.8988925471491228
0.46857921788990825 0.9057647924311927 0.86643438646789
0.6959326523437501 0.9357317773437501 0.85930769921875
0.8487440663265307 0.9474929948979591 0.8100731875
0.9230778290816326 0.9327678112244899 0.747978875
0.9614725387096774 0.9009293303225806 0.6578269203225807
-4.0 -4.0 -4.0
-4.0 -4.0 -4.0
-4.0 -4.0 -4.0
-4.0 -4.0 -4.0
-4.0 -4.0 -4.0
-4.0 -4.0 -4.0
-4.0 -4.0 -4.0
-4.0 -4.0 -4.0
-4.0 -4.0 -4.0
-4.0 -4.0 -4.0
-4.0 -4.0 -4.0
-4.0 -4.0 -4.0
-4.0 -4.0 -4.0
-4.0 -4.0 -4.0
-4.0 -4.0 -4.0
-4.0 -4.0 -4.0
-4.0 -4.0 -4.0
-4.0 -4.0 -4.0
-4.0 -4.0 -4.0
-4.0 -4.0 -4.0
0.0 0.011918059523809522 0.6840674523809523
0.11259763981835563 0.002115262428298276 0.6651517490439769
0.2759242785369775 0.002651104099678446 0.6623299971864953
0.4492489602359208 0.0 0.6735749396879758
0.554794625761035 0.0 0.697473067541857
0.6603402912861491 0.0 0.7213711953957382
-4.0 -4.0 -4.0
-4.0 -4.0 -4.0
-4.0 -4.0 -4.0
0.022552954927884627 0.10237121153846145 0.7558070030048076
0.10803905444126075 0.04045675214899716 0.7481534462750716
0.28799900512295096 0.037277270491803294 0.755927925717213
0.4857542495219886 0.06928482217973232 0.7629626290630974
0.6092819317908654 0.09358633158052888 0.7809421316105769
0.7097895697115384 0.15045005649038462 0.7920173798076923
0.7848093201951953 0.250004903903904 0.7924025213963964
-4.0 -4.0 -4.0
-4.0 -4.0 -4.0
0.024886019230769198 0.32841154807692313 0.8366932247596154
0.06045543055555555 0.29903984722222227 0.835217052506775
0.3317635346244131 0.32252994776995303 0.8311194457159625
0.5324646594036698 0.3256610229357798 0.842050740825688
0.6907384111842106 0.34116259320175446 0.8459154780701755
0.7739438875 0.3618874375000001 0.8509377414062501
0.8546013979885058 0.4281124439655172 0.8542074942528736
-4.0 -4.0 -4.0
-4.0 -4.0 -4.0
0.0 0.5801117499999999 0.9152919703125
0.006535722222222217 0.5778618888888889 0.9227232710027101
0.35619025699999984 0.5975289847499998 0.9136949805
0.5853660426300579 0.5988236380057803 0.9075339393063584
0.7692309374999999 0.612835375 0.8991148750000002
0.8590027392241378 0.6176293211206897 0.883960807112069
0.9112871250000001 0.6203126250000001 0.899300875
-4.0 -4.0 -4.0
-4.0 -4.0 -4.0
0.00411388068181818 0.7343365208333333 0.9365322746212121
0.009220767045454544 0.7318441458333333 0.948574740530303
0.27379141967975207 0.7364449741735537 0.9387182804752067
0.6264010895953758 0.8008685223988439 0.92199137283237
0.788297246408046 0.8418302334770116 0.9195976278735633
0.9255259717261904 0.856222925595238 0.9054322261904763
0.9604241250000001 0.84346825 0.93346
-4.0 -4.0 -4.0
-4.0 -4.0 -4.0
0.005146001608455882 0.8271730962775735 0.9260317327665442
0.01815781818181818 0.8638333333333333 0.9528077121212122
0.26978007812499993 0.8869688124999999 0.9462590312499999
0.6589075 0.9186521875 0.9311942499999999
0.8081129970845481 0.9376802623906706 0.9326192383381924
0.9456898193277312 0.9462617752100841 0.9296814894957983
0.975645293548387 0.9316379966129031 0.9005790666129032
-4.0 -4.0 -4.0
-4.0 -4.0 -4.0
0.000506635551948052 0.8851927077922078 0.9221117372159091
0.11045208499999992 0.8932906235714286 0.9564173928571429
0.45575382570422535 0.9186087957746477 0.9515428133802817
0.688373301035503 0.9491441686390534 0.9417983794378697
0.8593052250000001 0.9690040750000001 0.9313397000000001
0.9465365955882354 0.9807110073529413 0.9348477794117648
-4.0 -4.0 -4.0
-4.0 -4.0 -4.0
-4.0 -4.0 -4.0
-4.0 -4.0 -4.0
-4.0 -4.0 -4.0
-4.0 -4.0 -4.0
-4.0 -4.0 -4.0
-4.0 -4.0 -4.0
-4.0 -4.0 -4.0
-4.0 -4.0 -4.0
-4.0 -4.0 -4.0
-4.0 -4.0 -4.0
-4.0 -4.0 -4.0
-4.0 -4.0 -4.0
-4.0 -4.0 -4.0
-4.0 -4.0 -4.0
-4.0 -4.0 -4.0
-4.0 -4.0 -4.0
-4.0 -4.0 -4.0
-4.0 -4.0 -4.0
-4.0 -4.0 -4.0
-4.0 -4.0 -4.0
-4.0 -4.0 -4.0
-4.0 -4.0 -4.0
-4.0 -4.0 -4.0
-4.0 -4.0 -4.0
-4.0 -4.0 -4.0
-4.0 -4.0 -4.0
-4.0 -4.0 -4.0
-4.0 -4.0 -4.0
-4.0 -4.0 -4.0
0.132302734375 0.134897171875 0.7946674921875001
0.2986460168918919 0.10308149662162164 0.8010824459459459
0.46245480236486486 0.06703252702702706 0.8068565261824324
0.6262635878378379 0.030983557432432467 0.8126306064189189
-4.0 -4.0 -4.0
-4.0 -4.0 -4.0
-4.0 -4.0 -4.0
-4.0 -4.0 -4.0
-4.0 -4.0 -4.0
0.16377685816618912 0.3348929878223495 0.8745639294412608
0.3325785339595376 0.34912192702312134 0.8670974089595375
0.551128614652318 0.35488219867549675 0.8750631680463576
0.7019956375 0.3645643238636364 0.8799849420454546
0.8152134825581394 0.3781714680232558 0.8832368430232558
-4.0 -4.0 -4.0
-4.0 -4.0 -4.0
-4.0 -4.0 -4.0
0.006535722222222217 0.5961191388888889 0.9761416185636856
0.1250395307881773 0.6106330591133005 0.9641218633004927
0.35923067314814816 0.6018516305555556 0.9484206740740742
0.5922903620370371 0.5900679263888888 0.9304416935185185
0.7591119817073171 0.627069405487805 0.9358376829268293
0.8807771624999999 0.6357699875 0.9385812125
-4.0 -4.0 -4.0
-4.0 -4.0 -4.0
-4.0 -4.0 -4.0
0.005618491699218752 0.7191782172851563 0.991816533203125
0.01113094965277779 0.7428006718750001 0.98704409375
0.33849905599999996 0.77973647175 0.9830749065
0.623674889814815 0.8015850930555556 0.9781068324074074
0.79614115625 0.83222459375 0.9787747926136363
0.9305269619565216 0.8679196847826088 0.9809709565217392
0.9547734184782609 0.8456038717391308 0.9699481358695653
-4.0 -4.0 -4.0
-4.0 -4.0 -4.0
0.0036314593290441167 0.8059648334099265 0.9876640250459559
0.018395533143939387 0.8497502585227272 0.9984904545454545
0.25008276250000006 0.8909012416666668 1.0
0.6407706375 0.9248200000000001 1.0
0.8194799593023256 0.9471416860465117 0.9976823139534883
0.9473718834033613 0.9633681848739496 0.9920703813025209
0.9785509611650486 0.9615795934466019 0.9822896844660194
-4.0 -4.0 -4.0
-4.0 -4.0 -4.0
0.0017382814797794115 0.8959517235753678 0.9730994841452206
0.185231512254902 0.9102185882352941 1.0
0.44319358928571434 0.9296885619047619 0.9998298999999998
0.6616613557692308 0.953343651923077 0.9994083884615386
0.8665610784883722 0.978199194767442 0.9984656802325582
-4.0 -4.0 -4.0
-4.0 -4.0 -4.0
-4.0 -4.0 -4.0
-4.0 -4.0 -4.0
-4.0 -4.0 -4.0
-4.0 -4.0 -4.0
-4.0 -4.0 -4.0
-4.0 -4.0 -4.0
-4.0 -4.0 -4.0
-4.0 -4.0 -4.0
-4.0 -4.0 -4.0
-4.0 -4.0 -4.0
-4.0 -4.0 -4.0
-4.0 -4.0 -4.0
-4.0 -4.0 -4.0
-4.0 -4.0 -4.0
-4.0 -4.0 -4.0
-4.0 -4.0 -4.0
-4.0 -4.0 -4.0
-4.0 -4.0 -4.0
-4.0 -4.0 -4.0
-4.0 -4.0 -4.0
-4.0 -4.0 -4.0
-4.0 -4.0 -4.0
-4.0 -4.0 -4.0
-4.0 -4.0 -4.0
-4.0 -4.0 -4.0
-4.0 -4.0 -4.0
-4.0 -4.0 -4.0
-4.0 -4.0 -4.0
-4.0 -4.0 -4.0
-4.0 -4.0 -4.0
-4.0 -4.0 -4.0
-4.0 -4.0 -4.0
-4.0 -4.0 -4.0
-4.0 -4.0 -4.0
-4.0 -4.0 -4.0
-4.0 -4.0 -4.0
-4.0 -4.0 -4.0
-4.0 -4.0 -4.0
-4.0 -4.0 -4.0
-4.0 -4.0 -4.0
-4.0 -4.0 -4.0
-4.0 -4.0 -4.0
-4.0 -4.0 -4.0
-4.0 -4.0 -4.0
-4.0 -4.0 -4.0
-4.0 -4.0 -4.0
-4.0 -4.0 -4.0
-4.0 -4.0 -4.0
-4.0 -4.0 -4.0
-4.0 -4.0 -4.0
-4.0 -4.0 -4.0
-4.0 -4.0 -4.0
-4.0 -4.0 -4.0
-4.0 -4.0 -4.0
-4.0 -4.0 -4.0
-4.0 -4.0 -4.0
-4.0 -4.0 -4.0
-4.0 -4.0 -4.0
-4.0 -4.0 -4.0
-4.0 -4.0 -4.0
-4.0 -4.0 -4.0
-4.0 -4.0 -4.0
-4.0 -4.0 -4.0
-4.0 -4.0 -4.0
-4.0 -4.0 -4.0
-4.0 -4.0 -4.0
-4.0 -4.0 -4.0
-4.0 -4.0 -4.0
-4.0 -4.0 -4.0
-4.0 -4.0 -4.0
-4.0 -4.0 -4.0
-4.0 -4.0 -4.0
-4.0 -4.0 -4.0
-4.0 -4.0 -4.0
-4.0 -4.0 -4.0
-4.0 -4.0 -4.0
-4.0 -4.0 -4.0
-4.0 -4.0 -4.0
-4.0 -4.0 -4.0
-4.0 -4.0 -4.0
-4.0 -4.0 -4.0
-4.0 -4.0 -4.0
-4.0 -4.0 -4.0
-4.0 -4.0 -4.0
-4.0 -4.0 -4.0
-4.0 -4.0 -4.0
-4.0 -4.0 -4.0
-4.0 -4.0 -4.0
-4.0 -4.0 -4.0
-4.0 -4.0 -4.0
-4.0 -4.0 -4.0
