LUTs/Kodak_interp2.cube
#Loaded 137 keypoints.
# header
LUT_3D_SIZE 9
0.0 0.0 0.0
0.0 1.2847348185296426e-18 0.12499999999999999
0.0 2.569469637059285e-18 0.24999999999999997
0.0 3.8542044555889275e-18 0.37499999999999994
0.0 5.13893927411857e-18 0.49999999999999994
0.0 6.423674092648213e-18 0.6249999999999999
0.0 7.708408911177855e-18 0.7499999999999999
0.0 8.993143729707498e-18 0.8749999999999999
0.0 0.0 1.0
0.0 0.125 0.0
0.0 0.06267507065217393 0.061732346739130445
0.0 0.0685687989130435 0.11289590543478263
0.0 0.08551681418918924 0.23313800168918924
0.0 0.04105109797297297 0.3530390979729729
0.0 0.0 0.47100240999999987
0.0 -1.2726597553580632e-17 0.610260925
0.0 0.07706835714285713 0.850863375
0.0 0.125 1.0
0.0 0.25 0.0
0.0 0.11945641304347826 0.0723011347826087
0.0 0.1467671370967742 0.1533115887096774
0.0 0.19516299324324327 0.28264993074324324
0.0 0.15069727702702698 0.40255102702702694
0.0 0.13880541326530615 0.5422594553571429
0.0 0.15413671428571427 0.7017267499999998
0.0 0.20984909423076925 0.8957135903846154
0.0 0.25 1.0
0.0 0.375 0.0
0.0 0.21716895 0.07652864999999999
0.0 0.22953233467741932 0.20009168346774187
0.0 0.2925905443548387 0.3309201169354839
0.0 0.2649449668367347 0.45486101785714284
0.0 0.27242788520408157 0.6063507589285713
0.0 0.30471409903846153 0.7854233067307693
0.0 0.32483318365384617 0.901717464423077
0.0 0.375 1.0
0.0 0.5 0.0
0.0 0.34557046875 0.07878136979166664
0.0 0.3198517272727273 0.2165313125
0.0 0.3764849772727273 0.37316478124999997
0.0 0.39856743877551026 0.5189523214285714
0.0 0.40216437499999996 0.6668851666666666
0.0 0.4196981884615385 0.7914271807692307
0.0 0.4484023392857143 0.9025751607142858
0.0 0.5 1.0
0.0 0.625 0.0
0.0 0.4875780625 0.09004496874999998
0.0 0.41418185227272725 0.21686234374999996
0.0 0.46197643749999995 0.37462924999999997
0.0 0.48079984375 0.5361113125
0.0 0.48693449999999994 0.6862612083333333
0.0 0.52907865625 0.8005569062500001
0.0 0.5734023392857144 0.9025751607142858
0.0 0.625 1.0
0.0 0.75 0.0
0.0 0.6295856562500001 0.10130856770833332
0.0 0.5431865 0.22514433333333334
0.0 0.5320253958333333 0.37910713194444445
0.0 0.5481229375000001 0.5399056250000001
0.0 0.56694634375 0.7013876875
0.0 0.5978328671874998 0.8323490546875
0.0 0.6984023392857144 0.9025751607142858
0.0 0.75 1.0
0.0 0.875 0.0
0.0 0.77159325 0.11257216666666667
0.0 0.7604321458333333 0.26653496527777776
0.0 0.7492710416666666 0.4204977638888889
0.0 0.7381099374999995 0.5744605625000001
0.0 0.7381099375000001 0.6994605625
0.0 0.7381099375000001 0.8244605625
0.0 0.7983524144736843 0.9165110855263159
0.0 0.875 1.0
0.0 1.0 0.0
0.0 1.0 0.125
0.0 1.0 0.25
0.0 1.0 0.375
0.0 1.0 0.5
0.0 1.0 0.625
0.0 1.0 0.75
0.0 1.0 0.875
0.0 1.0 1.0
0.125 -1.800444585087213e-18 -1.9963995040450656e-18
0.03287510692771085 0.017481824548192772 0.08119910918674697
0.021272128012048194 0.011311768825301206 0.17326090888554216
0.009669149096385544 0.005141713102409641 0.2653227085843373
0.0 3.8542044555889275e-18 0.3628742083333333
0.0 5.13893927411857e-18 0.4878742083333333
0.0 6.423674092648213e-18 0.6128742083333334
0.06641890460526312 0.0 0.7963761052631578
0.125 0.0 1.0
0.18093483608490574 0.15371820283018875 0.0
0.03879509840425531 0.04997514295212766 0.059224555851063836
0.042581339285714274 0.05204792592592592 0.11366798214285712
0.013861544117647057 0.03840874632352942 0.23101
0.006692191265060244 0.01038506024096386 0.3540500331325301
0.0 0.0 0.4690411334745762
0.0 0.0 0.5554110820312499
0.0 0.03949748478260866 0.7300958875000001
0.125 0.125 1.0
0.18562850625 0.2799993375 0.0
0.031537648351648344 0.1054781978021978 0.07322219368131867
0.014197816717791401 0.1167597384969325 0.1457063773006135
0.0 0.12168284062500001 0.26844481249999996
0.003470489690721653 0.10459619136597938 0.41644067332474227
0.0011799664948453656 0.055811793814433 0.5186179226804123
0.0 0.07207276820388346 0.6107534441747572
0.0 0.15798993913043474 0.7651278625
0.125 0.25 1.0
0.18562850625 0.4049993375 0.0
0.025637114361702133 0.20388647938829782 0.0727484215425532
0.004526651041666652 0.21018110590277778 0.17530124739583333
0.0 0.2317066363636363 0.3175493863636364
0.0 0.22633536180904518 0.47436528706030145
0.0 0.2239929130434783 0.6039136711956522
0.0 0.21312996000000006 0.6839443850000001
0.0 0.3112783774509803 0.8209383333333333
0.125 0.375 1.0
0.18562850625 0.5299993375000001 0.0
0.0027613444639718867 0.33759039630931453 0.07621071463093144
0.0 0.34449433268983265 0.19004500370012867
0.0 0.3632842342105263 0.3427837513157895
0.0 0.3896693396880415 0.5275219287261698
0.0 0.41194103483606564 0.6641022581967213
0.0 0.43194586071428565 0.7741906321428571
0.0 0.47818075 0.8770948000000001
0.125 0.5 1.0
0.18562850625 0.6549993375000001 0.0
0.0 0.45073631839622647 0.09469098054245285
0.0 0.4676949951298701 0.20337477232142853
0.0 0.5115013243421053 0.3866435302631579
0.0 0.5511388137931034 0.5782383405172413
0.0 0.535796870515695 0.6931418873318385
0.0 0.5334721119538836 0.811673426274272
0.0 0.6031807499999999 0.8770948000000001
0.125 0.625 1.0
0.18562850625 0.7799993375000001 0.0
0.0 0.5076220248344372 0.07975709933774836
0.0 0.5463121871508381 0.22674671997206702
0.0 0.5816163233333334 0.4243875433333334
0.0 0.625136176948052 0.6206046785714286
0.0 0.6382863333333333 0.735402125
0.0 0.6380861603139013 0.8412309966367713
0.0 0.6320742623355263 0.8779010921052631
0.125 0.75 1.0
0.18562850625 0.9049993375000001 0.0
0.0 0.5542761416666666 0.10879808611111112
0.0 0.5908412547169812 0.3048282481132075
0.0 0.6228543410148977 0.45346492737430166
0.0 0.6413531070763502 0.5759853777932961
0.0 0.6598923876146789 0.7022937717889909
0.0 0.7219012544378698 0.8392557063609468
0.0 0.7460458 0.9094666750000001
0.125 0.875 1.0
0.12499999999999999 1.0 1.97882099595148e-17
0.125 1.0 0.125
0.125 1.0 0.25
0.125 1.0 0.375
0.125 1.0 0.5
0.125 1.0 0.625
0.125 1.0 0.75
0.125 1.0 0.875
0.125 1.0 1.0
0.25 0.0 0.0
0.08926281778169012 0.03916084947183099 0.07356234419014086
0.09121217077464787 0.030745820422535215 0.16929502464788726
0.09316152376760561 0.02233079137323944 0.2650277051056337
0.09511087676056337 0.013915762323943663 0.3607603855633802
0.09706022975352112 0.005500733274647889 0.4564930660211267
0.13283780921052624 0.0 0.5927522105263157
0.23246616611842102 0.0 0.8055050559210526
0.25 0.0 1.0
0.30728455624999995 0.15610423124999998 0.0
0.09375132499999998 0.0652996625 0.057795425
0.0914688611111111 0.05623604783950617 0.13553434722222224
0.06971395486111111 0.045006270061728394 0.24296962847222225
0.07259480643459912 0.03027557805907173 0.36407487763713076
0.06507922499999998 0.0378833125 0.4934072854166666
0.08603036346153844 0.01806103846153848 0.5774662134615385
0.14722657031249994 0.042026226562499956 0.69059161328125
0.25 0.125 1.0
0.3618696721698115 0.3074364056603775 0.0
0.09500254687500001 0.1220744921875 0.069378046875
0.07413391874999999 0.13407336875 0.16222791875
0.07385556445312498 0.12317530403645834 0.27518697070312503
0.06411576502732234 0.10924762158469944 0.41301617144808744
0.06359802000000002 0.10445751250000003 0.5552804154166667
0.07073676923076921 0.14241011298076922 0.6441719567307692
0.00037789660493828443 0.17017002160493827 0.6879120478395062
0.25 0.25 1.0
0.3712570125 0.434998675 0.0
0.07415310739436615 0.22166178873239448 0.06358124823943662
0.08577737500000002 0.23924658333333337 0.16680752083333333
0.009873776785714291 0.25742453571428575 0.3210662946428572
0.0 0.28383922432432435 0.4915879972972973
0.0 0.2632765452702703 0.625021156081081
0.023429589506172847 0.2760925015432099 0.708424587962963
0.0 0.3166921824324324 0.7614108597972974
0.25 0.375 1.0
0.3712570125 0.559998675 0.0
0.06607400000000001 0.3673928666666667 0.06948851666666667
0.07409950000000001 0.3696653333333333 0.17412733333333333
0.028387108258928578 0.41393263392857144 0.36849661272321427
0.0 0.48008930452127657 0.5624712466755318
0.0 0.4837853754332756 0.6994874809358752
0.04193099315068493 0.4707907568493151 0.799245462328767
0.031893944930069945 0.4771420410839161 0.8256158487762237
0.25 0.5 1.0
0.3712570125 0.684998675 0.0
0.0 0.516601054054054 0.02682735135135135
0.04823962500000003 0.5075839375 0.1840828528225806
0.028582911764705874 0.56132 0.4083333259803922
0.0 0.618009775 0.6065901725
0.0 0.6114345077586206 0.7405102931034483
0.0 0.6115568493150686 0.841954941780822
0.027184771853146848 0.6138860987762237 0.87524794493007
0.25 0.625 1.0
0.3712570125 0.809998675 0.0
0.0 0.5733499025974026 0.00509646753246749
0.01773502307692308 0.6047310807692308 0.20028413846153847
0.0015536071428571433 0.6439256964285714 0.43281175892857143
0.0 0.6877365675675676 0.6379223412162162
0.0 0.7099336599264705 0.7748414053308823
0.0 0.7199944243515851 0.8755686095100865
0.0 0.7191523370535714 0.90924525
0.25 0.75 1.0
0.36990062147887315 0.9276634577464791 0.0
0.12714636875 0.6379137625 0.05828924999999993
0.0 0.6497217146341464 0.283465362804878
0.0 0.6917206525974027 0.47943641558441563
0.0 0.7108879902522935 0.6143743354357797
0.0 0.7379516090976329 0.7467320417899408
0.0 0.800225212647929 0.8837288568786983
0.17242707888349504 0.756969802184466 0.9138990364077669
0.25 0.875 1.0
0.24999999999999997 1.0 3.95764199190296e-17
0.25 1.0 0.12500000000000003
0.25 1.0 0.25
0.25 1.0 0.375
0.25 1.0 0.5
0.25 1.0 0.625
0.25 1.0 0.75
0.25 1.0 0.875
0.25 1.0 1.0
0.375 0.0 0.0
0.2456364296075086 0.03262618771331058 0.08064054010238902
0.2617196286262798 0.02883921949658703 0.18759995285836173
0.2731629286971831 0.02353293838028169 0.2908738221830986
0.27511228169014085 0.015117909330985916 0.38660650264084506
0.27706163468309863 0.0067028802816901396 0.48233918309859164
0.29888507072368414 0.0 0.6018811611842103
0.377989796875 -7.719803384505692e-18 0.8100695312499999
0.375 0.0 1.0
0.43228455624999995 0.15610423124999998 0.0
0.2315784375 0.0633833125 0.036846437499999996
0.24209286525974025 0.08203175865800867 0.11843516883116884
0.24332709711538458 0.0625672346153846 0.25224657115384613
0.2470674104166667 0.05447053749999999 0.3951656989583333
0.255400785 0.03457650625000001 0.5349627347916667
0.2505816442307693 0.054741000000000005 0.6043310576923077
0.327523871462264 0.0611218372641509 0.6947939740566037
0.375 0.125 1.0
0.48956911249999996 0.31220846249999995 0.0
0.2637688512931034 0.13371611422413793 0.05705112500000001
0.2655265259146341 0.14065862042682925 0.14546906554878047
0.25967310536649213 0.12609083900523557 0.2748447490837696
0.24407632012195118 0.18357804878048772 0.4495192347560975
0.17976519159836063 0.19771759989754098 0.6026356460040984
0.22374969642857145 0.21124139285714288 0.6786353928571429
0.17875349519230782 0.20593668749999997 0.716238579326923
0.375 0.25 1.0
0.542804508254717 0.461154608490566 0.0
0.31665773174547984 0.2823465478094576 0.05850255041724617
0.278433 0.2791591155462185 0.15072792226890755
0.2503709263392857 0.3152459380580357 0.31133246149553573
0.19322588337988827 0.3474884837639665 0.5043175113477654
0.08852374180327872 0.379484862704918 0.6747936454918033
0.225500951923077 0.3602004284855769 0.755719030048077
0.20257375 0.367307475 0.7911939499999999
0.375 0.375 1.0
0.5568855187499999 0.5899980125 0.0
0.333285601008345 0.4451416521210013 0.03368676269123784
0.2601586600000001 0.44826287499999995 0.14212537500000003
0.20417863405797101 0.4937132373188406 0.37302103623188404
0.101315 0.5333317916666668 0.56669375
0.03879932499999995 0.5537767874999999 0.7426543499999999
0.1849156797945206 0.5072834452054795 0.813856551369863
0.23195667500000006 0.5072817325 0.84490024
0.375 0.5 1.0
0.5568855187499999 0.7149980125 0.0
0.34991347027121 0.6079367564325452 0.008870974965229496
0.2314890483449477 0.624060394163763 0.14628044468641116
0.2605059071782178 0.6558990080445546 0.4012901717202971
0.11637226666666667 0.689699825 0.6054941416666667
0.08461526973684211 0.702211667763158 0.7821824013157894
0.19973100000000013 0.68779905625 0.8479160625000001
0.2404810348335389 0.6558528996609124 0.8977083477188655
0.375 0.625 1.0
0.5568855187499999 0.8399980125 0.0
0.305155109375 0.6927761647727272 0.0
0.19039626249999997 0.703733625 0.16432732500000002
0.13505163281250004 0.7330748398437501 0.412492998046875
0.06211428571428561 0.7704117219387755 0.6395174948979593
0.06099016213389119 0.7920208713389121 0.8161636929916318
0.1703086079545455 0.7923695738636364 0.8846644090909092
0.22809123863636357 0.7761115909090909 0.9214317477272728
0.375 0.75 1.0
0.5480689771126759 0.9173191003521126 0.0
0.4224836458333334 0.7391364127604167 0.05545609635416665
0.1926843794642857 0.7351544330357143 0.21702880803571423
0.19297543589743596 0.7674205480769232 0.4869223974358975
0.17571747008547015 0.7862829391025641 0.6266180021367521
0.15654361811755962 0.8040367126116071 0.7635546912202381
0.14431415856394902 0.8243154755983545 0.8993412193343305
0.31292321723300964 0.829013708131068 0.9374039271844661
0.375 0.875 1.0
0.37499999999999994 1.0 5.936462987854438e-17
0.375 1.0 0.12500000000000006
0.375 1.0 0.25
0.375 1.0 0.375
0.375 1.0 0.5
0.375 1.0 0.625
0.375 1.0 0.75
0.375 1.0 0.875
0.375 1.0 1.0
0.5 0.0 0.0
0.39972578348976107 0.025343556527303752 0.08590431463310577
0.4158089825085323 0.02155658831058021 0.19286372738907848
0.4318921815273038 0.017769620093856655 0.2998231401450512
0.4479753805460752 0.013982651877133104 0.4067825529010239
0.457063039612676 0.00790502728873239 0.5081853001760563
0.46493233223684205 0.0 0.6110101118421052
0.502989796875 -9.536227710271737e-18 0.8100695312499999
0.5 0.0 1.0
0.55728455625 0.15610423124999998 0.0
0.4203842086864407 0.053777320974576256 0.005991305084745761
0.4408262255747126 0.028580873563218385 0.10770589942528735
0.4470485990384615 0.02749001153846154 0.25578379038461535
0.44857032500000005 0.02493954999999999 0.40505408750000005
0.47301667559523813 0.08717288244047622 0.5713401354166667
0.48119566142270864 0.0766956656976744 0.6362661865595075
0.5039852423349055 0.08334795990566034 0.7028670271226414
0.5 0.125 1.0
0.6145691124999999 0.31220846249999995 0.0
0.46429521788990835 0.13038262270642204 0.028491363532110077
0.46468913178294574 0.11385197480620156 0.1360114127906977
0.47213889725130886 0.11092008246073293 0.2831494193717277
0.49370667264150936 0.1758682566037736 0.458008941509434
0.509610669207317 0.2439107766768293 0.6292839428353658
0.5225292222982216 0.2499472965116279 0.7150561186730506
0.4936812287946429 0.22517033621651789 0.7634387946428572
0.5 0.25 1.0
0.6718536687500001 0.46831269374999995 0.0
0.5235543277027027 0.3024833101351351 0.06409589864864865
0.5266914369565218 0.30418420326086953 0.14938368695652177
0.5411093507853403 0.32374822643979057 0.31764772303664923
0.5468626459424084 0.36124387172774863 0.5128330476439791
0.4883977963414634 0.40315226158536593 0.6931545323170731
0.5518306540178571 0.41755390011160703 0.7922533928571428
0.5578261152647975 0.4169550790498442 0.8296027605140186
0.5 0.375 1.0
0.723739344339623 0.614872811320755 0.0
0.612734820945946 0.5162417410472973 0.07254490202702704
0.5951332755905512 0.5020731131889764 0.1600040137795276
0.559893424185099 0.5268552680442375 0.3537373476426077
0.5191631038062282 0.5486291453287199 0.5549779619377164
0.44289455078124995 0.58030998046875 0.7597663491210938
0.554889685381356 0.5886191980932203 0.8506254915254238
0.5158544939889026 0.5697531683107275 0.8777778481812577
0.5 0.5 1.0
0.742514025 0.74499735 0.0
0.6349598718637992 0.6836827387992832 0.03926116487455198
0.5905799969412724 0.6837386769983685 0.1632567010603589
0.5331409061990211 0.7151863446166394 0.3906058741843393
0.5150694777843601 0.7433873397511849 0.5924540367298579
0.48283951818181825 0.7921302954545454 0.8019082977272727
0.46871711281779654 0.768362373411017 0.8708753262711865
0.46640950741525417 0.7224370879237287 0.9220637796610169
0.5 0.625 1.0
0.7398012429577463 0.8553269154929579 0.0
0.66922029375 0.805898534375 0.0
0.6174832623152708 0.7964529064039408 0.11183177339901468
0.5706733125000001 0.8150236218750001 0.4149158875000001
0.5613835714285715 0.8425632392857143 0.6367753285714286
0.40834163576158944 0.8501073534768211 0.8205648352649008
0.5052835493055554 0.847752923611111 0.8872649069444445
0.4946975980113636 0.8088619971590909 0.9386180539772728
0.5 0.75 1.0
0.7262373327464788 0.9069747429577464 0.0
0.7088930520833334 0.8297725670572916 0.008709061197916637
0.577558687919463 0.812790178691275 0.10246009563758392
0.5733489285714287 0.8465240259740259 0.4715771233766234
0.5782089998139881 0.8689264246651786 0.6029710930059524
0.5448495002455795 0.8833642777504911 0.7445157946954815
0.47075099066797627 0.8883840704813358 0.8998300515717093
0.5329845511363637 0.887134965909091 0.9548494977272728
0.5 0.875 1.0
0.49999999999999994 1.0 7.91528398380592e-17
0.5 1.0 0.12500000000000008
0.5 0.9999999999999999 0.25000000000000006
0.5 1.0 0.375
0.5 1.0 0.5
0.5 1.0 0.625
0.5 1.0 0.75
0.5 1.0 0.875
0.5 1.0 1.0
0.625 0.0 0.0
0.5538151373720136 0.01806092534129693 0.09116808916382252
0.569898336390785 0.014273957124573381 0.1981275019197952
0.5859815354095563 0.01048698890784983 0.30508691467576793
0.6020647344283276 0.00670002069112628 0.41204632743174063
0.618147933447099 0.0029130524744027295 0.5190057401877134
0.630519625 0.0 0.6301283653846155
0.627989796875 -1.1352652036037782e-17 0.8100695312499998
0.625 0.0 1.0
0.68228455625 0.15610423124999998 0.0
0.595012875 0.010780749999999988 0.031307500000000016
0.5850013691666667 0.016735613333333337 0.11795685916666666
0.6153034816666667 0.010782963333333328 0.2704983966666667
0.6401694660194175 0.05029622694174758 0.44422481674757286
0.6577559021535581 0.0935666175093633 0.5788912265917603
0.6597044200268818 0.0978788346774194 0.6805573971774195
0.6630790489864866 0.061028483108108114 0.7319527060810811
0.625 0.125 1.0
0.7395691124999999 0.31220846249999995 0.0
0.6353516375968992 0.12551750678294574 0.037834302325581395
0.6551193591269842 0.09431485714285714 0.145319123015873
0.6611670054945054 0.0912195947802198 0.29060159203296704
0.6866686686893204 0.18278049393203888 0.483082557038835
0.6997596019345238 0.2380165085565476 0.6464349869791667
0.6845846419491525 0.19945601694915258 0.7275965677966101
0.6940820340909091 0.1855957727272728 0.7798177840909091
0.625 0.25 1.0
0.7968536687500001 0.46831269374999995 0.0
0.7035426121710527 0.3138162095394737 0.0467313167763158
0.6740152638888889 0.30544650000000007 0.09272373611111112
0.6718806897959183 0.3088309775510203 0.3285704647959182
0.7157139656593406 0.3376438763736264 0.519551331043956
0.7555438003731343 0.40615750186567184 0.7102272294776121
0.7358024156976742 0.3891062819767441 0.8045869244186045
0.7069450601374571 0.4153123719931272 0.8385127809278351
0.625 0.375 1.0
0.8541382249999999 0.6244169249999999 0.0
0.7819315991776316 0.5446908800986842 0.056792685690789484
0.7562701882183908 0.5393964073275862 0.16603498275862072
0.7441328454231433 0.560114363341969 0.36629454468911926
0.7801005051272984 0.5836036851131542 0.559791068953324
0.8067737806818182 0.6084710454545454 0.7540095102272728
0.7751806741071428 0.6249236562499999 0.8591386071428571
0.7461300860049321 0.6331345918618989 0.9049782202527743
0.625 0.5 1.0
0.9046741804245289 0.768591014150944 0.0
0.8606523636811023 0.7317261951279527 0.08377190255905514
0.8440917229330707 0.7426410100885826 0.23004982677165353
0.8124747357259381 0.7624548676590539 0.38661977161500816
0.7907444887440758 0.7888244004739338 0.591083441943128
0.7309872275641026 0.8193180224358974 0.8011443782051282
0.7217549487179487 0.8022163012820513 0.8893475608974358
0.7230170042613637 0.763339434659091 0.9395729164772728
0.625 0.625 1.0
0.9179695985915493 0.8449825580985916 0.0
0.9077391953125 0.85579493359375 0.04892001562499996
0.8995867052238805 0.8730687854477612 0.20903796828358212
0.8481609659961685 0.8634001681034482 0.3984971973180077
0.8075994529331515 0.8844444889154162 0.6241761712141883
0.7543746116984993 0.9021028148021828 0.8121167875170533
0.7429412152777777 0.8837178055555555 0.912720847222222
0.7598154027777777 0.8427215972222222 0.9560457638888888
0.625 0.75 1.0
0.9044056883802817 0.8966303855633802 0.0
0.8933535919117648 0.8845688995098039 0.00126491176470588
0.8702552647058823 0.8820696225490195 0.1319550661764705
0.8266440023809525 0.901310794047619 0.46796356904761904
0.8046027008620691 0.9159113172413794 0.6224929431034484
0.7899677556034483 0.9323609495689654 0.7650695426724139
0.7753328103448276 0.9488105818965518 0.9076461422413793
0.7985186249999999 0.9341630000000001 0.96958475
0.625 0.875 1.0
0.6249999999999999 0.9999999999999999 9.8941049797574e-17
0.6249999999999999 0.9999999999999999 0.12500000000000008
0.6249999999999999 1.0 0.25000000000000006
0.625 1.0 0.37500000000000006
0.625 1.0 0.5
0.625 1.0 0.625
0.625 1.0 0.75
0.625 1.0 0.875
0.625 1.0 1.0
0.75 -1.0802667510523281e-17 -1.1978397024270394e-17
0.7079044912542662 0.010778294155290104 0.09643186369453924
0.7239876902730378 0.006991325938566552 0.20339127645051194
0.7400708892918089 0.003204357721843002 0.3103506892064847
0.7536797500000001 0.0 0.42008557692307696
0.75367975 0.0 0.5450855769230769
0.75367975 0.0 0.6700855769230769
0.752989796875 -1.3169076361803826e-17 0.8100695312499998
0.75 0.0 1.0
0.80728455625 0.15610423124999998 0.0
0.6893779107142857 0.021816725396825394 0.05046048611111111
0.7052237197916666 0.026311521527777777 0.1484443559027778
0.7069796474358975 0.0018896410256410243 0.2753843878205128
0.7179912140410959 0.0 0.4508684434931507
0.7314856535852713 3.0106589147286805e-06 0.563377453003876
0.7555809937015504 1.4650193798449612e-05 0.6563381332364342
0.7858676458864795 1.764700255102041e-05 0.7728969306441327
0.75 0.125 1.0
0.8645691124999999 0.31220846249999995 0.0
0.7508538142857142 0.14178817642857144 0.033125825
0.7647150528846154 0.1566790384615385 0.09601064903846152
0.7612021902173913 0.10760474456521743 0.2827781086956522
0.770893466080402 0.11341053643216081 0.4781544579145728
0.7868870610632184 0.14414731070402298 0.6310611758261493
0.8047971785714285 0.12699580714285713 0.7185981714285715
0.8060936346830986 0.1516469662558686 0.7907847250586855
0.75 0.25 1.0
0.9218536687500001 0.46831269374999995 0.0
0.8270911583333334 0.3250486666666667 0.0
0.8175118571428572 0.3082149642857143 0.030751482142857098
0.8178270439189188 0.3210501114864865 0.3015894504504504
0.8339557925000001 0.3411457725 0.5345452150000001
0.8400379925000001 0.34871192250000005 0.6987589225000002
0.8447068801020409 0.3628456224489796 0.8114214846938774
0.8332409860395189 0.41713795382302415 0.8513773588917526
0.75 0.375 1.0
0.979138225 0.6244169249999999 0.0
0.9212707165178571 0.5515510452008928 0.004569452008928549
0.9044979017857143 0.5461538325892857 0.1257943258928572
0.8937292048791018 0.5683132176165804 0.3308375408031088
0.9054608362800566 0.6088798822489392 0.5878794016973126
0.905150709051724 0.6112001228448276 0.7662165043103448
0.9062604013157896 0.6274697006578948 0.8492501809210526
0.9073771655701754 0.6524292927631581 0.9209077730263158
0.75 0.5 1.0
0.979138225 0.7494169249999999 0.0
0.9726513160211266 0.7661482933538732 0.12447452508802809
0.9618983560739438 0.7792940111135566 0.25714555655809856
0.9513977274096386 0.7904969924698797 0.3948093644578314
0.9478491447368421 0.8060050986842104 0.6184478157894735
0.9459853198198198 0.8223052308558558 0.7950325731981982
0.9346629166666666 0.8015939583333334 0.8861527083333333
0.9247844813218391 0.7742611350574713 0.9476558548850575
0.75 0.625 1.0
0.9890520083333333 0.8450948749999999 0.0
0.985353314084507 0.8527575660211268 0.11580454049295782
0.9765831922535211 0.8738242605633804 0.26352549647887324
0.9700221809497815 0.8882752729257642 0.4313759784388646
0.9667959511278195 0.912163894736842 0.6376682669172932
0.9547004464285713 0.9219240178571426 0.8364570892857143
0.9406772704918034 0.8968235163934426 0.9287091803278689
0.9299340933908046 0.8563721997126437 0.9604251005747125
0.75 0.75 1.0
0.99687553125 0.9065729479166666 0.0
0.9896525715835142 0.9136816832971801 0.09575011578091105
0.9810110723969632 0.9189071456073753 0.2869957548806941
0.9723695732104121 0.9241326079175705 0.4782413939804772
