LUTs/Kodak_interp_noPrimaries.cube

#Loaded 129 keypoints.
# header
LUT_3D_SIZE 9
-6.0 -6.0 -6.0
-6.0 -6.0 -6.0
-6.0 -6.0 -6.0
-6.0 -6.0 -6.0
-6.0 -6.0 -6.0
-6.0 -6.0 -6.0
-6.0 -6.0 -6.0
-6.0 -6.0 -6.0
-6.0 -6.0 -6.0
-6.0 -6.0 -6.0
-6.0 -6.0 -6.0
-6.0 -6.0 -6.0
-6.0 -6.0 -6.0
-6.0 -6.0 -6.0
-6.0 -6.0 -6.0
-6.0 -6.0 -6.0
-6.0 -6.0 -6.0
-6.0 -6.0 -6.0
-6.0 -6.0 -6.0
-6.0 -6.0 -6.0
-6.0 -6.0 -6.0
-6.0 -6.0 -6.0
-6.0 -6.0 -6.0
-6.0 -6.0 -6.0
-6.0 -6.0 -6.0
-6.0 -6.0 -6.0
-6.0 -6.0 -6.0
-6.0 -6.0 -6.0
-6.0 -6.0 -6.0
-6.0 -6.0 -6.0
-6.0 -6.0 -6.0
-6.0 -6.0 -6.0
-6.0 -6.0 -6.0
-6.0 -6.0 -6.0
-6.0 -6.0 -6.0
-6.0 -6.0 -6.0
-6.0 -6.0 -6.0
-6.0 -6.0 -6.0
-6.0 -6.0 -6.0
-6.0 -6.0 -6.0
-6.0 -6.0 -6.0
-6.0 -6.0 -6.0
-6.0 -6.0 -6.0
-6.0 -6.0 -6.0
-6.0 -6.0 -6.0
-6.0 -6.0 -6.0
-6.0 -6.0 -6.0
-6.0 -6.0 -6.0
-6.0 -6.0 -6.0
-6.0 -6.0 -6.0
-6.0 -6.0 -6.0
-6.0 -6.0 -6.0
-6.0 -6.0 -6.0
-6.0 -6.0 -6.0
-6.0 -6.0 -6.0
-6.0 -6.0 -6.0
-6.0 -6.0 -6.0
-6.0 -6.0 -6.0
-6.0 -6.0 -6.0
-6.0 -6.0 -6.0
-6.0 -6.0 -6.0
-6.0 -6.0 -6.0
-6.0 -6.0 -6.0
-6.0 -6.0 -6.0
-6.0 -6.0 -6.0
-6.0 -6.0 -6.0
-6.0 -6.0 -6.0
-6.0 -6.0 -6.0
-6.0 -6.0 -6.0
-6.0 -6.0 -6.0
-6.0 -6.0 -6.0
-6.0 -6.0 -6.0
-6.0 -6.0 -6.0
-6.0 -6.0 -6.0
-6.0 -6.0 -6.0
-6.0 -6.0 -6.0
-6.0 -6.0 -6.0
-6.0 -6.0 -6.0
-6.0 -6.0 -6.0
-6.0 -6.0 -6.0
-6.0 -6.0 -6.0
-6.0 -6.0 -6.0
-6.0 -6.0 -6.0
-6.0 -6.0 -6.0
-6.0 -6.0 -6.0
-6.0 -6.0 -6.0
-6.0 -6.0 -6.0
-6.0 -6.0 -6.0
-6.0 -6.0 -6.0
-6.0 -6.0 -6.0
-6.0 -6.0 -6.0
0.03305241554054053 0.04775239189189189 0.05653820608108108
0.022362291666666666 0.0385851953125 0.12012454166666667
0.004823285714285717 0.018592989285714283 0.21741445357142855
0.003920796874999997 0.01692650052083334 0.3391214885416666
0.0030634385593220326 0.028729177259887013 0.4552717570621469
0.0 0.032945603790613724 0.5495142644404332
-6.0 -6.0 -6.0
-6.0 -6.0 -6.0
0.01618194318181819 0.09621235227272729 0.05204119318181818
0.03187926059322034 0.09327874576271186 0.07588607627118643
0.01640752798507462 0.11392369309701493 0.14372139925373134
0.0018955735294117649 0.08475769852941176 0.25390611764705884
0.0012506805555555557 0.06420171085858586 0.4028955946969697
0.0 0.08015966132671483 0.5115380550541517
0.0 0.10920064417870037 0.589055263537906
0.015895350000000103 0.1538096000000002 0.6664116
-6.0 -6.0 -6.0
-6.0 -6.0 -6.0
0.022155414818548387 0.20432420262096773 0.09984384022177419
0.009193204545454511 0.2108858522727273 0.1685283977272727
0.0 0.20895576250000003 0.3085469944444445
0.0 0.22481700625000003 0.4756071569444445
0.0 0.2385843355769231 0.6066117211538461
0.0 0.2375391769230769 0.6629066538461539
0.0 0.23657348141263942 0.7190959395910781
-6.0 -6.0 -6.0
-6.0 -6.0 -6.0
0.01548771959459458 0.3372653310810811 0.08463726013513512
0.002257726051401874 0.35750371495327105 0.1877234596962617
0.0 0.3840693681506848 0.34741983904109586
0.0 0.41521137035315997 0.5344566900557621
0.0 0.43168341029900337 0.6911422520764119
0.0 0.4420112691860465 0.7563984761627907
0.0 0.4467341831395349 0.802019863372093
-6.0 -6.0 -6.0
-6.0 -6.0 -6.0
0.0 0.45013386295180724 0.07467377259036145
0.0 0.47090542098445587 0.2028415829015544
0.0 0.5046104608050848 0.3833434332627118
0.0 0.5362033114406779 0.5714823411016949
0.0 0.5649829285714285 0.7469511428571427
0.0 0.5739106363636365 0.8269902840909091
0.0 0.5599527572525597 0.8481869982935154
-6.0 -6.0 -6.0
-6.0 -6.0 -6.0
0.0 0.5115673527580071 0.05479206672597861
0.0 0.5503809154005525 0.23461213156077348
0.0 0.5818636390977443 0.4327941005639098
0.0 0.6069795954198474 0.5862210772900763
0.0 0.628501284351145 0.7276191078244276
0.0 0.641766755733945 0.847402873853211
0.0 0.6316204291044777 0.8742271368159205
-6.0 -6.0 -6.0
-6.0 -6.0 -6.0
-6.0 -6.0 -6.0
0.0 0.5803827562741313 0.23741939189189187
-6.0 -6.0 -6.0
-6.0 -6.0 -6.0
-6.0 -6.0 -6.0
-6.0 -6.0 -6.0
-6.0 -6.0 -6.0
-6.0 -6.0 -6.0
-6.0 -6.0 -6.0
-6.0 -6.0 -6.0
-6.0 -6.0 -6.0
-6.0 -6.0 -6.0
-6.0 -6.0 -6.0
-6.0 -6.0 -6.0
-6.0 -6.0 -6.0
-6.0 -6.0 -6.0
-6.0 -6.0 -6.0
-6.0 -6.0 -6.0
-6.0 -6.0 -6.0
-6.0 -6.0 -6.0
-6.0 -6.0 -6.0
0.032606641304347816 0.00633467391304348 0.3593327826086956
-6.0 -6.0 -6.0
-6.0 -6.0 -6.0
-6.0 -6.0 -6.0
-6.0 -6.0 -6.0
0.11256419472361806 0.0559466620603015 0.03688187939698493
0.09588830061349694 0.06468044708588958 0.059601039877300616
0.11068040732758624 0.054195102370689655 0.1330612273706897
0.09503076785714287 0.031558910714285716 0.2372061607142857
0.06009982450564974 0.015223329096045202 0.3606738290960452
0.02407910098870055 0.004562091807909602 0.4855559668079095
0.034965583860759486 9.343829113924049e-05 0.5676396186708861
-6.0 -6.0 -6.0
-6.0 -6.0 -6.0
0.08868695351758793 0.16534564195979898 0.028138330402010057
0.09551105291411041 0.11710777990797544 0.07248543941717792
0.11953251923076921 0.11865776771255061 0.14058081933198383
0.09078732218844983 0.13030830642097263 0.2781996343085106
0.044605007009345804 0.14266422242990653 0.42784977523364487
0.0026698360849056616 0.11098824174528303 0.5440464021226415
0.01366442368421051 0.10785320526315795 0.6371570842105264
0.11763049349999996 0.11380423350000002 0.6870127795000001
-6.0 -6.0 -6.0
0.06480971231155776 0.2747446218592965 0.019394781407035183
0.08889582018442621 0.22186880327868852 0.08128828022540983
0.13095757310779815 0.24089625430045872 0.16871322219036697
0.0873864617952522 0.2704262015949555 0.34223881250000004
0.048114919392523346 0.3003515920560747 0.5090743098130841
0.0013374729729729723 0.26975404054054053 0.6237505202702702
0.0 0.26684147397769514 0.7166477904275094
0.147262875 0.28869711629746836 0.7583862903481012
-6.0 -6.0 -6.0
0.04093247110552759 0.38414360175879403 0.010651232412060304
0.0674171818647541 0.36598446926229505 0.0886842361680328
0.10055926642538973 0.3955052525055679 0.18964808713808468
0.10167361871301772 0.4317741201923077 0.3688482156065089
0.047595110655737696 0.4605914959016394 0.5633512704918033
0.06702459955752214 0.46579769800884957 0.694454071902655
0.06322623584905662 0.467942858490566 0.7909599481132076
0.023035309210526326 0.47322300657894734 0.8296931710526315
-6.0 -6.0 -6.0
0.017055229899497443 0.49354258165829146 0.0019076834170854268
0.0615400006329114 0.5221459848101265 0.09702868291139241
0.022635402531645615 0.5538590892405063 0.2438262066455696
0.0 0.5816037864583333 0.39693744270833337
0.0 0.5981962804878049 0.6005611981707318
0.06722140185185183 0.6366850273148148 0.7482033814814816
0.05728188888888897 0.6451767708333334 0.8507951589209402
0.0 0.6310097499999998 0.8783905625
-6.0 -6.0 -6.0
-6.0 -6.0 -6.0
0.0035574421296296677 0.5876760594135801 0.15494387037037036
0.0 0.611236865805169 0.28330323459244533
0.0 0.639717543062201 0.4421578779904306
0.0 0.6806154239130435 0.6465913913043478
0.0 0.7053723392857143 0.796270625
0.0 0.7132392840909092 0.8750057159090908
0.0 0.7246244029850746 0.9087118495024876
-6.0 -6.0 -6.0
-6.0 -6.0 -6.0
0.08636787137681165 0.6409191721014493 0.13891225362318843
0.016299553030303022 0.6565460119949496 0.3065000151515152
0.0 0.6909921785714286 0.49366762499999994
0.0 0.7114202736220472 0.6385599950787402
0.09397521296296295 0.733414462962963 0.7435054699074074
-6.0 -6.0 -6.0
-6.0 -6.0 -6.0
-6.0 -6.0 -6.0
-6.0 -6.0 -6.0
-6.0 -6.0 -6.0
-6.0 -6.0 -6.0
-6.0 -6.0 -6.0
-6.0 -6.0 -6.0
-6.0 -6.0 -6.0
-6.0 -6.0 -6.0
-6.0 -6.0 -6.0
-6.0 -6.0 -6.0
-6.0 -6.0 -6.0
0.22726990673076922 0.029527451923076917 0.06953876153846153
0.225714673136646 0.01896921583850933 0.15267202484472045
0.21853279192546585 0.007483268633540381 0.24178919099378876
0.20764360210396046 0.0 0.34813656930693065
-6.0 -6.0 -6.0
-6.0 -6.0 -6.0
-6.0 -6.0 -6.0
-6.0 -6.0 -6.0
0.2626506614321608 0.061274648869346734 0.020269136306532664
0.24322526858108107 0.08822459628378379 0.0500301768018018
0.23652453030303028 0.08705101369463869 0.1300503846153846
0.23864691517857148 0.05444934598214286 0.2541287522321429
0.23323776371951221 0.02664139329268293 0.3841469786585366
0.2405576076388889 4.175e-05 0.5200339019097222
0.24185552945859876 0.007612480891719741 0.601399726910828
0.25013877 0.0205602925 0.6570943100000001
-6.0 -6.0 -6.0
0.23877342022613066 0.17067362876884423 0.011525587311557789
0.2732202618243243 0.15140432263513512 0.058443207207207214
0.26303265530303027 0.15122304254079255 0.13862276923076922
0.26301271618291344 0.19129835843373494 0.2961166159638554
0.21385138113636365 0.19032648795454546 0.4315879195454546
0.1756527796677214 0.13796839280063297 0.5803412092563291
0.2063259869402985 0.11475899440298509 0.6702307891791044
0.28313297727272724 0.21140079829545455 0.7263694403409091
-6.0 -6.0 -6.0
0.21489617902010055 0.2800726086683417 0.002782038316582915
0.2649252740625 0.263533616875 0.051485932500000005
0.3049873020262869 0.2948533524096385 0.18074990813253014
0.3061066544359255 0.344468156626506 0.3427847786144579
0.2650670712643678 0.35186797068965514 0.48244733879310353
0.19597158011168386 0.31470353651202754 0.6242641237113402
0.213909439516129 0.33551267741935487 0.7422985403225806
0.34322867045454547 0.34899555965909085 0.7921248380681818
-6.0 -6.0 -6.0
0.22522216163793107 0.4012131961206896 0.0
0.3116933995165746 0.42913216298342544 0.029869360497237558
0.33098672596153855 0.46918058173076926 0.14524527403846152
0.35340832174556214 0.5072360769230769 0.37542159837278116
0.3208206954656862 0.534324894607843 0.5590569044117648
0.27824266194690267 0.535614578761062 0.7026226086283186
0.2900944889312977 0.5433023685114504 0.8205179763358779
0.232999740625 0.520324390625 0.8532449976562501
-6.0 -6.0 -6.0
0.25150964870689657 0.5278332004310344 0.0
0.31120918034638567 0.5866169408885542 0.05011862349397591
0.28236284412650614 0.6172703501506024 0.19351942771084338
0.26645538715046607 0.6564924019640479 0.40532702247003993
0.23764793414634147 0.6981666926829269 0.6230016591463414
0.30828803292682927 0.7141592085365854 0.7702452908536586
0.2993617693482689 0.7104872640020367 0.8748672581466395
0.14079449274193545 0.6855681814516129 0.9039387612903226
-6.0 -6.0 -6.0
0.2761204716494845 0.6545374587628867 0.0
0.2775352964380825 0.6895402212050599 0.14117299683754986
0.24714420788948072 0.7003729270972037 0.2933975642476698
0.2148266622928177 0.7126918950276243 0.44784661740331494
0.16195828338762217 0.7659609596905537 0.6412329609120521
0.14107953166666665 0.7810915380952381 0.805628764047619
0.18726352666666662 0.7861775452380952 0.8886280776190476
0.06181587053571434 0.8000605669642857 0.9297781785714285
-6.0 -6.0 -6.0
-6.0 -6.0 -6.0
0.35046573550724647 0.7393034026915115 0.1244399430641822
0.22335286016949166 0.7525883061440679 0.32419571186440677
0.16554596774193547 0.7692493931451613 0.49323866532258065
0.16444087564102566 0.7942149801282051 0.6630219512820513
0.22922129272727268 0.8131783731818181 0.8125865777272727
0.3057025 0.832841915730337 0.906480823033708
-6.0 -6.0 -6.0
-6.0 -6.0 -6.0
-6.0 -6.0 -6.0
-6.0 -6.0 -6.0
-6.0 -6.0 -6.0
-6.0 -6.0 -6.0
-6.0 -6.0 -6.0
-6.0 -6.0 -6.0
-6.0 -6.0 -6.0
-6.0 -6.0 -6.0
-6.0 -6.0 -6.0
-6.0 -6.0 -6.0
0.38243584326923086 0.015302548076923073 0.06618773846153846
0.4017795865384616 0.008190096153846135 0.12709507692307692
0.3946335891089109 0.0 0.225648655940594
0.37681334405940603 0.0 0.3642090396039603
0.35899309900990106 0.0 0.5027694232673267
-6.0 -6.0 -6.0
-6.0 -6.0 -6.0
-6.0 -6.0 -6.0
0.41273712814070357 0.06660263567839197 0.0036563932160803983
0.41988873214285716 0.059025785714285704 0.02378785714285713
0.42478716898826985 0.06788969978005863 0.10479921260997066
0.43090552141608396 0.03748725305944055 0.24283626966783217
0.4639321014150944 0.011214457547169803 0.42665902004716993
0.4705787146464647 0.008645618686868684 0.5424798573232323
0.4805608987500001 0.026955445000000005 0.6353111337499999
0.38361166350446435 0.02158096205357142 0.6802734402901786
-6.0 -6.0 -6.0
0.4180466379310346 0.18602112068965518 0.0
0.45350027741514354 0.15136632506527417 0.03389261749347259
0.45095405246913584 0.11711164197530866 0.10210672016460909
0.4789385277777778 0.16569159722222224 0.3017211851851852
0.45513103863636367 0.15937722045454544 0.46345285454545454
0.4507283267167381 0.14885878379828324 0.6057587078862661
0.4871308776223776 0.12313136188811193 0.6916487255244755
0.5180609062500001 0.15319822916666662 0.7534268229166666
-6.0 -6.0 -6.0
0.411918618556701 0.3142700360824742 0.0
0.49557641765625005 0.3228401134375 0.03624434625
0.5404808357487924 0.3119347675120773 0.12707185789049916
0.5365312083333333 0.35265129166666676 0.34655922222222224
0.5018361561363637 0.33983726295454547 0.5002879945454546
0.46495429045092834 0.326386199933687 0.6595198468169761
0.500921326009501 0.34892938034441806 0.7636739340855108
0.538058775 0.38325893749999995 0.8250049875000001
-6.0 -6.0 -6.0
-6.0 -6.0 -6.0
0.5600799114583334 0.5023406145833333 0.028360208333333328
0.6218808392857144 0.5542278035714285 0.10820246428571426
0.6050305746527778 0.5705732274305556 0.36329257060185194
0.5529114235395188 0.5689553109965635 0.5702305360824743
0.5355129293349167 0.5744423758907363 0.7222407390142519
0.5511724147727273 0.6009805352272727 0.8310675204545455
0.5416142491935485 0.6082753951612903 0.889895904032258
-6.0 -6.0 -6.0
-6.0 -6.0 -6.0
0.6109027468944099 0.6545252018633541 1.0108695652173912e-06
0.6161724012667661 0.6824004329359165 0.17820110115499257
0.6015340968468468 0.7268411238738738 0.37599321509009
0.5882908967391304 0.7778982010869566 0.621057847826087
0.5775986168981482 0.7878336004050925 0.7798695636574073
0.5555763481707318 0.7805986509146341 0.8940345963414633
0.4481158947368421 0.744475923245614 0.9252369385964913
-6.0 -6.0 -6.0
-6.0 -6.0 -6.0
0.6012092639751553 0.7523305201863353 0.007556111801242227
0.6101752906110283 0.7837270558867363 0.264664353204173
0.5812239760638298 0.8018215895390071 0.4383149592198582
0.5565970971922246 0.8402128158747301 0.6292689276457882
0.5537034586933045 0.8563783345032396 0.8162454932505399
0.5433411880000002 0.8567014399999999 0.917432508
0.3611309531250005 0.8389338013392857 0.9419980089285714
-6.0 -6.0 -6.0
-6.0 -6.0 -6.0
0.6673840742827869 0.834571396772541 0.10277774180327864
0.6027681350635593 0.8439505018538136 0.28242642796610173
0.4749094602754237 0.8358102163665253 0.48051452118644067
0.49880366004962773 0.8668544494416873 0.6622814029156328
0.5315983273809524 0.8967012326839826 0.8183691206709957
0.4919446266666667 0.9095713316666667 0.9277501166666666
-6.0 -6.0 -6.0
-6.0 -6.0 -6.0
-6.0 -6.0 -6.0
-6.0 -6.0 -6.0
-6.0 -6.0 -6.0
-6.0 -6.0 -6.0
-6.0 -6.0 -6.0
-6.0 -6.0 -6.0
-6.0 -6.0 -6.0
-6.0 -6.0 -6.0
-6.0 -6.0 -6.0
-6.0 -6.0 -6.0
0.5376017798076923 0.0010776442307692327 0.06283671538461538
0.546087801724138 0.0 0.15782615517241377
0.5526349448275862 0.0 0.25890168448275863
0.5459830860148516 0.0 0.38028150990099
0.5281628409653466 0.0 0.5188418935643564
-6.0 -6.0 -6.0
-6.0 -6.0 -6.0
-6.0 -6.0 -6.0
0.5371176417525774 0.102476206185567 0.0
0.5934259615384616 0.0266246298076923 0.019693903846153837
0.59973692 0.03037567692307692 0.06920873846153847
0.6095778079710146 0.043446349637681195 0.26164092753623186
0.6280646249999999 0.055767750000000005 0.44362075
0.6337263532774391 0.03415054268292683 0.5791141204268292
0.6353445346958174 0.017090038498098852 0.6658409215779467
0.5148485569196428 0.024707933035714277 0.7021515747767857
-6.0 -6.0 -6.0
-6.0 -6.0 -6.0
0.6512321793407311 0.1636161264686684 0.004150893603133157
0.642990202160494 0.09192731172839508 0.07461429681069964
0.6778199907094595 0.1439364231418919 0.286362941722973
0.6894020968309859 0.15407533098591547 0.49140951408450706
0.6951040208333332 0.10124166666666667 0.608347
0.7003341466535432 0.03974382283464565 0.7147763710629922
0.6780257350746269 0.13878053358208955 0.7727599309701492
-6.0 -6.0 -6.0
-6.0 -6.0 -6.0
0.7126955409595299 0.3628031463772845 0.015042229112271552
0.7429794750000001 0.32244996100000006 0.05624814399999997
0.7550273625 0.33378064300000004 0.29483990949999994
0.7336485778443114 0.34065043787425153 0.5372208128742516
0.7369192057235421 0.34287644006479484 0.6830049254859611
0.7447401701732673 0.3545329139851484 0.7997806113861385
0.7365382851027398 0.37510356763698616 0.8439934905821918
-6.0 -6.0 -6.0
-6.0 -6.0 -6.0
0.777980777529762 0.5500855252976191 0.013080422619047617
0.829913219551282 0.5632206530448717 0.010031241185897438
0.7950113666845494 0.5686279611051502 0.2984407545600859
0.7678737500000001 0.5753129430100756 0.5855830931989925
0.7657208466522678 0.5980139265658747 0.7516504492440607
0.769054498411017 0.6136601287076271 0.861597908898305
0.7845875679347827 0.6444335760869566 0.9116898641304347
-6.0 -6.0 -6.0
-6.0 -6.0 -6.0
0.8889326661490683 0.751518325310559 2.934782608695652e-07
0.8786601976817042 0.7511096613408521 0.013420382832080198
0.8538575154028436 0.7563312049763032 0.3373049976303317
0.808396705835962 0.8070572768138801 0.6293790003943218
0.7927027357142856 0.8399963392857144 0.8140921999999999
0.7745719294871795 0.8340427443910257 0.9126016858974361
0.7710816774509802 0.7823704142156862 0.9382796335784314
-6.0 -6.0 -6.0
-6.0 -6.0 -6.0
0.8935149035580525 0.8316579475655431 0.0026451451310861426
0.8862122032442749 0.8467384742366412 0.040674438931297616
0.88364921875 0.8798959687500001 0.38305009375
0.839184640470297 0.8957414207920791 0.6335114214108911
0.8097158456477732 0.9082135693319837 0.819433653340081
0.745861297207447 0.9043126988031915 0.9328710505319149
0.6907375312500003 0.8783687276785714 0.9558836428571429
-6.0 -6.0 -6.0
-6.0 -6.0 -6.0
0.8658319677033492 0.878892639354067 0.05065896291866037
0.8426034480932202 0.887862131885593 0.2774904110169492
0.7147447733050848 0.8797218463983051 0.4755785042372882
0.7319694283498758 0.9115121498138957 0.6846163843052109
0.7650348670886076 0.9412494351265823 0.8395930537974684
0.7466354614978904 0.9492717157172996 0.9314420137130802
0.6428113724747473 0.9373819204545455 0.9656015467171717
-6.0 -6.0 -6.0
-6.0 -6.0 -6.0
-6.0 -6.0 -6.0
-6.0 -6.0 -6.0
-6.0 -6.0 -6.0
-6.0 -6.0 -6.0
-6.0 -6.0 -6.0
-6.0 -6.0 -6.0
-6.0 -6.0 -6.0
-6.0 -6.0 -6.0
-6.0 -6.0 -6.0
-6.0 -6.0 -6.0
-6.0 -6.0 -6.0
-6.0 -6.0 -6.0
0.688754824137931 0.0 0.4369625724137931
0.6953019672413793 0.0 0.5380381017241379
-6.0 -6.0 -6.0
-6.0 -6.0 -6.0
-6.0 -6.0 -6.0
-6.0 -6.0 -6.0
0.6948152532722514 0.09109057526178008 0.04906109293193717
0.7071200624999999 0.0541635669642857 0.09421901785714287
0.7234015085616438 0.07154570490867578 0.2880368601598173
0.7379065625 0.059225770833333316 0.4446837916666666
0.7480641610576924 0.04131758413461538 0.6006591556490384
0.7472892233796297 0.015364103009259243 0.6844441197916666
0.6460854503348215 0.02783490401785713 0.7240297092633929
-6.0 -6.0 -6.0
-6.0 -6.0 -6.0
0.7701865854271357 0.2348801526381909 0.03694029271356783
0.7577683653846154 0.13795359615384614 0.08075242307692305
0.7670915949367089 0.16314645675105485 0.3121060875527426
0.7848434288194445 0.16834236631944444 0.4831721440972222
0.7791193028846153 0.1280878317307692 0.6371750637019231
0.797627295673077 0.1191494903846154 0.7418728365384617
0.7761044741847827 0.14671686594202896 0.7854081938405797
-6.0 -6.0 -6.0
-6.0 -6.0 -6.0
0.850563166273585 0.39829826768867926 0.023750058962264124
0.828296714527027 0.3124004425675676 0.061666540540540535
0.8341054057377049 0.3261392766393443 0.2890259293032787
0.8360629647651007 0.3467608154362417 0.5359318036912751
0.8313997768456375 0.35087016442953023 0.6878722567114093
0.8385469435483872 0.35512480913978495 0.8063533709677418
0.842483909375 0.37195816249999997 0.8471282390624999
-6.0 -6.0 -6.0
-6.0 -6.0 -6.0
0.920170045148248 0.5457096290431267 0.011593906334231782
0.9149237791970803 0.5662617810218977 0.09839082390510949
0.9036367410949868 0.5640796830474935 0.29759130903693937
0.8925912520661157 0.5866828574380165 0.586979061983471
0.8922872327089337 0.6237595623198848 0.7636200230547551
0.9022127657480314 0.6208644980314961 0.8534922322834646
0.8866234564606742 0.6168628764044943 0.9073766306179775
-6.0 -6.0 -6.0
-6.0 -6.0 -6.0
0.9627257631578947 0.7267971249999999 0.0
0.9841354036885245 0.8006470163934426 0.1658338893442623
0.9508344606741573 0.7896498876404495 0.3355106994382023
0.949473979338843 0.8204594256198346 0.6178776301652893
0.945855325 0.8591403750000001 0.8201318875
0.9403369901574803 0.8494997199803151 0.9191415423228347
0.9217840994680851 0.8294882925531915 0.9540139175531915
-6.0 -6.0 -6.0
-6.0 -6.0 -6.0
0.9917076249999999 0.8673396287878787 0.0
0.9870299923076923 0.8771614576923077 0.005839576923076921
0.9803888773584905 0.8917462641509434 0.3524160825471699
0.9654127877906977 0.9174463750000001 0.6618977994186048
0.9510636871301774 0.9208838039940828 0.8475726982248522
0.9190207263083452 0.9336922478783594 0.9367785887553042
0.9214079200980392 0.9173552965686276 0.9695596703431373
-6.0 -6.0 -6.0
-6.0 -6.0 -6.0
0.9769109165019763 0.9108520666996047 0.10771708992094861
0.9766401012845851 0.919234604743083 0.2874931986166008
0.9545800863347458 0.9236334764300848 0.47064248728813574
0.9644684826203209 0.955496965909091 0.701636125
0.9173188510147602 0.9636043131918819 0.869403823800738
0.914824813649222 0.9725727650282885 0.9252948921499292
0.9197511663719944 0.9809967910183875 0.973067742397454
-6.0 -6.0 -6.0
-6.0 -6.0 -6.0
-6.0 -6.0 -6.0
-6.0 -6.0 -6.0
-6.0 -6.0 -6.0
-6.0 -6.0 -6.0
-6.0 -6.0 -6.0
-6.0 -6.0 -6.0
-6.0 -6.0 -6.0
-6.0 -6.0 -6.0
-6.0 -6.0 -6.0
-6.0 -6.0 -6.0
-6.0 -6.0 -6.0
-6.0 -6.0 -6.0
-6.0 -6.0 -6.0
-6.0 -6.0 -6.0
-6.0 -6.0 -6.0
-6.0 -6.0 -6.0
-6.0 -6.0 -6.0
-6.0 -6.0 -6.0
-6.0 -6.0 -6.0
-6.0 -6.0 -6.0
-6.0 -6.0 -6.0
-6.0 -6.0 -6.0
0.7861327102272727 0.045418943181818196 0.526497875
0.8006444389204546 0.05037103551136366 0.6869107343749999
0.7773223437500001 0.030961874999999986 0.74590784375
-6.0 -6.0 -6.0
-6.0 -6.0 -6.0
-6.0 -6.0 -6.0
-6.0 -6.0 -6.0
-6.0 -6.0 -6.0
0.8232629687499999 0.15259851488095236 0.4060846815476189
0.82725118828125 0.14534797890624993 0.60343637578125
0.83844453125 0.1631740710227272 0.7477584389204546
0.8444151849315068 0.18177705479452053 0.7972449863013698
-6.0 -6.0 -6.0
-6.0 -6.0 -6.0
-6.0 -6.0 -6.0
-6.0 -6.0 -6.0
-6.0 -6.0 -6.0
0.8739145025 0.35064535999999996 0.49055903499999987
0.8788199062500001 0.36112796875000003 0.7000099687499999
0.8811397352941177 0.3695967911764706 0.8072121088235292
0.8876907205882354 0.40670228235294126 0.8510378801470588
-6.0 -6.0 -6.0
-6.0 -6.0 -6.0
-6.0 -6.0 -6.0
-6.0 -6.0 -6.0
0.8947613401785715 0.4695033071428573 0.34026203392857135
0.9173723656249999 0.5411313687500001 0.5565716125
0.93865209375 0.6134525887096773 0.766543191532258
0.9256202291666666 0.6036646979166667 0.8613679114583332
0.9280586749999999 0.6186405333333335 0.9018086125
-6.0 -6.0 -6.0
-6.0 -6.0 -6.0
-6.0 -6.0 -6.0
-6.0 -6.0 -6.0
0.9380860317567568 0.6481886959459461 0.386817654054054
0.957204323214286 0.7223572035714287 0.6272590857142857
0.97202334375 0.7980422802419356 0.8064727258064515
0.9690667916666666 0.8214350863095239 0.9071647663690476
0.9555507 0.7719449666666667 0.9393285125
-6.0 -6.0 -6.0
-6.0 -6.0 -6.0
-6.0 -6.0 -6.0
0.9651000875 0.7703435375000003 0.21871321666666685
0.9872262063419117 0.8374403092830882 0.4023446176470588
0.994616541262136 0.8954001262135924 0.6614784514563108
0.9946696346153847 0.9406928076923077 0.835604423076923
0.9910549372605364 0.950866113505747 0.9360968994252874
0.983042725 0.9252494000000001 0.9768484125
-6.0 -6.0 -6.0
-6.0 -6.0 -6.0
-6.0 -6.0 -6.0
0.9999370833333334 0.9205927500000001 0.26959984722222224
0.9997887797619047 0.9312299464285714 0.4539745138888889
0.9968054859022555 0.9533517800751878 0.6962600516917292
0.9931652377049182 0.9685535133196721 0.8386064723360656
0.9928245532786886 0.9813869631147542 0.9297738073770493
0.9877950639158576 0.9859249235436892 0.9879766322815533
-6.0 -6.0 -6.0
-6.0 -6.0 -6.0
-6.0 -6.0 -6.0
-6.0 -6.0 -6.0
-6.0 -6.0 -6.0
-6.0 -6.0 -6.0
-6.0 -6.0 -6.0
-6.0 -6.0 -6.0
-6.0 -6.0 -6.0
-6.0 -6.0 -6.0
-6.0 -6.0 -6.0
-6.0 -6.0 -6.0
-6.0 -6.0 -6.0
-6.0 -6.0 -6.0
-6.0 -6.0 -6.0
-6.0 -6.0 -6.0
-6.0 -6.0 -6.0
-6.0 -6.0 -6.0
-6.0 -6.0 -6.0
-6.0 -6.0 -6.0
-6.0 -6.0 -6.0
-6.0 -6.0 -6.0
-6.0 -6.0 -6.0
-6.0 -6.0 -6.0
-6.0 -6.0 -6.0
-6.0 -6.0 -6.0
-6.0 -6.0 -6.0
-6.0 -6.0 -6.0
-6.0 -6.0 -6.0
-6.0 -6.0 -6.0
-6.0 -6.0 -6.0
-6.0 -6.0 -6.0
-6.0 -6.0 -6.0
-6.0 -6.0 -6.0
-6.0 -6.0 -6.0
-6.0 -6.0 -6.0
-6.0 -6.0 -6.0
-6.0 -6.0 -6.0
-6.0 -6.0 -6.0
-6.0 -6.0 -6.0
-6.0 -6.0 -6.0
-6.0 -6.0 -6.0
-6.0 -6.0 -6.0
-6.0 -6.0 -6.0
-6.0 -6.0 -6.0
-6.0 -6.0 -6.0
-6.0 -6.0 -6.0
-6.0 -6.0 -6.0
-6.0 -6.0 -6.0
-6.0 -6.0 -6.0
-6.0 -6.0 -6.0
-6.0 -6.0 -6.0
-6.0 -6.0 -6.0
-6.0 -6.0 -6.0
-6.0 -6.0 -6.0
-6.0 -6.0 -6.0
-6.0 -6.0 -6.0
-6.0 -6.0 -6.0
-6.0 -6.0 -6.0
-6.0 -6.0 -6.0
-6.0 -6.0 -6.0
-6.0 -6.0 -6.0
-6.0 -6.0 -6.0
-6.0 -6.0 -6.0
-6.0 -6.0 -6.0
-6.0 -6.0 -6.0
-6.0 -6.0 -6.0
-6.0 -6.0 -6.0
-6.0 -6.0 -6.0
-6.0 -6.0 -6.0
-6.0 -6.0 -6.0
-6.0 -6.0 -6.0
-6.0 -6.0 -6.0
-6.0 -6.0 -6.0
-6.0 -6.0 -6.0
-6.0 -6.0 -6.0
-6.0 -6.0 -6.0
-6.0 -6.0 -6.0
-6.0 -6.0 -6.0
-6.0 -6.0 -6.0
-6.0 -6.0 -6.0
-6.0 -6.0 -6.0
-6.0 -6.0 -6.0
-6.0 -6.0 -6.0
-6.0 -6.0 -6.0
-6.0 -6.0 -6.0
-6.0 -6.0 -6.0
-6.0 -6.0 -6.0
-6.0 -6.0 -6.0
-6.0 -6.0 -6.0
-6.0 -6.0 -6.0
