LUTs/kodak2.cube
# Loaded 129 keypoints.
LUT_3D_SIZE 9
0.0000 0.8674 1.0000
0.0000 0.8599 1.0000
0.0000 0.8523 1.0000
0.0000 0.8447 1.0000
0.0000 0.8371 1.0000
0.0000 0.8296 1.0000
0.0000 0.8220 1.0000
0.0000 0.8144 1.0000
0.0000 0.8068 1.0000
0.0000 0.8816 1.0000
0.0000 0.8740 1.0000
0.0000 0.8664 1.0000
0.0000 0.8589 1.0000
0.0000 0.8513 1.0000
0.0000 0.8437 1.0000
0.0000 0.8361 1.0000
0.0000 0.8286 1.0000
0.0000 0.8210 1.0000
0.0000 0.8957 1.0000
0.0000 0.8882 1.0000
0.0000 0.8806 1.0000
0.0000 0.8730 1.0000
0.0000 0.8654 1.0000
0.0000 0.8579 1.0000
0.0000 0.8503 1.0000
0.0000 0.8427 1.0000
0.0000 0.8351 1.0000
0.0000 0.9099 1.0000
0.0000 0.9023 1.0000
0.0000 0.8947 1.0000
0.0000 0.8872 1.0000
0.0000 0.8796 1.0000
0.0000 0.8720 1.0000
0.0000 0.8644 1.0000
0.0000 0.8569 1.0000
0.0000 0.8493 1.0000
0.0000 0.9240 1.0000
0.0000 0.9165 1.0000
0.0000 0.9089 1.0000
0.0000 0.9013 1.0000
0.0000 0.8937 1.0000
0.0000 0.8862 1.0000
0.0000 0.8786 1.0000
0.0000 0.8710 1.0000
0.0000 0.8634 1.0000
0.0000 0.9382 1.0000
0.0000 0.9306 1.0000
0.0000 0.9230 1.0000
0.0000 0.9155 1.0000
0.0000 0.9079 1.0000
0.0000 0.9003 1.0000
0.0000 0.8927 1.0000
0.0000 0.8852 1.0000
0.0000 0.8776 1.0000
0.0000 0.9523 1.0000
0.0000 0.9448 1.0000
0.0000 0.9372 1.0000
0.0000 0.9296 1.0000
0.0000 0.9220 1.0000
0.0000 0.9145 1.0000
0.0000 0.9069 1.0000
0.0000 0.8993 1.0000
0.0000 0.8917 1.0000
0.0000 0.9665 1.0000
0.0000 0.9589 1.0000
0.0000 0.9513 1.0000
0.0000 0.9438 1.0000
0.0000 0.9362 1.0000
0.0000 0.9286 1.0000
0.0000 0.9210 1.0000
0.0000 0.9135 1.0000
0.0000 0.9059 1.0000
0.0000 0.9806 1.0000
0.0000 0.9731 1.0000
0.0000 0.9655 1.0000
0.0000 0.9579 1.0000
0.0000 0.9503 1.0000
0.0000 0.9428 1.0000
0.0000 0.9352 1.0000
0.0000 0.9276 1.0000
0.0000 0.9200 1.0000
0.0000 0.8591 1.0000
0.0000 0.8515 1.0000
0.0000 0.8439 1.0000
0.0000 0.8363 1.0000
0.0000 0.8288 1.0000
0.0000 0.8212 1.0000
0.0000 0.8136 1.0000
0.0000 0.8060 1.0000
0.0000 0.7985 1.0000
0.0000 0.8732 1.0000
0.0565 0.0478 0.0331
0.1201 0.0386 0.0224
0.2174 0.0186 0.0048
0.3391 0.0169 0.0039
0.4553 0.0287 0.0031
0.5495 0.0329 0.0000
0.0000 0.8202 1.0000
0.0000 0.8126 1.0000
0.0520 0.0962 0.0162
0.0759 0.0933 0.0319
0.1437 0.1139 0.0164
0.2539 0.0848 0.0019
0.4029 0.0642 0.0013
0.5115 0.0802 0.0000
0.5891 0.1092 0.0000
0.6664 0.1538 0.0159
0.0000 0.8268 1.0000
0.0000 0.9015 1.0000
0.0998 0.2043 0.0222
0.1685 0.2109 0.0092
0.3085 0.2090 0.0000
0.4756 0.2248 0.0000
0.6066 0.2386 0.0000
0.6629 0.2375 0.0000
0.7191 0.2366 0.0000
0.0000 0.8409 1.0000
0.0000 0.9157 1.0000
0.0846 0.3373 0.0155
0.1877 0.3575 0.0023
0.3474 0.3841 0.0000
0.5345 0.4152 0.0000
0.6911 0.4317 0.0000
0.7564 0.4420 0.0000
0.8020 0.4467 0.0000
0.0000 0.8551 1.0000
0.0000 0.9298 1.0000
0.0747 0.4501 0.0000
0.2028 0.4709 0.0000
0.3833 0.5046 0.0000
0.5715 0.5362 0.0000
0.7470 0.5650 0.0000
0.8270 0.5739 0.0000
0.8482 0.5600 0.0000
0.0000 0.8692 1.0000
0.0000 0.9440 1.0000
0.0548 0.5116 0.0000
0.2346 0.5504 0.0000
0.4328 0.5819 0.0000
0.5862 0.6070 0.0000
0.7276 0.6285 0.0000
0.8474 0.6418 0.0000
0.8742 0.6316 0.0000
0.0000 0.8834 1.0000
0.0000 0.9581 1.0000
0.0000 0.9505 1.0000
0.2374 0.5804 0.0000
0.0000 0.9354 1.0000
0.0000 0.9278 1.0000
0.0000 0.9202 1.0000
0.0000 0.9127 1.0000
0.0000 0.9051 1.0000
0.0000 0.8975 1.0000
0.0000 0.9723 1.0000
0.0000 0.9647 1.0000
0.0000 0.9571 1.0000
0.0000 0.9495 1.0000
0.0000 0.9420 1.0000
0.0000 0.9344 1.0000
0.0000 0.9268 1.0000
0.0000 0.9192 1.0000
0.0000 0.9117 1.0000
0.0000 0.8507 1.0000
0.0000 0.8431 1.0000
0.0000 0.8355 1.0000
0.0000 0.8279 1.0000
0.3593 0.0063 0.0326
0.0000 0.8128 1.0000
0.0000 0.8052 1.0000
0.0000 0.7976 1.0000
0.0000 0.7901 1.0000
0.0369 0.0559 0.1126
0.0596 0.0647 0.0959
0.1331 0.0542 0.1107
0.2372 0.0316 0.0950
0.3607 0.0152 0.0601
0.4856 0.0046 0.0241
0.5676 0.0001 0.0350
0.0000 0.8118 1.0000
0.0000 0.8042 1.0000
0.0281 0.1653 0.0887
0.0725 0.1171 0.0955
0.1406 0.1187 0.1195
0.2782 0.1303 0.0908
0.4278 0.1427 0.0446
0.5440 0.1110 0.0027
0.6372 0.1079 0.0137
0.6870 0.1138 0.1176
0.0000 0.8184 1.0000
0.0194 0.2747 0.0648
0.0813 0.2219 0.0889
0.1687 0.2409 0.1310
0.3422 0.2704 0.0874
0.5091 0.3004 0.0481
0.6238 0.2698 0.0013
0.7166 0.2668 0.0000
0.7584 0.2887 0.1473
0.0000 0.8325 1.0000
0.0107 0.3841 0.0409
0.0887 0.3660 0.0674
0.1896 0.3955 0.1006
0.3688 0.4318 0.1017
0.5634 0.4606 0.0476
0.6945 0.4658 0.0670
0.7910 0.4679 0.0632
0.8297 0.4732 0.0230
0.0000 0.8467 1.0000
0.0019 0.4935 0.0171
0.0970 0.5221 0.0615
0.2438 0.5539 0.0226
0.3969 0.5816 0.0000
0.6006 0.5982 0.0000
0.7482 0.6367 0.0672
0.8508 0.6452 0.0573
0.8784 0.6310 0.0000
0.0000 0.8608 1.0000
0.0000 0.9356 1.0000
0.1549 0.5877 0.0036
0.2833 0.6112 0.0000
0.4422 0.6397 0.0000
0.6466 0.6806 0.0000
0.7963 0.7054 0.0000
0.8750 0.7132 0.0000
0.9087 0.7246 0.0000
0.0000 0.8750 1.0000
0.0000 0.9497 1.0000
0.1389 0.6409 0.0864
0.3065 0.6565 0.0163
0.4937 0.6910 0.0000
0.6386 0.7114 0.0000
0.7435 0.7334 0.0940
0.0000 0.9043 1.0000
0.0000 0.8967 1.0000
0.0000 0.8891 1.0000
0.0000 0.9639 1.0000
0.0000 0.9563 1.0000
0.0000 0.9487 1.0000
0.0000 0.9411 1.0000
0.0000 0.9336 1.0000
0.0000 0.9260 1.0000
0.0000 0.9184 1.0000
0.0000 0.9108 1.0000
0.0000 0.9033 1.0000
0.0000 0.8423 1.0000
0.0695 0.0295 0.2273
0.1527 0.0190 0.2257
0.2418 0.0075 0.2185
0.3481 0.0000 0.2076
0.0000 0.8044 1.0000
0.0000 0.7968 1.0000
0.0000 0.7892 1.0000
0.0000 0.7817 1.0000
0.0203 0.0613 0.2627
0.0500 0.0882 0.2432
0.1301 0.0871 0.2365
0.2541 0.0544 0.2386
0.3841 0.0266 0.2332
0.5200 0.0000 0.2406
0.6014 0.0076 0.2419
0.6571 0.0206 0.2501
0.0000 0.7958 1.0000
0.0115 0.1707 0.2388
0.0584 0.1514 0.2732
0.1386 0.1512 0.2630
0.2961 0.1913 0.2630
0.4316 0.1903 0.2139
0.5803 0.1380 0.1757
0.6702 0.1148 0.2063
0.7264 0.2114 0.2831
0.0000 0.8100 1.0000
0.0028 0.2801 0.2149
0.0515 0.2635 0.2649
0.1807 0.2949 0.3050
0.3428 0.3445 0.3061
0.4824 0.3519 0.2651
0.6243 0.3147 0.1960
0.7423 0.3355 0.2139
0.7921 0.3490 0.3432
0.0000 0.8241 1.0000
0.0000 0.4012 0.2252
0.0299 0.4291 0.3117
0.1452 0.4692 0.3310
0.3754 0.5072 0.3534
0.5591 0.5343 0.3208
0.7026 0.5356 0.2782
0.8205 0.5433 0.2901
0.8532 0.5203 0.2330
0.0000 0.8383 1.0000
0.0000 0.5278 0.2515
0.0501 0.5866 0.3112
0.1935 0.6173 0.2824
0.4053 0.6565 0.2665
0.6230 0.6982 0.2376
0.7702 0.7142 0.3083
0.8749 0.7105 0.2994
0.9039 0.6856 0.1408
0.0000 0.8524 1.0000
0.0000 0.6545 0.2761
0.1412 0.6895 0.2775
0.2934 0.7004 0.2471
0.4478 0.7127 0.2148
0.6412 0.7660 0.1620
0.8056 0.7811 0.1411
0.8886 0.7862 0.1873
0.9298 0.8001 0.0618
0.0000 0.8666 1.0000
0.0000 0.9413 1.0000
0.1244 0.7393 0.3505
0.3242 0.7526 0.2234
0.4932 0.7692 0.1655
0.6630 0.7942 0.1644
0.8126 0.8132 0.2292
0.9065 0.8328 0.3057
0.0000 0.8883 1.0000
0.0000 0.8807 1.0000
0.0000 0.9555 1.0000
0.0000 0.9479 1.0000
0.0000 0.9403 1.0000
0.0000 0.9327 1.0000
0.0000 0.9252 1.0000
0.0000 0.9176 1.0000
0.0000 0.9100 1.0000
0.0000 0.9024 1.0000
0.0000 0.8949 1.0000
0.0000 0.8339 1.0000
0.0662 0.0153 0.3824
0.1271 0.0082 0.4018
0.2256 0.0000 0.3946
0.3642 0.0000 0.3768
0.5028 0.0000 0.3590
0.0000 0.7884 1.0000
0.0000 0.7809 1.0000
0.0000 0.7733 1.0000
0.0037 0.0666 0.4127
0.0238 0.0590 0.4199
0.1048 0.0679 0.4248
0.2428 0.0375 0.4309
0.4267 0.0112 0.4639
0.5425 0.0086 0.4706
0.6353 0.0270 0.4806
0.6803 0.0216 0.3836
0.0000 0.7874 1.0000
0.0000 0.1860 0.4180
0.0339 0.1514 0.4535
0.1021 0.1171 0.4510
0.3017 0.1657 0.4789
0.4635 0.1594 0.4551
0.6058 0.1489 0.4507
0.6916 0.1231 0.4871
0.7534 0.1532 0.5181
0.0000 0.8016 1.0000
0.0000 0.3143 0.4119
0.0362 0.3228 0.4956
0.1271 0.3119 0.5405
0.3466 0.3527 0.5365
0.5003 0.3398 0.5018
0.6595 0.3264 0.4650
0.7637 0.3489 0.5009
0.8250 0.3833 0.5381
0.0000 0.8157 1.0000
0.0000 0.8905 1.0000
0.0284 0.5023 0.5601
0.1082 0.5542 0.6219
0.3633 0.5706 0.6050
0.5702 0.5690 0.5529
0.7222 0.5744 0.5355
0.8311 0.6010 0.5512
0.8899 0.6083 0.5416
0.0000 0.8299 1.0000
0.0000 0.9046 1.0000
0.0000 0.6545 0.6109
0.1782 0.6824 0.6162
0.3760 0.7268 0.6015
0.6211 0.7779 0.5883
0.7799 0.7878 0.5776
0.8940 0.7806 0.5556
0.9252 0.7445 0.4481
0.0000 0.8440 1.0000
0.0000 0.9188 1.0000
0.0076 0.7523 0.6012
0.2647 0.7837 0.6102
0.4383 0.8018 0.5812
0.6293 0.8402 0.5566
0.8162 0.8564 0.5537
0.9174 0.8567 0.5433
0.9420 0.8389 0.3611
0.0000 0.8582 1.0000
0.0000 0.9329 1.0000
0.1028 0.8346 0.6674
0.2824 0.8440 0.6028
0.4805 0.8358 0.4749
0.6623 0.8669 0.4988
0.8184 0.8967 0.5316
0.9278 0.9096 0.4919
0.0000 0.8799 1.0000
0.0000 0.8723 1.0000
0.0000 0.9471 1.0000
0.0000 0.9395 1.0000
0.0000 0.9319 1.0000
0.0000 0.9244 1.0000
0.0000 0.9168 1.0000
0.0000 0.9092 1.0000
0.0000 0.9016 1.0000
0.0000 0.8941 1.0000
0.0000 0.8865 1.0000
0.0000 0.8255 1.0000
0.0628 0.0011 0.5376
0.1578 0.0000 0.5461
0.2589 0.0000 0.5526
0.3803 0.0000 0.5460
0.5188 0.0000 0.5282
0.0000 0.7800 1.0000
0.0000 0.7725 1.0000
0.0000 0.7649 1.0000
0.0000 0.1025 0.5371
0.0197 0.0266 0.5934
0.0692 0.0304 0.5997
0.2616 0.0434 0.6096
0.4436 0.0558 0.6281
0.5791 0.0342 0.6337
0.6658 0.0171 0.6353
0.7022 0.0247 0.5148
0.0000 0.7790 1.0000
0.0000 0.8538 1.0000
0.0042 0.1636 0.6512
0.0746 0.0919 0.6430
0.2864 0.1439 0.6778
0.4914 0.1541 0.6894
0.6083 0.1012 0.6951
0.7148 0.0397 0.7003
0.7728 0.1388 0.6780
0.0000 0.7932 1.0000
0.0000 0.8679 1.0000
0.0150 0.3628 0.7127
0.0562 0.3224 0.7430
0.2948 0.3338 0.7550
0.5372 0.3407 0.7336
0.6830 0.3429 0.7369
0.7998 0.3545 0.7447
0.8440 0.3751 0.7365
0.0000 0.8073 1.0000
0.0000 0.8821 1.0000
0.0131 0.5501 0.7780
0.0100 0.5632 0.8299
0.2984 0.5686 0.7950
0.5856 0.5753 0.7679
0.7517 0.5980 0.7657
0.8616 0.6137 0.7691
0.9117 0.6444 0.7846
0.0000 0.8215 1.0000
0.0000 0.8962 1.0000
0.0000 0.7515 0.8889
0.0134 0.7511 0.8787
0.3373 0.7563 0.8539
0.6294 0.8071 0.8084
0.8141 0.8400 0.7927
0.9126 0.8340 0.7746
0.9383 0.7824 0.7711
0.0000 0.8356 1.0000
0.0000 0.9104 1.0000
0.0026 0.8317 0.8935
0.0407 0.8467 0.8862
0.3831 0.8799 0.8836
0.6335 0.8957 0.8392
0.8194 0.9082 0.8097
0.9329 0.9043 0.7459
0.9559 0.8784 0.6907
0.0000 0.8498 1.0000
0.0000 0.9245 1.0000
0.0507 0.8789 0.8658
0.2775 0.8879 0.8426
0.4756 0.8797 0.7147
0.6846 0.9115 0.7320
0.8396 0.9412 0.7650
0.9314 0.9493 0.7466
0.9656 0.9374 0.6428
0.0000 0.8639 1.0000
0.0000 0.9387 1.0000
0.0000 0.9311 1.0000
0.0000 0.9235 1.0000
0.0000 0.9160 1.0000
0.0000 0.9084 1.0000
0.0000 0.9008 1.0000
0.0000 0.8932 1.0000
0.0000 0.8857 1.0000
0.0000 0.8781 1.0000
0.0000 0.8171 1.0000
0.0000 0.8095 1.0000
0.0000 0.8019 1.0000
0.0000 0.7944 1.0000
0.4370 0.0000 0.6888
0.5380 0.0000 0.6953
0.0000 0.7716 1.0000
0.0000 0.7641 1.0000
0.0000 0.7565 1.0000
0.0000 0.8312 1.0000
0.0491 0.0911 0.6948
0.0942 0.0542 0.7071
0.2880 0.0715 0.7234
0.4447 0.0592 0.7379
0.6007 0.0413 0.7481
0.6844 0.0154 0.7473
0.7240 0.0278 0.6461
0.0000 0.7706 1.0000
0.0000 0.8454 1.0000
0.0369 0.2349 0.7702
0.0808 0.1380 0.7578
0.3121 0.1631 0.7671
0.4832 0.1683 0.7848
0.6372 0.1281 0.7791
0.7419 0.1191 0.7976
0.7854 0.1467 0.7761
0.0000 0.7848 1.0000
0.0000 0.8595 1.0000
0.0238 0.3983 0.8506
0.0617 0.3124 0.8283
0.2890 0.3261 0.8341
0.5359 0.3468 0.8361
0.6879 0.3509 0.8314
0.8064 0.3551 0.8385
0.8471 0.3720 0.8425
0.0000 0.7989 1.0000
0.0000 0.8737 1.0000
0.0116 0.5457 0.9202
0.0984 0.5663 0.9149
0.2976 0.5641 0.9036
0.5870 0.5867 0.8926
0.7636 0.6238 0.8923
0.8535 0.6209 0.9022
0.9074 0.6169 0.8866
0.0000 0.8131 1.0000
0.0000 0.8878 1.0000
0.0000 0.7268 0.9627
0.1658 0.8006 0.9841
0.3355 0.7896 0.9508
0.6179 0.8205 0.9495
0.8201 0.8591 0.9459
0.9191 0.8495 0.9403
0.9540 0.8295 0.9218
0.0000 0.8272 1.0000
0.0000 0.9020 1.0000
0.0000 0.8673 0.9917
0.0058 0.8772 0.9870
0.3524 0.8917 0.9804
0.6619 0.9174 0.9654
0.8476 0.9209 0.9511
0.9368 0.9337 0.9190
0.9696 0.9174 0.9214
0.0000 0.8414 1.0000
0.0000 0.9161 1.0000
0.1077 0.9109 0.9769
0.2875 0.9192 0.9766
0.4706 0.9236 0.9546
0.7016 0.9555 0.9645
0.8694 0.9636 0.9173
0.9253 0.9726 0.9148
0.9731 0.9810 0.9198
0.0000 0.8555 1.0000
0.0000 0.9303 1.0000
0.0000 0.9227 1.0000
0.0000 0.9151 1.0000
0.0000 0.9076 1.0000
0.0000 0.9000 1.0000
0.0000 0.8924 1.0000
0.0000 0.8848 1.0000
0.0000 0.8773 1.0000
0.0000 0.8697 1.0000
0.0000 0.8087 1.0000
0.0000 0.8011 1.0000
0.0000 0.7936 1.0000
0.0000 0.7860 1.0000
0.0000 0.7784 1.0000
0.0000 0.7708 1.0000
0.0000 0.7633 1.0000
0.0000 0.7557 1.0000
0.0000 0.7481 1.0000
0.0000 0.8229 1.0000
0.0000 0.8153 1.0000
0.0000 0.8077 1.0000
0.0000 0.8001 1.0000
0.0000 0.7926 1.0000
0.5265 0.0454 0.7861
0.6869 0.0504 0.8006
0.7459 0.0310 0.7773
0.0000 0.7623 1.0000
0.0000 0.8370 1.0000
0.0000 0.8294 1.0000
0.0000 0.8219 1.0000
0.0000 0.8143 1.0000
0.4061 0.1526 0.8233
0.6034 0.1453 0.8273
0.7478 0.1632 0.8384
0.7972 0.1818 0.8444
0.0000 0.7764 1.0000
0.0000 0.8512 1.0000
0.0000 0.8436 1.0000
0.0000 0.8360 1.0000
0.0000 0.8284 1.0000
0.4906 0.3506 0.8739
0.7000 0.3611 0.8788
0.8072 0.3696 0.8811
0.8510 0.4067 0.8877
0.0000 0.7906 1.0000
0.0000 0.8653 1.0000
0.0000 0.8577 1.0000
0.0000 0.8502 1.0000
0.3403 0.4695 0.8948
0.5566 0.5411 0.9174
0.7665 0.6135 0.9387
0.8614 0.6037 0.9256
0.9018 0.6186 0.9281
0.0000 0.8047 1.0000
0.0000 0.8795 1.0000
0.0000 0.8719 1.0000
0.0000 0.8643 1.0000
0.3868 0.6482 0.9381
0.6273 0.7224 0.9572
0.8065 0.7980 0.9720
0.9072 0.8214 0.9691
0.9393 0.7719 0.9556
0.0000 0.8188 1.0000
0.0000 0.8936 1.0000
0.0000 0.8860 1.0000
0.2187 0.7703 0.9651
0.4023 0.8374 0.9872
0.6615 0.8954 0.9946
0.8356 0.9407 0.9947
0.9361 0.9509 0.9911
0.9768 0.9252 0.9830
0.0000 0.8330 1.0000
0.0000 0.9078 1.0000
0.0000 0.9002 1.0000
0.2696 0.9206 0.9999
0.4540 0.9312 0.9998
0.6963 0.9534 0.9968
0.8386 0.9686 0.9932
0.9298 0.9814 0.9928
0.9880 0.9859 0.9878
0.0000 0.8471 1.0000
0.0000 0.9219 1.0000
0.0000 0.9143 1.0000
0.0000 0.9068 1.0000
0.0000 0.8992 1.0000
0.0000 0.8916 1.0000
0.0000 0.8840 1.0000
0.0000 0.8764 1.0000
0.0000 0.8689 1.0000
0.0000 0.8613 1.0000
0.0000 0.8003 1.0000
0.0000 0.7927 1.0000
0.0000 0.7852 1.0000
0.0000 0.7776 1.0000
0.0000 0.7700 1.0000
0.0000 0.7624 1.0000
0.0000 0.7549 1.0000
0.0000 0.7473 1.0000
0.0000 0.7397 1.0000
0.0000 0.8145 1.0000
0.0000 0.8069 1.0000
0.0000 0.7993 1.0000
0.0000 0.7917 1.0000
0.0000 0.7842 1.0000
0.0000 0.7766 1.0000
0.0000 0.7690 1.0000
0.0000 0.7614 1.0000
0.0000 0.7539 1.0000
0.0000 0.8286 1.0000
0.0000 0.8210 1.0000
0.0000 0.8135 1.0000
0.0000 0.8059 1.0000
0.0000 0.7983 1.0000
0.0000 0.7907 1.0000
0.0000 0.7832 1.0000
0.0000 0.7756 1.0000
0.0000 0.7680 1.0000
0.0000 0.8428 1.0000
0.0000 0.8352 1.0000
0.0000 0.8276 1.0000
0.0000 0.8200 1.0000
0.0000 0.8125 1.0000
0.0000 0.8049 1.0000
0.0000 0.7973 1.0000
0.0000 0.7897 1.0000
0.0000 0.7822 1.0000
0.0000 0.8569 1.0000
0.0000 0.8493 1.0000
0.0000 0.8418 1.0000
0.0000 0.8342 1.0000
0.0000 0.8266 1.0000
0.0000 0.8190 1.0000
0.0000 0.8115 1.0000
0.0000 0.8039 1.0000
0.0000 0.7963 1.0000
0.0000 0.8711 1.0000
0.0000 0.8635 1.0000
0.0000 0.8559 1.0000
0.0000 0.8483 1.0000
0.0000 0.8408 1.0000
0.0000 0.8332 1.0000
0.0000 0.8256 1.0000
0.0000 0.8180 1.0000
0.0000 0.8105 1.0000
0.0000 0.8852 1.0000
0.0000 0.8776 1.0000
0.0000 0.8701 1.0000
0.0000 0.8625 1.0000
0.0000 0.8549 1.0000
0.0000 0.8473 1.0000
0.0000 0.8398 1.0000
0.0000 0.8322 1.0000
0.0000 0.8246 1.0000
0.0000 0.8994 1.0000
0.0000 0.8918 1.0000
0.0000 0.8842 1.0000
0.0000 0.8766 1.0000
0.0000 0.8691 1.0000
0.0000 0.8615 1.0000
0.0000 0.8539 1.0000
0.0000 0.8463 1.0000
0.0000 0.8388 1.0000
0.0000 0.9135 1.0000
0.0000 0.9059 1.0000
0.0000 0.8984 1.0000
0.0000 0.8908 1.0000
0.0000 0.8832 1.0000
0.0000 0.8756 1.0000
0.0000 0.8681 1.0000
0.0000 0.8605 1.0000
0.0000 0.8529 1.0000
