LUTs/kodak.cube
# Loaded 129 keypoints.
LUT_3D_SIZE 17
0.3453 -0.2820 -0.2555
0.3643 -0.2830 -0.2794
0.3833 -0.2840 -0.3032
0.4023 -0.2850 -0.3271
0.4213 -0.2860 -0.3509
0.4403 -0.2870 -0.3747
0.4593 -0.2881 -0.3986
0.4783 -0.2891 -0.4224
0.4973 -0.2901 -0.4463
0.5163 -0.2911 -0.4701
0.5353 -0.2921 -0.4940
0.5543 -0.2932 -0.5178
0.5732 -0.2942 -0.5416
0.5922 -0.2952 -0.5655
0.6112 -0.2962 -0.5893
0.6302 -0.2972 -0.6132
0.6492 -0.2983 -0.6370
0.3396 -0.1846 -0.2089
0.3586 -0.1857 -0.2328
0.3776 -0.1867 -0.2566
0.3966 -0.1877 -0.2805
0.4156 -0.1887 -0.3043
0.1484 0.0529 0.0000
0.2084 0.0307 0.0000
0.4726 -0.1918 -0.3758
0.4916 -0.1928 -0.3997
0.5106 -0.1938 -0.4235
0.5296 -0.1948 -0.4474
0.5486 -0.1959 -0.4712
0.5675 -0.1969 -0.4950
0.5865 -0.1979 -0.5189
0.6055 -0.1989 -0.5427
0.6245 -0.1999 -0.5666
0.6435 -0.2009 -0.5904
0.3339 -0.0873 -0.1624
0.3529 -0.0884 -0.1862
0.3719 -0.0894 -0.2100
0.3909 -0.0904 -0.2339
0.4099 -0.0914 -0.2577
0.1719 0.0955 0.0000
0.2331 0.0855 0.0000
0.2931 0.0633 0.0000
0.3530 0.0411 0.0000
0.4130 0.0188 0.0000
0.5239 -0.0975 -0.4008
0.5429 -0.0985 -0.4246
0.5619 -0.0996 -0.4485
0.5808 -0.1006 -0.4723
0.5998 -0.1016 -0.4961
0.6188 -0.1026 -0.5200
0.6378 -0.1036 -0.5438
0.3282 0.0100 -0.1158
0.3472 0.0089 -0.1396
0.3662 0.0079 -0.1634
0.3852 0.0069 -0.1873
0.1299 0.1054 0.0000
0.1953 0.1369 0.0000
0.2579 0.1403 0.0000
0.3178 0.1181 0.0000
0.3778 0.0959 0.0000
0.4377 0.0736 0.0000
0.5055 0.0685 0.0000
0.5438 0.0447 0.0000
0.5562 -0.0023 -0.4019
0.5751 -0.0033 -0.4257
0.5941 -0.0043 -0.4496
0.6131 -0.0053 -0.4734
0.6321 -0.0063 -0.4972
0.3225 0.1073 -0.0692
0.3415 0.1063 -0.0930
0.3605 0.1052 -0.1169
0.3795 0.1042 -0.1407
0.1533 0.1468 0.0000
0.2187 0.1783 0.0000
0.2826 0.1952 0.0000
0.3426 0.1729 0.0000
0.4026 0.1507 0.0000
0.4665 0.1351 0.0000
0.5423 0.1388 0.0000
0.5821 0.1161 0.0000
0.5505 0.0950 -0.3553
0.5694 0.0940 -0.3791
0.5884 0.0930 -0.4030
0.6074 0.0920 -0.4268
0.6264 0.0910 -0.4506
0.3168 0.2046 -0.0226
0.3358 0.2036 -0.0464
0.3548 0.2025 -0.0703
0.1113 0.1566 0.0000
0.1767 0.1881 0.0000
0.2421 0.2197 0.0000
0.3074 0.2500 0.0000
0.3674 0.2278 0.0000
0.4273 0.2055 0.0000
0.4986 0.2019 0.0000
0.5743 0.2056 0.0000
0.6180 0.1885 0.0000
0.5448 0.1924 -0.3087
0.5638 0.1913 -0.3325
0.5827 0.1903 -0.3564
0.6017 0.1893 -0.3802
0.6207 0.1883 -0.4041
0.3111 0.3019 0.0240
0.3301 0.3009 0.0002
0.3491 0.2998 -0.0237
0.1347 0.1980 0.0000
0.2001 0.2295 0.0000
0.2655 0.2611 0.0000
0.3309 0.2926 0.0000
0.3921 0.2826 0.0000
0.4549 0.2649 0.0000
0.5306 0.2687 0.0000
0.6064 0.2724 0.0000
0.6536 0.2609 0.0000
0.5391 0.2897 -0.2621
0.5581 0.2886 -0.2859
0.5770 0.2876 -0.3098
0.5960 0.2866 -0.3336
0.6150 0.2856 -0.3575
0.3054 0.3992 0.0706
0.3244 0.3982 0.0468
0.3434 0.3972 0.0229
0.1380 0.2444 0.0000
0.2164 0.2727 0.0000
0.2889 0.3024 0.0000
0.3543 0.3340 0.0000
0.4169 0.3374 0.0000
0.4869 0.3318 0.0000
0.5627 0.3355 0.0000
0.6384 0.3392 0.0000
0.6892 0.3333 0.0000
0.5334 0.3870 -0.2155
0.5524 0.3859 -0.2393
0.5713 0.3849 -0.2632
0.5903 0.3839 -0.2870
0.6093 0.3829 -0.3109
0.2997 0.4965 0.1172
0.3187 0.4955 0.0933
0.3377 0.4945 0.0695
0.3567 0.4934 0.0457
0.2165 0.3199 0.0000
0.2948 0.3482 0.0000
0.3732 0.3765 0.0000
0.4432 0.3948 0.0000
0.5190 0.3986 0.0000
0.5939 0.4015 0.0000
0.6669 0.4022 0.0000
0.7249 0.4058 0.0000
0.7341 0.3934 0.0000
0.5467 0.4833 -0.1928
0.5657 0.4822 -0.2166
0.5846 0.4812 -0.2404
0.6036 0.4802 -0.2643
0.2940 0.5938 0.1638
0.3130 0.5928 0.1399
0.3320 0.5918 0.1161
0.3510 0.5907 0.0923
0.2167 0.3670 0.0000
0.2950 0.3953 0.0000
0.3733 0.4237 0.0000
0.4535 0.4377 0.0000
0.5307 0.4432 0.0000
0.6036 0.4439 0.0000
0.6766 0.4445 0.0000
0.7459 0.4500 0.0000
0.7697 0.4659 0.0000
0.5410 0.5806 -0.1462
0.5600 0.5795 -0.1700
0.5789 0.5785 -0.1939
0.5979 0.5775 -0.2177
0.2884 0.6911 0.2104
0.3073 0.6901 0.1865
0.3263 0.6891 0.1627
0.3453 0.6880 0.1388
0.2169 0.4142 0.0000
0.2952 0.4425 0.0000
0.3746 0.4620 0.0000
0.4554 0.4714 0.0000
0.5361 0.4808 0.0000
0.6133 0.4862 0.0000
0.6863 0.4869 0.0000
0.7592 0.4876 0.0000
0.8006 0.5291 0.0000
0.5353 0.6779 -0.0996
0.5543 0.6768 -0.1234
0.5732 0.6758 -0.1473
0.5922 0.6748 -0.1711
0.2827 0.7884 0.2570
0.3016 0.7874 0.2331
0.3206 0.7864 0.2093
0.3396 0.7854 0.1854
0.3586 0.7843 0.1616
0.2958 0.4862 0.0000
0.3765 0.4956 0.0000
0.4573 0.5050 0.0000
0.5380 0.5145 0.0000
0.6187 0.5239 0.0000
0.6959 0.5293 0.0000
0.7689 0.5300 0.0000
0.8165 0.5635 0.0000
0.5296 0.7752 -0.0530
0.5486 0.7741 -0.0768
0.5675 0.7731 -0.1007
0.5865 0.7721 -0.1245
0.2770 0.8857 0.3035
0.2959 0.8847 0.2797
0.3149 0.8837 0.2559
0.3339 0.8827 0.2320
0.3529 0.8816 0.2082
0.3719 0.8806 0.1843
0.3909 0.8796 0.1605
0.4592 0.5387 0.0000
0.5399 0.5481 0.0000
0.6206 0.5575 0.0000
0.7014 0.5669 0.0000
0.7786 0.5724 0.0000
0.8323 0.5978 0.0000
0.5239 0.8725 -0.0064
0.5429 0.8715 -0.0302
0.5619 0.8704 -0.0541
0.5808 0.8694 -0.0779
0.2713 0.9830 0.3501
0.2902 0.9820 0.3263
0.3092 0.9810 0.3025
0.3282 0.9800 0.2786
0.3472 0.9789 0.2548
0.3662 0.9779 0.2309
0.3852 0.9769 0.2071
0.4042 0.9759 0.1832
0.4232 0.9749 0.1594
0.4422 0.9739 0.1356
0.4612 0.9728 0.1117
0.4802 0.9718 0.0879
0.4992 0.9708 0.0640
0.5182 0.9698 0.0402
0.5372 0.9688 0.0163
0.5562 0.9677 -0.0075
0.5751 0.9667 -0.0313
0.2656 1.0803 0.3967
0.2846 1.0793 0.3729
0.3035 1.0783 0.3490
0.3225 1.0773 0.3252
0.3415 1.0763 0.3014
0.3605 1.0752 0.2775
0.3795 1.0742 0.2537
0.3985 1.0732 0.2298
0.4175 1.0722 0.2060
0.4365 1.0712 0.1821
0.4555 1.0701 0.1583
0.4745 1.0691 0.1345
0.4935 1.0681 0.1106
0.5125 1.0671 0.0868
0.5315 1.0661 0.0629
0.5505 1.0650 0.0391
0.5694 1.0640 0.0153
0.2599 1.1776 0.4433
0.2789 1.1766 0.4195
0.2978 1.1756 0.3956
0.3168 1.1746 0.3718
0.3358 1.1736 0.3479
0.3548 1.1725 0.3241
0.3738 1.1715 0.3003
0.3928 1.1705 0.2764
0.4118 1.1695 0.2526
0.4308 1.1685 0.2287
0.4498 1.1674 0.2049
0.4688 1.1664 0.1811
0.4878 1.1654 0.1572
0.5068 1.1644 0.1334
0.5258 1.1634 0.1095
0.5448 1.1624 0.0857
0.5638 1.1613 0.0618
0.2542 1.2749 0.4899
0.2732 1.2739 0.4661
0.2921 1.2729 0.4422
0.3111 1.2719 0.4184
0.3301 1.2709 0.3945
0.3491 1.2698 0.3707
0.3681 1.2688 0.3469
0.3871 1.2678 0.3230
0.4061 1.2668 0.2992
0.4251 1.2658 0.2753
0.4441 1.2648 0.2515
0.4631 1.2637 0.2276
0.4821 1.2627 0.2038
0.5011 1.2617 0.1800
0.5201 1.2607 0.1561
0.5391 1.2597 0.1323
0.5581 1.2586 0.1084
0.3149 -0.2808 -0.1827
0.3339 -0.2818 -0.2066
0.3529 -0.2828 -0.2304
0.3719 -0.2839 -0.2542
0.3909 -0.2849 -0.2781
0.4099 -0.2859 -0.3019
0.4289 -0.2869 -0.3258
0.4479 -0.2879 -0.3496
0.4669 -0.2890 -0.3734
0.4859 -0.2900 -0.3973
0.5049 -0.2910 -0.4211
0.5239 -0.2920 -0.4450
0.5429 -0.2930 -0.4688
0.5619 -0.2941 -0.4927
0.5808 -0.2951 -0.5165
0.5998 -0.2961 -0.5403
0.6188 -0.2971 -0.5642
0.3092 -0.1835 -0.1361
0.3282 -0.1845 -0.1600
0.3472 -0.1855 -0.1838
0.3662 -0.1866 -0.2076
0.1056 0.0384 0.0120
0.1481 0.0346 0.0082
0.2101 0.0205 0.0016
0.2714 0.0103 0.0000
0.3308 0.0081 0.0000
0.3901 0.0059 0.0000
0.4992 -0.1937 -0.3745
0.5182 -0.1947 -0.3984
0.5372 -0.1957 -0.4222
0.5562 -0.1967 -0.4461
0.5751 -0.1978 -0.4699
0.5941 -0.1988 -0.4937
0.6131 -0.1998 -0.5176
0.3035 -0.0862 -0.0895
0.3225 -0.0872 -0.1134
0.3415 -0.0882 -0.1372
0.0840 0.0513 0.0141
0.1078 0.0489 0.0143
0.1685 0.0386 0.0032
0.2311 0.0235 0.0000
0.2932 0.0203 0.0000
0.3556 0.0205 0.0000
0.4130 0.0030 0.0000
0.4705 0.0000 0.0000
0.5187 0.0000 0.0000
0.5315 -0.0984 -0.3756
0.5505 -0.0994 -0.3995
0.5694 -0.1005 -0.4233
0.5884 -0.1015 -0.4472
0.6074 -0.1025 -0.4710
0.2978 0.0111 -0.0429
0.0598 0.0686 0.0126
0.0694 0.0643 0.0125
0.0818 0.0660 0.0117
0.1265 0.0607 0.0043
0.1902 0.0690 0.0000
0.2556 0.0723 0.0000
0.3180 0.0725 0.0000
0.3805 0.0727 0.0000
0.4440 0.0504 0.0000
0.4946 0.0259 0.0000
0.5387 0.0071 0.0000
0.5258 -0.0011 -0.3290
0.5448 -0.0021 -0.3529
0.5638 -0.0032 -0.3767
0.5827 -0.0042 -0.4006
0.6017 -0.0052 -0.4244
0.2921 0.1084 0.0037
0.0622 0.0900 0.0104
0.0770 0.0940 0.0103
0.0919 0.0980 0.0103
0.1431 0.1084 0.0000
0.2162 0.1224 0.0000
0.2804 0.1246 0.0000
0.3429 0.1248 0.0000
0.4060 0.1221 0.0000
0.4765 0.1053 0.0000
0.5213 0.0891 0.0000
0.5779 0.0854 0.0000
0.6106 0.0910 0.0000
0.5391 0.0952 -0.3063
0.5581 0.0942 -0.3301
0.5770 0.0931 -0.3540
0.5960 0.0921 -0.3778
0.2865 0.2057 0.0502
0.0582 0.1463 0.0051
0.0828 0.1366 0.0137
0.1024 0.1342 0.0114
0.1559 0.1416 0.0000
0.2359 0.1663 0.0000
0.3027 0.1727 0.0000
0.3662 0.1746 0.0000
0.4338 0.1738 0.0000
0.5086 0.1721 0.0000
0.5611 0.1668 0.0000
0.6176 0.1644 0.0000
0.6425 0.1413 0.0000
0.5334 0.1925 -0.2597
0.5524 0.1915 -0.2835
0.5713 0.1904 -0.3074
0.5903 0.1894 -0.3312
0.2808 0.3030 0.0968
0.0512 0.1977 0.0000
0.0763 0.1966 0.0092
0.1228 0.1957 0.0055
0.1901 0.2093 0.0000
0.2628 0.2139 0.0000
0.3248 0.2283 0.0000
0.3926 0.2404 0.0000
0.4649 0.2352 0.0000
0.5407 0.2389 0.0000
0.6010 0.2410 0.0000
0.6573 0.2433 0.0000
0.6822 0.2202 0.0000
0.5277 0.2898 -0.2131
0.5467 0.2888 -0.2370
0.5657 0.2877 -0.2608
0.5846 0.2867 -0.2846
0.2751 0.4003 0.1434
0.0460 0.2333 0.0000
0.0744 0.2606 0.0000
0.1268 0.2611 0.0000
0.1998 0.2776 0.0000
0.2728 0.2942 0.0000
0.3460 0.3086 0.0000
0.4223 0.3100 0.0000
0.4973 0.3148 0.0000
0.5645 0.3175 0.0000
0.6329 0.3191 0.0000
0.6970 0.3222 0.0000
0.7228 0.3083 0.0000
0.5220 0.3871 -0.1665
0.5410 0.3861 -0.1904
0.5600 0.3851 -0.2142
0.5789 0.3840 -0.2381
0.2694 0.4976 0.1900
0.0409 0.2690 0.0000
0.0758 0.3027 0.0000
0.1331 0.3197 0.0000
0.2095 0.3460 0.0000
0.2825 0.3626 0.0000
0.3555 0.3791 0.0000
0.4481 0.3851 0.0000
0.5231 0.3899 0.0000
0.5913 0.3930 0.0000
0.6583 0.3957 0.0000
0.7374 0.4224 0.0000
0.7551 0.3933 0.0000
0.7430 0.3314 0.0000
0.5353 0.4834 -0.1438
0.5543 0.4824 -0.1676
0.5732 0.4813 -0.1915
0.2637 0.5949 0.2366
0.2827 0.5939 0.2128
0.0741 0.3400 0.0000
0.1432 0.3751 0.0000
0.2100 0.3938 0.0000
0.2883 0.4221 0.0000
0.3663 0.4467 0.0000
0.4724 0.4599 0.0000
0.5489 0.4651 0.0000
0.6228 0.4753 0.0000
0.6814 0.4796 0.0000
0.7401 0.4838 0.0000
0.7880 0.4779 0.0000
0.7936 0.4458 0.0000
0.5296 0.5807 -0.0972
0.5486 0.5797 -0.1210
0.5675 0.5786 -0.1449
0.2580 0.6923 0.2832
0.2770 0.6912 0.2594
0.0724 0.3773 0.0000
0.1532 0.4305 0.0000
0.2101 0.4409 0.0000
0.2884 0.4693 0.0000
0.3869 0.4952 0.0000
0.4926 0.5173 0.0000
0.5711 0.5186 0.0000
0.6255 0.5367 0.0000
0.6841 0.5410 0.0000
0.7427 0.5452 0.0000
0.8022 0.5454 0.0000
0.8390 0.5607 0.0000
0.5239 0.6780 -0.0506
0.5429 0.6770 -0.0744
0.5619 0.6760 -0.0983
0.2523 0.7896 0.3298
0.2713 0.7885 0.3059
0.0707 0.4146 0.0000
0.1546 0.4725 0.0000
0.2120 0.4895 0.0000
0.3007 0.5150 0.0000
0.4068 0.5355 0.0000
0.5093 0.5512 0.0000
0.5803 0.5634 0.0000
0.6400 0.5706 0.0000
0.6918 0.5787 0.0000
0.7513 0.5785 0.0000
0.8109 0.5783 0.0000
0.8497 0.5906 0.0000
0.5182 0.7753 -0.0040
0.5372 0.7743 -0.0278
0.5562 0.7733 -0.0517
0.2466 0.8869 0.3764
0.2656 0.8858 0.3525
0.2846 0.8848 0.3287
0.1502 0.5056 0.0000
0.2275 0.5243 0.0000
0.3190 0.5430 0.0000
0.4217 0.5598 0.0000
0.5244 0.5766 0.0000
0.6024 0.5907 0.0000
0.6652 0.5992 0.0000
0.7246 0.6065 0.0000
0.7651 0.6071 0.0000
0.8196 0.6112 0.0000
0.8586 0.6161 0.0000
0.5125 0.8726 0.0426
0.5315 0.8716 0.0187
0.5505 0.8706 -0.0051
0.2409 0.9842 0.4230
0.2599 0.9831 0.3991
0.2789 0.9821 0.3753
0.1670 0.5286 0.0000
0.2666 0.5457 0.0000
0.3609 0.5636 0.0000
0.4551 0.5816 0.0000
0.5357 0.5992 0.0000
0.5993 0.6085 0.0000
0.6649 0.6178 0.0000
0.7404 0.6320 0.0000
0.8108 0.6448 0.0000
0.8533 0.6448 0.0000
0.8669 0.6379 0.0000
0.5068 0.9699 0.0892
0.5258 0.9689 0.0653
0.5448 0.9679 0.0415
0.2352 1.0815 0.4696
0.2542 1.0805 0.4457
0.2732 1.0794 0.4219
0.2921 1.0784 0.3980
0.3038 0.5643 0.0000
0.3881 0.5794 0.0000
0.4485 0.5882 0.0000
0.5098 0.5975 0.0000
0.5710 0.6067 0.0000
0.6323 0.6160 0.0000
0.6940 0.6258 0.0177
0.4441 1.0703 0.2073
0.4631 1.0692 0.1834
0.4821 1.0682 0.1596
0.5011 1.0672 0.1358
0.5201 1.0662 0.1119
0.5391 1.0652 0.0881
0.2295 1.1788 0.5161
0.2485 1.1778 0.4923
0.2675 1.1767 0.4685
0.2865 1.1757 0.4446
0.3054 1.1747 0.4208
0.3244 1.1737 0.3969
0.3434 1.1727 0.3731
0.3624 1.1716 0.3492
0.3814 1.1706 0.3254
0.4004 1.1696 0.3016
0.4194 1.1686 0.2777
0.4384 1.1676 0.2539
0.4574 1.1666 0.2300
0.4764 1.1655 0.2062
0.4954 1.1645 0.1824
0.5144 1.1635 0.1585
0.5334 1.1625 0.1347
0.2238 1.2761 0.5627
0.2428 1.2751 0.5389
0.2618 1.2740 0.5150
0.2808 1.2730 0.4912
0.2997 1.2720 0.4674
0.3187 1.2710 0.4435
0.3377 1.2700 0.4197
0.3567 1.2690 0.3958
0.3757 1.2679 0.3720
0.3947 1.2669 0.3482
0.4137 1.2659 0.3243
0.4327 1.2649 0.3005
0.4517 1.2639 0.2766
0.4707 1.2628 0.2528
0.4897 1.2618 0.2289
0.5087 1.2608 0.2051
0.5277 1.2598 0.1813
0.2846 -0.2797 -0.1099
0.3035 -0.2807 -0.1337
0.3225 -0.2817 -0.1576
0.3415 -0.2827 -0.1814
0.3605 -0.2837 -0.2053
0.3795 -0.2848 -0.2291
0.3985 -0.2858 -0.2529
0.4175 -0.2868 -0.2768
0.4365 -0.2878 -0.3006
0.4555 -0.2888 -0.3245
0.4745 -0.2899 -0.3483
0.4935 -0.2909 -0.3721
0.5125 -0.2919 -0.3960
0.5315 -0.2929 -0.4198
0.5505 -0.2939 -0.4437
0.5694 -0.2949 -0.4675
0.5884 -0.2960 -0.4914
0.2789 -0.1824 -0.0633
0.2978 -0.1834 -0.0871
0.3168 -0.1844 -0.1110
0.0821 0.0426 0.0355
0.1033 0.0428 0.0450
0.1524 0.0381 0.0377
0.2138 0.0256 0.0292
0.2751 0.0133 0.0224
0.3343 0.0061 0.0115
0.3932 0.0000 0.0000
0.4520 0.0000 0.0000
0.5050 0.0000 0.0000
0.5068 -0.1946 -0.3494
0.5258 -0.1956 -0.3732
0.5448 -0.1966 -0.3971
0.5638 -0.1976 -0.4209
0.5827 -0.1987 -0.4448
0.2732 -0.0851 -0.0167
0.2921 -0.0861 -0.0405
0.0635 0.0557 0.0357
0.0799 0.0529 0.0409
0.1137 0.0520 0.0426
0.1715 0.0456 0.0286
0.2310 0.0384 0.0139
0.2938 0.0221 0.0098
0.3541 0.0104 0.0067
0.4114 0.0042 0.0027
0.4690 0.0000 0.0000
0.5249 0.0000 0.0000
0.5554 0.0000 0.0000
0.5201 -0.0983 -0.3266
0.5391 -0.0993 -0.3505
0.5581 -0.1003 -0.3743
0.5770 -0.1014 -0.3982
0.2675 0.0123 0.0299
0.0552 0.0724 0.0367
0.0677 0.0754 0.0354
0.0794 0.0754 0.0401
0.1351 0.0712 0.0282
0.1912 0.0592 0.0172
0.2490 0.0631 0.0070
0.3124 0.0726 0.0023
0.3850 0.0568 0.0052
0.4361 0.0324 0.0040
0.4872 0.0080 0.0029
0.5437 0.0000 0.0000
0.5801 0.0201 0.0000
0.5144 -0.0010 -0.2801
0.5334 -0.0020 -0.3039
0.5524 -0.0030 -0.3277
0.5713 -0.0040 -0.3516
0.2618 0.1096 0.0765
0.0572 0.1013 0.0468
0.0732 0.1055 0.0315
0.0876 0.1087 0.0296
0.1457 0.1168 0.0142
0.2028 0.1140 0.0023
0.2684 0.1217 0.0000
0.3408 0.1240 0.0050
0.4164 0.1046 0.0035
0.4675 0.0802 0.0023
0.5186 0.0558 0.0012
0.5768 0.0519 0.0000
0.6108 0.0721 0.0000
0.5087 0.0963 -0.2335
0.5277 0.0953 -0.2573
0.5467 0.0943 -0.2812
0.5657 0.0933 -0.3050
0.2561 0.2069 0.1231
0.0530 0.1567 0.0261
0.0801 0.1425 0.0321
0.1003 0.1418 0.0296
0.1576 0.1501 0.0112
0.2238 0.1648 0.0000
0.2944 0.1751 0.0000
0.3692 0.1753 0.0075
0.4440 0.1522 0.0024
0.5022 0.1355 0.0000
0.5610 0.1371 0.0000
0.6197 0.1388 0.0000
0.6453 0.1391 0.0000
0.6804 0.1737 0.0000
0.5220 0.1926 -0.2107
0.5410 0.1916 -0.2346
0.5600 0.1906 -0.2584
0.2504 0.3042 0.1697
0.0461 0.2167 0.0126
0.0727 0.2039 0.0256
0.1207 0.2033 0.0223
0.1753 0.2102 0.0045
0.2436 0.2242 0.0000
0.3175 0.2317 0.0000
0.3988 0.2333 0.0000
0.4744 0.2263 0.0000
0.5421 0.2309 0.0000
0.6039 0.2240 0.0000
0.6617 0.2250 0.0000
0.6839 0.2131 0.0000
0.7125 0.2368 0.0000
0.5163 0.2899 -0.1641
0.5353 0.2889 -0.1880
0.5543 0.2879 -0.2118
0.2447 0.4015 0.2162
0.0376 0.2798 0.0036
0.0719 0.2698 0.0148
0.1244 0.2685 0.0164
0.1803 0.2761 0.0000
0.2533 0.2926 0.0000
0.3276 0.2965 0.0000
0.4298 0.3239 0.0000
0.5012 0.3056 0.0000
0.5683 0.3148 0.0000
0.6379 0.3281 0.0000
0.7043 0.3321 0.0000
0.7352 0.3238 0.0000
0.7543 0.3266 0.0000
0.5106 0.3872 -0.1175
0.5296 0.3862 -0.1414
0.5486 0.3852 -0.1652
0.2390 0.4988 0.2628
0.0311 0.3266 0.0000
0.0762 0.3376 0.0028
0.1282 0.3341 0.0097
0.1900 0.3445 0.0000
0.2631 0.3610 0.0000
0.3428 0.3633 0.0000
0.4526 0.3953 0.0000
0.5275 0.3897 0.0000
0.5944 0.3986 0.0000
0.6641 0.4119 0.0000
0.7414 0.4362 0.0000
0.7742 0.4319 0.0000
0.7913 0.4192 0.0000
0.5049 0.4845 -0.0710
0.5239 0.4835 -0.0948
0.5429 0.4825 -0.1186
0.2333 0.5961 0.3094
0.0260 0.3622 0.0000
0.0849 0.3958 0.0000
0.1336 0.3995 0.0000
0.1998 0.4129 0.0000
0.2728 0.4294 0.0000
0.3647 0.4374 0.0000
0.4754 0.4667 0.0000
0.5538 0.4738 0.0000
0.6206 0.4824 0.0000
0.6855 0.4933 0.0000
0.7441 0.4976 0.0000
0.8030 0.5006 0.0000
0.8255 0.5161 0.0000
0.4992 0.5818 -0.0244
0.5182 0.5808 -0.0482
0.5372 0.5798 -0.0720
0.2276 0.6934 0.3560
0.0208 0.3978 0.0000
0.0947 0.4507 0.0000
0.1437 0.4549 0.0000
0.2034 0.4677 0.0000
0.2817 0.4960 0.0000
0.3866 0.5115 0.0000
0.4966 0.5385 0.0000
0.5782 0.5511 0.0000
0.6359 0.5433 0.0000
0.6931 0.5358 0.0000
0.7521 0.5337 0.0000
0.8117 0.5335 0.0000
0.8434 0.5586 0.0000
0.8240 0.4921 0.0000
0.5125 0.6781 -0.0016
0.5315 0.6771 -0.0255
0.2219 0.7907 0.4026
0.0157 0.4335 0.0000
0.0889 0.4818 0.0000
0.1486 0.5024 0.0000
0.2035 0.5149 0.0000
0.3009 0.5405 0.0000
0.4078 0.5573 0.0000
0.5153 0.5800 0.0000
0.5994 0.5958 0.0000
0.6526 0.6018 0.0000
0.7099 0.5944 0.0000
0.7672 0.5869 0.0000
0.8245 0.5795 0.0000
0.8587 0.6053 0.0000
0.8629 0.5855 0.0000
0.5068 0.7754 0.0450
0.5258 0.7744 0.0211
0.2162 0.8880 0.4492
0.0106 0.4691 0.0000
0.0798 0.5076 0.0000
0.1394 0.5282 0.0000
0.2267 0.5463 0.0000
0.3217 0.5648 0.0000
0.4244 0.5816 0.0000
0.5307 0.6073 0.0000
0.6206 0.6251 0.0000
0.6834 0.6336 0.0000
0.7354 0.6383 0.0000
0.7837 0.6425 0.0000
0.8412 0.6381 0.0000
0.8710 0.6464 0.0000
0.8779 0.6321 0.0000
0.5011 0.8727 0.0916
0.5201 0.8717 0.0677
0.2105 0.9853 0.4958
0.0057 0.5048 0.0000
0.0706 0.5334 0.0000
0.1717 0.5495 0.0000
0.2631 0.5683 0.0000
0.3565 0.5864 0.0000
0.4483 0.6085 0.0000
0.5501 0.6328 0.0000
0.6203 0.6432 0.0000
0.6866 0.6526 0.0000
0.7579 0.6655 0.0000
0.8253 0.6770 0.0000
0.8633 0.6750 0.0000
0.8776 0.6705 0.0000
0.8882 0.6684 0.0000
0.4954 0.9700 0.1382
0.5144 0.9690 0.1143
0.2048 1.0826 0.5424
0.0001 0.5392 0.0000
0.1088 0.5543 0.0000
0.2155 0.5701 0.0000
0.3048 0.5908 0.0000
0.3922 0.6136 0.0000
0.4535 0.6229 0.0000
0.5147 0.6321 0.0000
0.5760 0.6414 0.0000
0.6372 0.6506 0.0000
0.7023 0.6599 0.0000
0.7612 0.6709 0.0560
0.4327 1.0704 0.2563
0.4517 1.0694 0.2324
0.4707 1.0684 0.2086
0.4897 1.0673 0.1847
0.5087 1.0663 0.1609
0.1991 1.1799 0.5890
0.2181 1.1789 0.5651
0.2371 1.1779 0.5413
0.2440 0.5936 0.0081
0.2751 1.1758 0.4936
0.2940 1.1748 0.4698
0.3130 1.1738 0.4459
0.3320 1.1728 0.4221
0.3510 1.1718 0.3982
0.3700 1.1708 0.3744
0.3890 1.1697 0.3505
0.4080 1.1687 0.3267
0.4270 1.1677 0.3029
0.4460 1.1667 0.2790
0.4650 1.1657 0.2552
0.4840 1.1646 0.2313
0.5030 1.1636 0.2075
0.1934 1.2772 0.6356
0.2124 1.2762 0.6117
0.2314 1.2752 0.5879
0.2504 1.2742 0.5640
0.2694 1.2732 0.5402
0.2884 1.2721 0.5163
0.3073 1.2711 0.4925
0.3263 1.2701 0.4687
0.3453 1.2691 0.4448
0.3643 1.2681 0.4210
0.3833 1.2670 0.3971
0.4023 1.2660 0.3733
0.4213 1.2650 0.3495
0.4403 1.2640 0.3256
0.4593 1.2630 0.3018
0.4783 1.2619 0.2779
0.4973 1.2609 0.2541
0.2542 -0.2785 -0.0371
0.2732 -0.2795 -0.0609
0.2921 -0.2806 -0.0847
0.3111 -0.2816 -0.1086
0.3301 -0.2826 -0.1324
0.3491 -0.2836 -0.1563
0.3681 -0.2846 -0.1801
0.3871 -0.2856 -0.2040
0.4061 -0.2867 -0.2278
0.4251 -0.2877 -0.2516
0.4441 -0.2887 -0.2755
0.4914 0.0007 0.0080
0.4821 -0.2907 -0.3232
0.5011 -0.2918 -0.3470
0.5201 -0.2928 -0.3708
0.5391 -0.2938 -0.3947
0.5581 -0.2948 -0.4185
0.2485 -0.1812 0.0095
0.2675 -0.1822 -0.0143
0.0585 0.0469 0.0591
0.0897 0.0432 0.0641
0.1116 0.0453 0.0721
0.1567 0.0416 0.0672
0.2177 0.0303 0.0573
0.2790 0.0175 0.0500
0.3367 0.0134 0.0343
0.3945 0.0094 0.0185
0.4522 0.0052 0.0033
0.5097 0.0000 0.0000
0.5416 0.0000 0.0000
0.4954 -0.1945 -0.3004
0.5144 -0.1955 -0.3243
0.5334 -0.1965 -0.3481
