LUTs/kodak2.cube
# Loaded 129 keypoints.
LUT_3D_SIZE 17
0.0000 0.8674 1.0000
0.0000 0.8637 1.0000
0.0000 0.8599 1.0000
0.0000 0.8561 1.0000
0.0000 0.8523 1.0000
0.0000 0.8485 1.0000
0.0000 0.8447 1.0000
0.0000 0.8409 1.0000
0.0000 0.8371 1.0000
0.0000 0.8334 1.0000
0.0000 0.8296 1.0000
0.0000 0.8258 1.0000
0.0000 0.8220 1.0000
0.0000 0.8182 1.0000
0.0000 0.8144 1.0000
0.0000 0.8106 1.0000
0.0000 0.8068 1.0000
0.0000 0.8745 1.0000
0.0000 0.8707 1.0000
0.0000 0.8669 1.0000
0.0000 0.8632 1.0000
0.0000 0.8594 1.0000
0.0000 0.8556 1.0000
0.0000 0.8518 1.0000
0.0000 0.8480 1.0000
0.0000 0.8442 1.0000
0.0000 0.8404 1.0000
0.0000 0.8366 1.0000
0.0000 0.8329 1.0000
0.0000 0.8291 1.0000
0.0000 0.8253 1.0000
0.0000 0.8215 1.0000
0.0000 0.8177 1.0000
0.0000 0.8139 1.0000
0.0000 0.8816 1.0000
0.0000 0.8778 1.0000
0.0000 0.8740 1.0000
0.0000 0.8702 1.0000
0.0000 0.8664 1.0000
0.0000 0.8627 1.0000
0.0000 0.8589 1.0000
0.0000 0.8551 1.0000
0.0000 0.8513 1.0000
0.0000 0.8475 1.0000
0.0000 0.8437 1.0000
0.0000 0.8399 1.0000
0.0000 0.8361 1.0000
0.0000 0.8324 1.0000
0.0000 0.8286 1.0000
0.0000 0.8248 1.0000
0.0000 0.8210 1.0000
0.0000 0.8887 1.0000
0.0000 0.8849 1.0000
0.0000 0.8811 1.0000
0.0000 0.8773 1.0000
0.0000 0.8735 1.0000
0.0000 0.8697 1.0000
0.0000 0.8659 1.0000
0.0000 0.8622 1.0000
0.0000 0.8584 1.0000
0.0000 0.8546 1.0000
0.0000 0.8508 1.0000
0.0000 0.8470 1.0000
0.0000 0.8432 1.0000
0.0000 0.8394 1.0000
0.0000 0.8356 1.0000
0.0000 0.8319 1.0000
0.0000 0.8281 1.0000
0.0000 0.8957 1.0000
0.0000 0.8920 1.0000
0.0000 0.8882 1.0000
0.0000 0.8844 1.0000
0.0000 0.8806 1.0000
0.0000 0.8768 1.0000
0.0000 0.8730 1.0000
0.0000 0.8692 1.0000
0.0000 0.8654 1.0000
0.0000 0.8617 1.0000
0.0000 0.8579 1.0000
0.0000 0.8541 1.0000
0.0000 0.8503 1.0000
0.0000 0.8465 1.0000
0.0000 0.8427 1.0000
0.0000 0.8389 1.0000
0.0000 0.8351 1.0000
0.0000 0.9028 1.0000
0.0000 0.8990 1.0000
0.0000 0.8952 1.0000
0.0000 0.8915 1.0000
0.0000 0.8877 1.0000
0.0000 0.8839 1.0000
0.0000 0.8801 1.0000
0.0000 0.8763 1.0000
0.0000 0.8725 1.0000
0.0000 0.8687 1.0000
0.0000 0.8649 1.0000
0.0000 0.8612 1.0000
0.0000 0.8574 1.0000
0.0000 0.8536 1.0000
0.0000 0.8498 1.0000
0.0000 0.8460 1.0000
0.0000 0.8422 1.0000
0.0000 0.9099 1.0000
0.0000 0.9061 1.0000
0.0000 0.9023 1.0000
0.0000 0.8985 1.0000
0.0000 0.8947 1.0000
0.0000 0.8910 1.0000
0.0000 0.8872 1.0000
0.0000 0.8834 1.0000
0.0000 0.8796 1.0000
0.0000 0.8758 1.0000
0.0000 0.8720 1.0000
0.0000 0.8682 1.0000
0.0000 0.8644 1.0000
0.0000 0.8607 1.0000
0.0000 0.8569 1.0000
0.0000 0.8531 1.0000
0.0000 0.8493 1.0000
0.0000 0.9170 1.0000
0.0000 0.9132 1.0000
0.0000 0.9094 1.0000
0.0000 0.9056 1.0000
0.0000 0.9018 1.0000
0.0000 0.8980 1.0000
0.0000 0.8942 1.0000
0.0000 0.8905 1.0000
0.0000 0.8867 1.0000
0.0000 0.8829 1.0000
0.0000 0.8791 1.0000
0.0000 0.8753 1.0000
0.0000 0.8715 1.0000
0.0000 0.8677 1.0000
0.0000 0.8639 1.0000
0.0000 0.8602 1.0000
0.0000 0.8564 1.0000
0.0000 0.9240 1.0000
0.0000 0.9203 1.0000
0.0000 0.9165 1.0000
0.0000 0.9127 1.0000
0.0000 0.9089 1.0000
0.0000 0.9051 1.0000
0.0000 0.9013 1.0000
0.0000 0.8975 1.0000
0.0000 0.8937 1.0000
0.0000 0.8900 1.0000
0.0000 0.8862 1.0000
0.0000 0.8824 1.0000
0.0000 0.8786 1.0000
0.0000 0.8748 1.0000
0.0000 0.8710 1.0000
0.0000 0.8672 1.0000
0.0000 0.8634 1.0000
0.0000 0.9311 1.0000
0.0000 0.9273 1.0000
0.0000 0.9235 1.0000
0.0000 0.9198 1.0000
0.0000 0.9160 1.0000
0.0000 0.9122 1.0000
0.0000 0.9084 1.0000
0.0000 0.9046 1.0000
0.0000 0.9008 1.0000
0.0000 0.8970 1.0000
0.0000 0.8932 1.0000
0.0000 0.8895 1.0000
0.0000 0.8857 1.0000
0.0000 0.8819 1.0000
0.0000 0.8781 1.0000
0.0000 0.8743 1.0000
0.0000 0.8705 1.0000
0.0000 0.9382 1.0000
0.0000 0.9344 1.0000
0.0000 0.9306 1.0000
0.0000 0.9268 1.0000
0.0000 0.9230 1.0000
0.0000 0.9193 1.0000
0.0000 0.9155 1.0000
0.0000 0.9117 1.0000
0.0000 0.9079 1.0000
0.0000 0.9041 1.0000
0.0000 0.9003 1.0000
0.0000 0.8965 1.0000
0.0000 0.8927 1.0000
0.0000 0.8890 1.0000
0.0000 0.8852 1.0000
0.0000 0.8814 1.0000
0.0000 0.8776 1.0000
0.0000 0.9453 1.0000
0.0000 0.9415 1.0000
0.0000 0.9377 1.0000
0.0000 0.9339 1.0000
0.0000 0.9301 1.0000
0.0000 0.9263 1.0000
0.0000 0.9225 1.0000
0.0000 0.9188 1.0000
0.0000 0.9150 1.0000
0.0000 0.9112 1.0000
0.0000 0.9074 1.0000
0.0000 0.9036 1.0000
0.0000 0.8998 1.0000
0.0000 0.8960 1.0000
0.0000 0.8922 1.0000
0.0000 0.8885 1.0000
0.0000 0.8847 1.0000
0.0000 0.9523 1.0000
0.0000 0.9486 1.0000
0.0000 0.9448 1.0000
0.0000 0.9410 1.0000
0.0000 0.9372 1.0000
0.0000 0.9334 1.0000
0.0000 0.9296 1.0000
0.0000 0.9258 1.0000
0.0000 0.9220 1.0000
0.0000 0.9183 1.0000
0.0000 0.9145 1.0000
0.0000 0.9107 1.0000
0.0000 0.9069 1.0000
0.0000 0.9031 1.0000
0.0000 0.8993 1.0000
0.0000 0.8955 1.0000
0.0000 0.8917 1.0000
0.0000 0.9594 1.0000
0.0000 0.9556 1.0000
0.0000 0.9518 1.0000
0.0000 0.9481 1.0000
0.0000 0.9443 1.0000
0.0000 0.9405 1.0000
0.0000 0.9367 1.0000
0.0000 0.9329 1.0000
0.0000 0.9291 1.0000
0.0000 0.9253 1.0000
0.0000 0.9215 1.0000
0.0000 0.9178 1.0000
0.0000 0.9140 1.0000
0.0000 0.9102 1.0000
0.0000 0.9064 1.0000
0.0000 0.9026 1.0000
0.0000 0.8988 1.0000
0.0000 0.9665 1.0000
0.0000 0.9627 1.0000
0.0000 0.9589 1.0000
0.0000 0.9551 1.0000
0.0000 0.9513 1.0000
0.0000 0.9476 1.0000
0.0000 0.9438 1.0000
0.0000 0.9400 1.0000
0.0000 0.9362 1.0000
0.0000 0.9324 1.0000
0.0000 0.9286 1.0000
0.0000 0.9248 1.0000
0.0000 0.9210 1.0000
0.0000 0.9173 1.0000
0.0000 0.9135 1.0000
0.0000 0.9097 1.0000
0.0000 0.9059 1.0000
0.0000 0.9736 1.0000
0.0000 0.9698 1.0000
0.0000 0.9660 1.0000
0.0000 0.9622 1.0000
0.0000 0.9584 1.0000
0.0000 0.9546 1.0000
0.0000 0.9508 1.0000
0.0000 0.9471 1.0000
0.0000 0.9433 1.0000
0.0000 0.9395 1.0000
0.0000 0.9357 1.0000
0.0000 0.9319 1.0000
0.0000 0.9281 1.0000
0.0000 0.9243 1.0000
0.0000 0.9205 1.0000
0.0000 0.9168 1.0000
0.0000 0.9130 1.0000
0.0000 0.9806 1.0000
0.0000 0.9769 1.0000
0.0000 0.9731 1.0000
0.0000 0.9693 1.0000
0.0000 0.9655 1.0000
0.0000 0.9617 1.0000
0.0000 0.9579 1.0000
0.0000 0.9541 1.0000
0.0000 0.9503 1.0000
0.0000 0.9466 1.0000
0.0000 0.9428 1.0000
0.0000 0.9390 1.0000
0.0000 0.9352 1.0000
0.0000 0.9314 1.0000
0.0000 0.9276 1.0000
0.0000 0.9238 1.0000
0.0000 0.9200 1.0000
0.0000 0.8633 1.0000
0.0000 0.8595 1.0000
0.0000 0.8557 1.0000
0.0000 0.8519 1.0000
0.0000 0.8481 1.0000
0.0000 0.8443 1.0000
0.0000 0.8405 1.0000
0.0000 0.8367 1.0000
0.0000 0.8330 1.0000
0.0000 0.8292 1.0000
0.0000 0.8254 1.0000
0.0000 0.8216 1.0000
0.0000 0.8178 1.0000
0.0000 0.8140 1.0000
0.0000 0.8102 1.0000
0.0000 0.8064 1.0000
0.0000 0.8027 1.0000
0.0000 0.8703 1.0000
0.0000 0.8665 1.0000
0.0000 0.8628 1.0000
0.0000 0.8590 1.0000
0.0000 0.8552 1.0000
0.0000 0.8514 1.0000
0.0000 0.8476 1.0000
0.0000 0.8438 1.0000
0.0000 0.8400 1.0000
0.0000 0.8362 1.0000
0.0000 0.8325 1.0000
0.0000 0.8287 1.0000
0.0000 0.8249 1.0000
0.0000 0.8211 1.0000
0.0000 0.8173 1.0000
0.0000 0.8135 1.0000
0.0000 0.8097 1.0000
0.0000 0.8774 1.0000
0.0000 0.8736 1.0000
0.0000 0.8698 1.0000
0.1003 0.0463 0.0142
0.1352 0.0474 0.0125
0.1785 0.0467 0.0106
0.2219 0.0460 0.0087
0.2652 0.0453 0.0067
0.3142 0.0388 0.0019
0.3714 0.0402 0.0000
0.4307 0.0467 0.0000
0.0000 0.8357 1.0000
0.0000 0.8320 1.0000
0.0000 0.8282 1.0000
0.0000 0.8244 1.0000
0.0000 0.8206 1.0000
0.0000 0.8168 1.0000
0.0000 0.8845 1.0000
0.0530 0.0630 0.0127
0.0649 0.0643 0.0155
0.0938 0.0687 0.0146
0.1281 0.0614 0.0079
0.1747 0.0509 0.0016
0.2411 0.0648 0.0000
0.3009 0.0710 0.0000
0.3607 0.0772 0.0000
0.4205 0.0834 0.0000
0.4803 0.0896 0.0000
0.5348 0.0985 0.0000
0.5714 0.1176 0.0000
0.6081 0.1367 0.0000
0.0000 0.8315 1.0000
0.0000 0.8277 1.0000
0.0000 0.8239 1.0000
0.0000 0.8916 1.0000
0.0649 0.0839 0.0042
0.0790 0.0876 0.0092
0.0922 0.0925 0.0171
0.1396 0.0933 0.0076
0.1955 0.0784 0.0022
0.2611 0.0724 0.0000
0.3371 0.0932 0.0000
0.4003 0.1050 0.0000
0.4573 0.1075 0.0000
0.5194 0.1228 0.0000
0.5574 0.1381 0.0000
0.5940 0.1572 0.0000
0.6307 0.1764 0.0000
0.0000 0.8385 1.0000
0.0000 0.8347 1.0000
0.0000 0.8309 1.0000
0.0000 0.8986 1.0000
0.0719 0.1400 0.0000
0.0969 0.1381 0.0000
0.1214 0.1418 0.0020
0.1496 0.1470 0.0016
0.2168 0.1425 0.0000
0.2887 0.1422 0.0000
0.3606 0.1420 0.0000
0.4346 0.1377 0.0000
0.5007 0.1481 0.0000
0.5420 0.1625 0.0000
0.5800 0.1778 0.0000
0.6166 0.1969 0.0000
0.6533 0.2160 0.0000
0.6900 0.2352 0.0000
0.0000 0.8418 1.0000
0.0000 0.8380 1.0000
0.0000 0.9057 1.0000
0.0612 0.1923 0.0000
0.0957 0.2019 0.0000
0.1225 0.2055 0.0000
0.1631 0.2084 0.0000
0.2379 0.2094 0.0000
0.3127 0.2105 0.0000
0.3874 0.2115 0.0000
0.4697 0.2187 0.0000
0.5436 0.2178 0.0000
0.5787 0.2247 0.0000
0.6067 0.2245 0.0000
0.6392 0.2366 0.0000
0.6759 0.2557 0.0000
0.7126 0.2748 0.0000
0.0000 0.8489 1.0000
0.0000 0.8451 1.0000
0.0000 0.9128 1.0000
0.0450 0.2358 0.0000
0.0952 0.2681 0.0000
0.1212 0.2694 0.0000
0.1756 0.2715 0.0000
0.2503 0.2725 0.0000
0.3304 0.2812 0.0000
0.4178 0.3002 0.0000
0.4912 0.3061 0.0000
0.5883 0.3242 0.0000
0.6349 0.3243 0.0000
0.6630 0.3237 0.0000
0.6900 0.3249 0.0000
0.7167 0.3267 0.0000
0.7433 0.3285 0.0000
0.0000 0.8560 1.0000
0.0000 0.8522 1.0000
0.0000 0.9199 1.0000
0.0287 0.2793 0.0000
0.0813 0.3153 0.0000
0.1200 0.3332 0.0000
0.1882 0.3348 0.0000
0.2755 0.3539 0.0000
0.3623 0.3724 0.0000
0.4462 0.3881 0.0000
0.5300 0.4038 0.0000
0.6152 0.4151 0.0000
0.6894 0.4234 0.0000
0.7130 0.4281 0.0000
0.7361 0.4316 0.0000
0.7599 0.4335 0.0000
0.7844 0.4352 0.0000
0.8076 0.4352 0.0000
0.0000 0.8592 1.0000
0.0000 0.9269 1.0000
0.0000 0.9231 1.0000
0.0650 0.3588 0.0000
0.1237 0.3920 0.0000
0.2068 0.4065 0.0000
0.2899 0.4204 0.0000
0.3730 0.4344 0.0000
0.4561 0.4483 0.0000
0.5422 0.4627 0.0000
0.6363 0.4785 0.0000
0.7165 0.4912 0.0000
0.7496 0.4968 0.0000
0.7728 0.4943 0.0000
0.7968 0.4941 0.0000
0.8195 0.4945 0.0000
0.0000 0.8701 1.0000
0.0000 0.8663 1.0000
0.0000 0.9340 1.0000
0.0000 0.9302 1.0000
0.0591 0.3989 0.0000
0.1257 0.4293 0.0000
0.2087 0.4476 0.0000
0.2918 0.4615 0.0000
0.3749 0.4754 0.0000
0.4689 0.4912 0.0000
0.5579 0.5063 0.0000
0.6319 0.5194 0.0000
0.7060 0.5325 0.0000
0.7768 0.5473 0.0000
0.8096 0.5545 0.0000
0.8310 0.5529 0.0000
0.8354 0.5313 0.0000
0.0000 0.8772 1.0000
0.0000 0.8734 1.0000
0.0000 0.9411 1.0000
0.0000 0.9373 1.0000
0.0595 0.4370 0.0000
0.1277 0.4665 0.0000
0.2107 0.4885 0.0000
0.3016 0.5039 0.0000
0.3956 0.5197 0.0000
0.4703 0.5329 0.0000
0.5444 0.5460 0.0000
0.6166 0.5600 0.0000
0.6855 0.5756 0.0000
0.7540 0.5874 0.0000
0.8225 0.5978 0.0000
0.8468 0.5895 0.0000
0.8482 0.5609 0.0000
0.0000 0.8843 1.0000
0.0000 0.8805 1.0000
0.0000 0.9482 1.0000
0.0000 0.9444 1.0000
0.0000 0.9406 1.0000
0.1320 0.5048 0.0000
0.2294 0.5240 0.0000
0.3052 0.5360 0.0000
0.3777 0.5463 0.0000
0.4484 0.5571 0.0000
0.5191 0.5678 0.0000
0.5898 0.5786 0.0000
0.6605 0.5894 0.0000
0.7293 0.5998 0.0000
0.7977 0.6101 0.0000
0.8592 0.6180 0.0000
0.0000 0.8951 1.0000
0.0000 0.8913 1.0000
0.0000 0.8875 1.0000
0.0000 0.9552 1.0000
0.0000 0.9514 1.0000
0.0000 0.9477 1.0000
0.0000 0.9439 1.0000
0.0000 0.9401 1.0000
0.0000 0.9363 1.0000
0.0000 0.9325 1.0000
0.0000 0.9287 1.0000
0.0000 0.9249 1.0000
0.0000 0.9211 1.0000
0.0000 0.9173 1.0000
0.0000 0.9136 1.0000
0.7693 0.6216 0.0000
0.8402 0.6326 0.0000
0.0000 0.9022 1.0000
0.0000 0.8984 1.0000
0.0000 0.8946 1.0000
0.0000 0.9623 1.0000
0.0000 0.9585 1.0000
0.0000 0.9547 1.0000
0.0000 0.9509 1.0000
0.0000 0.9471 1.0000
0.0000 0.9434 1.0000
0.0000 0.9396 1.0000
0.0000 0.9358 1.0000
0.0000 0.9320 1.0000
0.0000 0.9282 1.0000
0.0000 0.9244 1.0000
0.0000 0.9206 1.0000
0.0000 0.9168 1.0000
0.0000 0.9131 1.0000
0.0000 0.9093 1.0000
0.0000 0.9055 1.0000
0.0000 0.9017 1.0000
0.0000 0.9694 1.0000
0.0000 0.9656 1.0000
0.0000 0.9618 1.0000
0.0000 0.9580 1.0000
0.0000 0.9542 1.0000
0.0000 0.9504 1.0000
0.0000 0.9466 1.0000
0.0000 0.9429 1.0000
0.0000 0.9391 1.0000
0.0000 0.9353 1.0000
0.0000 0.9315 1.0000
0.0000 0.9277 1.0000
0.0000 0.9239 1.0000
0.0000 0.9201 1.0000
0.0000 0.9163 1.0000
0.0000 0.9126 1.0000
0.0000 0.9088 1.0000
0.0000 0.9765 1.0000
0.0000 0.9727 1.0000
0.0000 0.9689 1.0000
0.0000 0.9651 1.0000
0.0000 0.9613 1.0000
0.0000 0.9575 1.0000
0.0000 0.9537 1.0000
0.0000 0.9499 1.0000
0.0000 0.9461 1.0000
0.0000 0.9424 1.0000
0.0000 0.9386 1.0000
0.0000 0.9348 1.0000
0.0000 0.9310 1.0000
0.0000 0.9272 1.0000
0.0000 0.9234 1.0000
0.0000 0.9196 1.0000
0.0000 0.9158 1.0000
0.0000 0.8591 1.0000
0.0000 0.8553 1.0000
0.0000 0.8515 1.0000
0.0000 0.8477 1.0000
0.0000 0.8439 1.0000
0.0000 0.8401 1.0000
0.0000 0.8363 1.0000
0.0000 0.8325 1.0000
0.0000 0.8288 1.0000
0.0000 0.8250 1.0000
0.0000 0.8212 1.0000
0.0000 0.8174 1.0000
0.0000 0.8136 1.0000
0.0000 0.8098 1.0000
0.0000 0.8060 1.0000
0.0000 0.8022 1.0000
0.0000 0.7985 1.0000
0.0000 0.8661 1.0000
0.0000 0.8623 1.0000
0.0000 0.8586 1.0000
0.0000 0.8548 1.0000
0.1176 0.0317 0.0297
0.1486 0.0284 0.0248
0.2061 0.0194 0.0150
0.2601 0.0158 0.0111
0.3138 0.0122 0.0074
0.3676 0.0088 0.0039
0.4225 0.0071 0.0039
0.4793 0.0098 0.0037
0.5285 0.0040 0.0012
0.0000 0.8169 1.0000
0.0000 0.8131 1.0000
0.0000 0.8093 1.0000
0.0000 0.8055 1.0000
0.0000 0.8732 1.0000
0.0481 0.0492 0.0348
0.0565 0.0478 0.0331
0.0893 0.0427 0.0274
0.1201 0.0386 0.0224
0.1639 0.0304 0.0143
0.2174 0.0186 0.0048
0.2842 0.0186 0.0039
0.3391 0.0169 0.0039
0.3959 0.0196 0.0037
0.4553 0.0287 0.0031
0.5093 0.0299 0.0014
0.5495 0.0329 0.0000
0.5857 0.0500 0.0063
0.0000 0.8202 1.0000
0.0000 0.8164 1.0000
0.0000 0.8126 1.0000
0.0000 0.8803 1.0000
0.0554 0.0663 0.0243
0.0613 0.0625 0.0322
0.0798 0.0710 0.0288
0.1338 0.0602 0.0224
0.1892 0.0455 0.0160
0.2441 0.0310 0.0082
0.3029 0.0243 0.0024
0.3719 0.0385 0.0031
0.4313 0.0476 0.0025
0.4900 0.0557 0.0017
0.5305 0.0566 0.0000
0.5693 0.0711 0.0000
0.6080 0.0856 0.0000
0.0000 0.8273 1.0000
0.0000 0.8235 1.0000
0.0000 0.8197 1.0000
0.0520 0.0962 0.0162
0.0636 0.0872 0.0208
0.0759 0.0933 0.0319
0.0978 0.1063 0.0283
0.1437 0.1139 0.0164
0.1991 0.0992 0.0097
0.2539 0.0848 0.0019
0.3369 0.0922 0.0007
0.4029 0.0642 0.0013
0.4666 0.0756 0.0012
0.5115 0.0802 0.0000
0.5503 0.0947 0.0000
0.5891 0.1092 0.0000
0.6278 0.1237 0.0000
0.6664 0.1538 0.0159
0.0000 0.8305 1.0000
0.0000 0.8268 1.0000
0.0479 0.1486 0.0071
0.0760 0.1368 0.0207
0.1022 0.1404 0.0212
0.1122 0.1449 0.0357
0.1537 0.1676 0.0104
0.2089 0.1530 0.0033
0.2844 0.1546 0.0004
0.3615 0.1467 0.0000
0.4323 0.1247 0.0000
0.5000 0.1160 0.0000
0.5315 0.1188 0.0000
0.5701 0.1328 0.0000
0.6088 0.1473 0.0000
0.6476 0.1618 0.0000
0.6863 0.1764 0.0000
0.0000 0.8376 1.0000
0.0000 0.8338 1.0000
0.0000 0.9015 1.0000
0.0690 0.2034 0.0161
0.0998 0.2043 0.0222
0.1380 0.2074 0.0124
0.1685 0.2109 0.0092
0.2318 0.2171 0.0000
0.3085 0.2090 0.0000
0.3921 0.2169 0.0000
0.4756 0.2248 0.0000
0.5470 0.2227 0.0000
0.6066 0.2386 0.0000
0.6348 0.2381 0.0000
0.6629 0.2375 0.0000
0.6911 0.2370 0.0000
0.7191 0.2366 0.0000
0.0000 0.8447 1.0000
0.0000 0.8409 1.0000
0.0000 0.9086 1.0000
0.0642 0.2707 0.0067
0.0895 0.2700 0.0249
0.1237 0.2719 0.0237
0.1762 0.2815 0.0057
0.2479 0.2924 0.0000
0.3319 0.3013 0.0000
0.4182 0.3117 0.0000
0.5076 0.3243 0.0000
0.5926 0.3313 0.0000
0.6518 0.3340 0.0000
0.6909 0.3376 0.0000
0.7155 0.3398 0.0000
0.7388 0.3429 0.0000
0.7619 0.3465 0.0000
0.0000 0.8518 1.0000
0.0000 0.8480 1.0000
0.0000 0.9157 1.0000
0.0565 0.3305 0.0000
0.0846 0.3373 0.0155
0.1326 0.3466 0.0196
0.1877 0.3575 0.0023
0.2681 0.3726 0.0000
0.3474 0.3841 0.0000
0.4331 0.3941 0.0000
0.5345 0.4152 0.0000
0.6326 0.4285 0.0000
0.6911 0.4317 0.0000
0.7320 0.4347 0.0000
0.7564 0.4420 0.0000
0.7792 0.4444 0.0000
0.8020 0.4467 0.0000
0.8164 0.4497 0.0261
0.0000 0.8551 1.0000
0.0000 0.9227 1.0000
0.0416 0.3715 0.0000
0.0798 0.4046 0.0061
0.1394 0.4190 0.0030
0.2008 0.4332 0.0000
0.2839 0.4472 0.0000
0.3670 0.4611 0.0000
0.4566 0.4761 0.0000
0.5526 0.4844 0.0000
0.6486 0.4924 0.0000
0.7230 0.5101 0.0000
0.7687 0.5215 0.0000
0.7918 0.5204 0.0000
0.8152 0.5153 0.0000
0.8288 0.5021 0.0000
0.8339 0.5201 0.0955
0.0000 0.8621 1.0000
0.0000 0.9298 1.0000
0.0266 0.4125 0.0000
0.0747 0.4501 0.0000
0.1309 0.4558 0.0000
0.2028 0.4709 0.0000
0.2893 0.4888 0.0000
0.3833 0.5046 0.0000
0.4774 0.5204 0.0000
0.5715 0.5362 0.0000
0.6656 0.5520 0.0000
0.7470 0.5650 0.0000
0.7966 0.5735 0.0000
0.8270 0.5739 0.0000
0.8396 0.5512 0.0000
0.8482 0.5600 0.0000
0.0000 0.8730 1.0000
0.0000 0.8692 1.0000
0.0000 0.9369 1.0000
0.0117 0.4535 0.0000
0.0629 0.4790 0.0000
0.1219 0.4863 0.0000
0.2138 0.5169 0.0000
0.3118 0.5331 0.0000
0.4059 0.5462 0.0000
0.4982 0.5647 0.0000
0.5923 0.5805 0.0000
0.6680 0.5938 0.0000
0.7421 0.6069 0.0000
0.8108 0.6172 0.0000
0.8438 0.6199 0.0000
0.8623 0.6233 0.0000
0.8631 0.5974 0.0000
0.0000 0.8801 1.0000
0.0000 0.8763 1.0000
0.0000 0.9440 1.0000
0.0033 0.4897 0.0000
0.0548 0.5116 0.0000
0.1386 0.5316 0.0000
0.2346 0.5504 0.0000
0.3326 0.5676 0.0000
0.4328 0.5819 0.0000
0.5145 0.5959 0.0000
0.5862 0.6070 0.0000
0.6569 0.6177 0.0000
0.7276 0.6285 0.0000
0.7982 0.6392 0.0000
0.8474 0.6418 0.0000
0.8739 0.6510 0.0000
0.8742 0.6316 0.0000
0.0000 0.8871 1.0000
0.0000 0.8834 1.0000
0.0000 0.9510 1.0000
0.0002 0.5221 0.0000
0.0683 0.5360 0.0000
0.1693 0.5559 0.0000
0.2643 0.5749 0.0000
0.3347 0.5862 0.0000
0.4050 0.5975 0.0000
0.4753 0.6089 0.0000
0.5464 0.6199 0.0000
0.6189 0.6302 0.0000
0.6914 0.6405 0.0000
0.7639 0.6507 0.0000
0.8359 0.6607 0.0000
0.8741 0.6689 0.0000
0.0000 0.8980 1.0000
0.0000 0.8942 1.0000
0.0000 0.8904 1.0000
0.0000 0.9581 1.0000
0.0000 0.9543 1.0000
0.0000 0.9505 1.0000
0.1671 0.5690 0.0000
0.2374 0.5804 0.0000
0.3078 0.5917 0.0000
0.0000 0.9354 1.0000
0.0000 0.9316 1.0000
0.0000 0.9278 1.0000
0.0000 0.9240 1.0000
0.0000 0.9202 1.0000
0.0000 0.9164 1.0000
0.0000 0.9127 1.0000
0.0000 0.9089 1.0000
0.0000 0.9051 1.0000
0.0000 0.9013 1.0000
0.0000 0.8975 1.0000
0.0000 0.9652 1.0000
0.0000 0.9614 1.0000
0.0000 0.9576 1.0000
0.0000 0.9538 1.0000
0.0000 0.9500 1.0000
0.0000 0.9462 1.0000
0.0000 0.9425 1.0000
0.0000 0.9387 1.0000
0.0000 0.9349 1.0000
0.0000 0.9311 1.0000
0.0000 0.9273 1.0000
0.0000 0.9235 1.0000
0.0000 0.9197 1.0000
0.0000 0.9159 1.0000
0.0000 0.9122 1.0000
0.0000 0.9084 1.0000
0.0000 0.9046 1.0000
0.0000 0.9723 1.0000
0.0000 0.9685 1.0000
0.0000 0.9647 1.0000
0.0000 0.9609 1.0000
0.0000 0.9571 1.0000
0.0000 0.9533 1.0000
0.0000 0.9495 1.0000
0.0000 0.9457 1.0000
0.0000 0.9420 1.0000
0.0000 0.9382 1.0000
0.0000 0.9344 1.0000
0.0000 0.9306 1.0000
0.0000 0.9268 1.0000
0.0000 0.9230 1.0000
0.0000 0.9192 1.0000
0.0000 0.9154 1.0000
0.0000 0.9117 1.0000
0.0000 0.8549 1.0000
0.0000 0.8511 1.0000
0.0000 0.8473 1.0000
0.0000 0.8435 1.0000
0.0000 0.8397 1.0000
0.0000 0.8359 1.0000
0.0000 0.8321 1.0000
0.0000 0.8283 1.0000
0.0000 0.8246 1.0000
0.0000 0.8208 1.0000
0.0000 0.8170 1.0000
0.0000 0.8132 1.0000
0.0000 0.8094 1.0000
0.0000 0.8056 1.0000
0.0000 0.8018 1.0000
0.0000 0.7980 1.0000
0.0000 0.7943 1.0000
0.0000 0.8619 1.0000
0.0000 0.8581 1.0000
0.0575 0.0432 0.0643
0.0802 0.0424 0.0575
0.1032 0.0416 0.0495
0.1530 0.0352 0.0601
0.2150 0.0250 0.0637
0.2788 0.0130 0.0261
0.3431 0.0084 0.0107
0.4017 0.0100 0.0110
0.4586 0.0154 0.0099
0.5012 0.0000 0.0063
0.5345 0.0000 0.0242
0.5678 0.0001 0.0421
0.0000 0.8089 1.0000
0.0000 0.8051 1.0000
