LUTs/kodak2.cube
# Loaded 129 keypoints.
LUT_3D_SIZE 5
0.0000 0.8674 1.0000
0.0000 0.8523 1.0000
0.0000 0.8371 1.0000
0.0000 0.8220 1.0000
0.0000 0.8068 1.0000
0.0000 0.8957 1.0000
0.0000 0.8806 1.0000
0.0000 0.8654 1.0000
0.0000 0.8503 1.0000
0.0000 0.8351 1.0000
0.0000 0.9240 1.0000
0.0000 0.9089 1.0000
0.0000 0.8937 1.0000
0.0000 0.8786 1.0000
0.0000 0.8634 1.0000
0.0000 0.9523 1.0000
0.0000 0.9372 1.0000
0.0000 0.9220 1.0000
0.0000 0.9069 1.0000
0.0000 0.8917 1.0000
0.0000 0.9806 1.0000
0.0000 0.9655 1.0000
0.0000 0.9503 1.0000
0.0000 0.9352 1.0000
0.0000 0.9200 1.0000
0.0000 0.8507 1.0000
0.0000 0.8355 1.0000
0.3593 0.0063 0.0326
0.0000 0.8052 1.0000
0.0000 0.7901 1.0000
0.0281 0.1653 0.0887
0.1406 0.1187 0.1195
0.4278 0.1427 0.0446
0.6372 0.1079 0.0137
0.0000 0.8184 1.0000
0.0107 0.3841 0.0409
0.1896 0.3955 0.1006
0.5634 0.4606 0.0476
0.7910 0.4679 0.0632
0.0000 0.8467 1.0000
0.0000 0.9356 1.0000
0.2833 0.6112 0.0000
0.6466 0.6806 0.0000
0.8750 0.7132 0.0000
0.0000 0.8750 1.0000
0.0000 0.9639 1.0000
0.0000 0.9487 1.0000
0.0000 0.9336 1.0000
0.0000 0.9184 1.0000
0.0000 0.9033 1.0000
0.0000 0.8339 1.0000
0.1271 0.0082 0.4018
0.3642 0.0000 0.3768
0.0000 0.7884 1.0000
0.0000 0.7733 1.0000
0.0000 0.1860 0.4180
0.1021 0.1171 0.4510
0.4635 0.1594 0.4551
0.6916 0.1231 0.4871
0.0000 0.8016 1.0000
0.0000 0.8905 1.0000
0.1082 0.5542 0.6219
0.5702 0.5690 0.5529
0.8311 0.6010 0.5512
0.0000 0.8299 1.0000
0.0000 0.9188 1.0000
0.2647 0.7837 0.6102
0.6293 0.8402 0.5566
0.9174 0.8567 0.5433
0.0000 0.8582 1.0000
0.0000 0.9471 1.0000
0.0000 0.9319 1.0000
0.0000 0.9168 1.0000
0.0000 0.9016 1.0000
0.0000 0.8865 1.0000
0.0000 0.8171 1.0000
0.0000 0.8019 1.0000
0.4370 0.0000 0.6888
0.0000 0.7716 1.0000
0.0000 0.7565 1.0000
0.0000 0.8454 1.0000
0.0808 0.1380 0.7578
0.4832 0.1683 0.7848
0.7419 0.1191 0.7976
0.0000 0.7848 1.0000
0.0000 0.8737 1.0000
0.0984 0.5663 0.9149
0.5870 0.5867 0.8926
0.8535 0.6209 0.9022
0.0000 0.8131 1.0000
0.0000 0.9020 1.0000
0.0058 0.8772 0.9870
0.6619 0.9174 0.9654
0.9368 0.9337 0.9190
0.0000 0.8414 1.0000
0.0000 0.9303 1.0000
0.0000 0.9151 1.0000
0.0000 0.9000 1.0000
0.0000 0.8848 1.0000
0.0000 0.8697 1.0000
0.0000 0.8003 1.0000
0.0000 0.7852 1.0000
0.0000 0.7700 1.0000
0.0000 0.7549 1.0000
0.0000 0.7397 1.0000
0.0000 0.8286 1.0000
0.0000 0.8135 1.0000
0.0000 0.7983 1.0000
0.0000 0.7832 1.0000
0.0000 0.7680 1.0000
0.0000 0.8569 1.0000
0.0000 0.8418 1.0000
0.0000 0.8266 1.0000
0.0000 0.8115 1.0000
0.0000 0.7963 1.0000
0.0000 0.8852 1.0000
0.0000 0.8701 1.0000
0.0000 0.8549 1.0000
0.0000 0.8398 1.0000
0.0000 0.8246 1.0000
0.0000 0.9135 1.0000
0.0000 0.8984 1.0000
0.0000 0.8832 1.0000
0.0000 0.8681 1.0000
0.0000 0.8529 1.0000
