LUTs/mismatchedGain116.cube

#Loaded 117 keypoints.
# header
LUT_3D_SIZE 9
-4.0 -4.0 -4.0
-4.0 -4.0 -4.0
-4.0 -4.0 -4.0
-4.0 -4.0 -4.0
-4.0 -4.0 -4.0
-4.0 -4.0 -4.0
-4.0 -4.0 -4.0
-4.0 -4.0 -4.0
-4.0 -4.0 -4.0
-4.0 -4.0 -4.0
-4.0 -4.0 -4.0
-4.0 -4.0 -4.0
-4.0 -4.0 -4.0
-4.0 -4.0 -4.0
-4.0 -4.0 -4.0
-4.0 -4.0 -4.0
-4.0 -4.0 -4.0
-4.0 -4.0 -4.0
-4.0 -4.0 -4.0
-4.0 -4.0 -4.0
-4.0 -4.0 -4.0
-4.0 -4.0 -4.0
-4.0 -4.0 -4.0
-4.0 -4.0 -4.0
-4.0 -4.0 -4.0
-4.0 -4.0 -4.0
-4.0 -4.0 -4.0
-4.0 -4.0 -4.0
-4.0 -4.0 -4.0
-4.0 -4.0 -4.0
0.0 0.38671875000000006 0.19335937499999997
-4.0 -4.0 -4.0
-4.0 -4.0 -4.0
-4.0 -4.0 -4.0
-4.0 -4.0 -4.0
-4.0 -4.0 -4.0
-4.0 -4.0 -4.0
-4.0 -4.0 -4.0
-4.0 -4.0 -4.0
-3.879357109015363e-17 0.515625 0.193359375
-4.0 -4.0 -4.0
-4.0 -4.0 -4.0
-4.0 -4.0 -4.0
-4.0 -4.0 -4.0
-4.0 -4.0 -4.0
-4.0 -4.0 -4.0
-4.0 -4.0 -4.0
0.0 0.64453125 0.12890625
0.0 0.6445312500000001 0.193359375
-4.0 -4.0 -4.0
-4.0 -4.0 -4.0
-4.0 -4.0 -4.0
-4.0 -4.0 -4.0
-4.0 -4.0 -4.0
-4.0 -4.0 -4.0
-4.0 -4.0 -4.0
-4.0 -4.0 -4.0
-4.0 -4.0 -4.0
-4.0 -4.0 -4.0
-4.0 -4.0 -4.0
-4.0 -4.0 -4.0
-4.0 -4.0 -4.0
-4.0 -4.0 -4.0
-4.0 -4.0 -4.0
-4.0 -4.0 -4.0
-4.0 -4.0 -4.0
-4.0 -4.0 -4.0
-4.0 -4.0 -4.0
-4.0 -4.0 -4.0
-4.0 -4.0 -4.0
-4.0 -4.0 -4.0
-4.0 -4.0 -4.0
-4.0 -4.0 -4.0
-4.0 -4.0 -4.0
-4.0 -4.0 -4.0
-4.0 -4.0 -4.0
-4.0 -4.0 -4.0
-4.0 -4.0 -4.0
-4.0 -4.0 -4.0
-4.0 -4.0 -4.0
-4.0 -4.0 -4.0
-4.0 -4.0 -4.0
-4.0 -4.0 -4.0
0.2578125 4.336808689942018e-19 0.12890625
0.2578125 8.673617379884035e-19 0.19335937499999997
0.2578124999999999 0.0 0.25781249999999994
-4.0 -4.0 -4.0
-4.0 -4.0 -4.0
-4.0 -4.0 -4.0
-4.0 -4.0 -4.0
-4.0 -4.0 -4.0
0.2578125 0.12890625 0.064453125
0.2578125 0.12890625 0.12890625
0.2578125 0.12890625 0.19335937499999997
0.25781250000000006 0.12890625 0.2578125
0.25781249999999994 0.12890625 0.322265625
0.2578125 0.12890625 0.38671874999999994
-4.0 -4.0 -4.0
-4.0 -4.0 -4.0
-4.0 -4.0 -4.0
0.2578125 0.2578125 0.064453125
0.2578125 0.2578125 0.12890625
0.2578125 0.2578125 0.193359375
0.2578125 0.2578125 0.2578125
0.2578125 0.2578125 0.32226562500000006
0.25781249999999994 0.2578125 0.38671875
-4.0 -4.0 -4.0
-4.0 -4.0 -4.0
-4.0 -4.0 -4.0
0.2578125 0.38671875000000006 0.064453125
0.25781249999999994 0.38671875 0.12890625000000003
0.2578125 0.38671875 0.193359375
0.2578125 0.38671875 0.2578125
0.25781249999999994 0.38671875000000006 0.322265625
0.25781250000000006 0.38671874999999994 0.3867187499999999
-4.0 -4.0 -4.0
-4.0 -4.0 -4.0
-4.0 -4.0 -4.0
0.2578124999999999 0.515625 0.06445312499999999
0.2578125000000001 0.515625 0.12890625
0.2578125 0.515625 0.193359375
0.2578125 0.515625 0.2578125
0.2578125 0.5156250000000001 0.322265625
0.2578125000000001 0.515625 0.38671875
-4.0 -4.0 -4.0
-4.0 -4.0 -4.0
-4.0 -4.0 -4.0
0.2578125 0.64453125 0.064453125
0.2578125 0.64453125 0.12890625
0.2578125 0.64453125 0.19335937500000003
0.2578125 0.64453125 0.2578125
0.2578125 0.64453125 0.322265625
0.2578125 0.64453125 0.38671875
-4.0 -4.0 -4.0
-4.0 -4.0 -4.0
-4.0 -4.0 -4.0
0.2578125 0.7734375 0.064453125
0.2578125000000001 0.7734375 0.12890625000000003
0.2578125 0.7734375 0.193359375
0.25781249999999994 0.7734375 0.25781250000000006
0.2578125 0.7734375 0.322265625
0.2578125 0.7734375 0.38671875
-4.0 -4.0 -4.0
-4.0 -4.0 -4.0
-4.0 -4.0 -4.0
0.2578125 0.90234375 0.064453125
0.2578125 0.90234375 0.12890625
-4.0 -4.0 -4.0
-4.0 -4.0 -4.0
-4.0 -4.0 -4.0
-4.0 -4.0 -4.0
-4.0 -4.0 -4.0
-4.0 -4.0 -4.0
-4.0 -4.0 -4.0
-4.0 -4.0 -4.0
-4.0 -4.0 -4.0
-4.0 -4.0 -4.0
-4.0 -4.0 -4.0
-4.0 -4.0 -4.0
-4.0 -4.0 -4.0
-4.0 -4.0 -4.0
-4.0 -4.0 -4.0
-4.0 -4.0 -4.0
-4.0 -4.0 -4.0
0.515625 6.938893903907228e-18 0.12890625
0.5156250000000001 5.204170427930421e-18 0.19335937499999997
0.515625 0.0 0.2578125
0.5156249999999999 0.0 0.322265625
-4.0 -4.0 -4.0
-4.0 -4.0 -4.0
-4.0 -4.0 -4.0
-4.0 -4.0 -4.0
0.515625 0.12890625 0.064453125
0.515625 0.12890625 0.12890625
0.515625 0.12890625 0.193359375
0.515625 0.12890625 0.25781250000000006
0.515625 0.12890625 0.322265625
0.515625 0.12890625 0.38671875
0.515625 0.12890625 0.45117187499999994
-4.0 -4.0 -4.0
-4.0 -4.0 -4.0
0.515625 0.2578125 0.064453125
0.515625 0.2578125 0.12890624999999997
0.515625 0.2578125 0.193359375
0.515625 0.2578125 0.2578125
0.515625 0.2578125 0.322265625
0.5156250000000001 0.25781250000000006 0.38671875000000006
0.515625 0.2578125 0.45117187500000006
-4.0 -4.0 -4.0
-4.0 -4.0 -4.0
0.5156249999999999 0.38671875 0.064453125
0.515625 0.38671875000000006 0.12890625
0.515625 0.38671875000000006 0.193359375
0.515625 0.38671875 0.2578125
0.515625 0.38671875 0.322265625
0.515625 0.38671875 0.38671875
0.515625 0.38671875000000006 0.45117187500000006
-4.0 -4.0 -4.0
-4.0 -4.0 -4.0
0.515625 0.515625 0.064453125
0.5156250000000001 0.5156250000000001 0.12890625
0.515625 0.515625 0.193359375
0.515625 0.515625 0.2578125
0.5156250000000001 0.515625 0.322265625
0.515625 0.515625 0.38671875
0.515625 0.515625 0.45117187500000006
-4.0 -4.0 -4.0
-4.0 -4.0 -4.0
0.515625 0.64453125 0.064453125
0.515625 0.64453125 0.12890624999999994
0.515625 0.64453125 0.19335937499999997
0.515625 0.64453125 0.2578125
0.515625 0.64453125 0.322265625
0.515625 0.64453125 0.38671875
0.515625 0.6445312499999999 0.451171875
-4.0 -4.0 -4.0
-4.0 -4.0 -4.0
0.515625 0.7734375 0.064453125
0.5156250000000001 0.7734375 0.12890624999999997
0.515625 0.7734375 0.19335937500000003
0.515625 0.7734375 0.2578125
0.515625 0.7734374999999999 0.322265625
0.5156250000000001 0.7734374999999999 0.38671874999999994
0.515625 0.7734375 0.451171875
-4.0 -4.0 -4.0
-4.0 -4.0 -4.0
0.515625 0.90234375 0.064453125
0.515625 0.90234375 0.12890625
0.515625 0.90234375 0.193359375
0.515625 0.90234375 0.2578125
0.515625 0.90234375 0.322265625
0.5156249999999999 0.9023437499999999 0.38671875
-4.0 -4.0 -4.0
-4.0 -4.0 -4.0
-4.0 -4.0 -4.0
-4.0 -4.0 -4.0
-4.0 -4.0 -4.0
-4.0 -4.0 -4.0
-4.0 -4.0 -4.0
-4.0 -4.0 -4.0
-4.0 -4.0 -4.0
-4.0 -4.0 -4.0
-4.0 -4.0 -4.0
-4.0 -4.0 -4.0
-4.0 -4.0 -4.0
0.7734375 6.938893903907228e-18 0.12890625
0.7734374999999999 0.0 0.19335937499999997
0.7734374999999998 0.0 0.2578125
0.7734375 0.0 0.322265625
0.7734375000000001 0.0 0.38671875
0.7734375000000001 0.0 0.45117187499999994
-4.0 -4.0 -4.0
-4.0 -4.0 -4.0
0.7734374999999999 0.12890625 0.06445312499999999
0.7734375 0.12890625 0.12890625
0.7734375 0.12890625 0.193359375
0.7734375 0.12890625 0.2578125
0.7734375 0.12890625 0.322265625
0.7734374999999999 0.12890625000000003 0.38671875
0.7734375 0.12890624999999997 0.451171875
-4.0 -4.0 -4.0
-4.0 -4.0 -4.0
0.7734375 0.2578125 0.064453125
0.7734375 0.2578125 0.12890625
0.7734375 0.2578125 0.19335937499999997
0.7734375 0.2578125 0.2578125
0.7734375 0.2578125 0.322265625
0.7734375 0.2578125 0.38671875
0.7734375 0.2578125 0.451171875
-4.0 -4.0 -4.0
-4.0 -4.0 -4.0
0.7734375 0.38671875 0.064453125
0.7734375 0.38671875 0.12890625
0.7734375 0.38671875 0.193359375
0.7734375 0.38671875 0.2578125
0.7734375000000002 0.3867187500000001 0.322265625
0.7734375000000001 0.38671875 0.38671875
0.7734375 0.38671875 0.451171875
-4.0 -4.0 -4.0
-4.0 -4.0 -4.0
0.7734374999999999 0.515625 0.06445312499999999
0.7734375 0.515625 0.12890625
0.7734374999999999 0.515625 0.19335937499999997
0.7734375000000001 0.515625 0.2578125
0.7734375 0.515625 0.322265625
0.7734375000000001 0.515625 0.38671875
0.7734374999999999 0.515625 0.451171875
-4.0 -4.0 -4.0
-4.0 -4.0 -4.0
0.7734375 0.64453125 0.064453125
0.7734375 0.64453125 0.12890625
0.7734375 0.64453125 0.193359375
0.7734375 0.64453125 0.2578125
0.7734375000000001 0.64453125 0.32226562500000006
0.7734375 0.64453125 0.38671875
0.7734375 0.64453125 0.45117187500000006
-4.0 -4.0 -4.0
-4.0 -4.0 -4.0
0.7734375 0.7734375 0.064453125
0.7734375 0.7734375 0.12890625
0.7734375 0.7734375 0.193359375
0.7734374999999999 0.7734374999999999 0.2578125
0.7734375000000001 0.7734375 0.322265625
0.7734375000000001 0.7734375 0.38671875
0.7734374999999999 0.7734375 0.45117187499999994
-4.0 -4.0 -4.0
-4.0 -4.0 -4.0
0.7734375 0.9023437500000002 0.064453125
0.7734375 0.9023437499999999 0.12890625
0.7734375 0.90234375 0.193359375
0.7734375 0.90234375 0.2578125
0.7734374999999999 0.9023437499999999 0.32226562499999994
0.7734374999999999 0.9023437499999999 0.38671875
-4.0 -4.0 -4.0
-4.0 -4.0 -4.0
-4.0 -4.0 -4.0
-4.0 -4.0 -4.0
-4.0 -4.0 -4.0
-4.0 -4.0 -4.0
-4.0 -4.0 -4.0
-4.0 -4.0 -4.0
-4.0 -4.0 -4.0
-4.0 -4.0 -4.0
-4.0 -4.0 -4.0
-4.0 -4.0 -4.0
-4.0 -4.0 -4.0
1.03125 1.0408340855860843e-17 0.12890625
1.0312499999999998 0.0 0.19335937499999997
1.03125 0.0 0.2578125
1.03125 0.0 0.322265625
1.03125 0.0 0.38671875
1.03125 0.0 0.45117187500000006
-4.0 -4.0 -4.0
-4.0 -4.0 -4.0
1.03125 0.12890625 0.064453125
1.03125 0.12890625 0.12890625
1.03125 0.12890625 0.193359375
1.03125 0.12890625000000003 0.2578125
1.03125 0.12890625 0.322265625
1.0312500000000002 0.12890624999999997 0.38671875
1.0312500000000002 0.12890625000000003 0.45117187500000006
-4.0 -4.0 -4.0
-4.0 -4.0 -4.0
1.03125 0.2578125 0.06445312499999999
1.03125 0.2578125 0.12890625
1.03125 0.25781250000000006 0.193359375
1.03125 0.25781249999999994 0.2578125
1.03125 0.25781249999999994 0.322265625
1.03125 0.2578125 0.38671874999999994
1.03125 0.2578125 0.451171875
-4.0 -4.0 -4.0
-4.0 -4.0 -4.0
1.03125 0.38671875000000006 0.064453125
1.03125 0.38671874999999994 0.12890625
1.0312500000000002 0.38671875 0.193359375
1.03125 0.38671875 0.2578125
1.03125 0.38671874999999994 0.322265625
1.0312499999999998 0.3867187499999999 0.38671875
1.03125 0.38671874999999994 0.451171875
-4.0 -4.0 -4.0
-4.0 -4.0 -4.0
1.03125 0.515625 0.06445312499999999
1.03125 0.515625 0.12890625
1.03125 0.515625 0.193359375
1.03125 0.515625 0.2578125
1.03125 0.515625 0.322265625
1.03125 0.515625 0.38671875
1.03125 0.5156249999999999 0.451171875
-4.0 -4.0 -4.0
-4.0 -4.0 -4.0
1.03125 0.64453125 0.06445312500000001
1.03125 0.64453125 0.12890625000000003
1.03125 0.64453125 0.193359375
1.03125 0.64453125 0.25781250000000006
1.03125 0.64453125 0.322265625
1.03125 0.64453125 0.38671875
1.03125 0.6445312499999999 0.451171875
-4.0 -4.0 -4.0
-4.0 -4.0 -4.0
1.03125 0.7734375 0.064453125
1.03125 0.7734375 0.12890625
1.03125 0.7734375 0.193359375
1.03125 0.7734375 0.2578125
1.03125 0.7734374999999999 0.322265625
1.03125 0.7734374999999999 0.38671874999999994
1.03125 0.7734375 0.451171875
-4.0 -4.0 -4.0
-4.0 -4.0 -4.0
1.03125 0.90234375 0.064453125
1.03125 0.9023437499999999 0.12890625
1.03125 0.90234375 0.193359375
1.0312499999999998 0.90234375 0.2578125
1.03125 0.90234375 0.322265625
1.03125 0.90234375 0.38671875
-4.0 -4.0 -4.0
-4.0 -4.0 -4.0
-4.0 -4.0 -4.0
-4.0 -4.0 -4.0
-4.0 -4.0 -4.0
-4.0 -4.0 -4.0
-4.0 -4.0 -4.0
-4.0 -4.0 -4.0
-4.0 -4.0 -4.0
-4.0 -4.0 -4.0
-4.0 -4.0 -4.0
-4.0 -4.0 -4.0
-4.0 -4.0 -4.0
1.2890625 0.0 0.12890625
1.2890624999999998 0.0 0.193359375
1.2890624999999998 0.0 0.25781249999999994
1.2890625 0.0 0.322265625
1.2890625 0.0 0.38671875
1.2890625 0.0 0.451171875
-4.0 -4.0 -4.0
-4.0 -4.0 -4.0
1.2890625000000002 0.12890624999999997 0.06445312499999999
1.2890624999999998 0.12890625 0.12890625
1.2890625000000002 0.12890625 0.193359375
1.2890625 0.12890625 0.2578125
1.2890625 0.12890625000000003 0.32226562500000006
1.2890624999999998 0.12890625 0.38671875
1.2890624999999998 0.12890625 0.45117187500000006
-4.0 -4.0 -4.0
-4.0 -4.0 -4.0
1.2890625 0.2578125 0.064453125
1.2890625 0.2578125 0.12890625
1.2890625 0.2578125 0.193359375
1.2890625000000002 0.25781250000000006 0.2578125
1.2890625 0.2578125 0.322265625
1.2890625 0.2578125 0.38671875
1.2890625 0.2578125 0.451171875
-4.0 -4.0 -4.0
-4.0 -4.0 -4.0
1.2890625 0.38671875 0.064453125
1.2890625 0.38671875 0.12890625
1.2890625 0.38671875 0.193359375
1.2890624999999998 0.38671875 0.25781249999999994
1.2890625 0.38671875 0.322265625
1.2890625 0.38671875 0.38671874999999994
1.2890625 0.38671874999999994 0.451171875
-4.0 -4.0 -4.0
-4.0 -4.0 -4.0
1.2890625 0.5156250000000001 0.064453125
1.2890625 0.515625 0.12890624999999997
1.2890625 0.5156250000000001 0.19335937500000003
1.2890625 0.515625 0.2578125
1.2890625000000002 0.515625 0.322265625
1.2890625 0.515625 0.38671875
1.2890625 0.515625 0.451171875
-4.0 -4.0 -4.0
-4.0 -4.0 -4.0
1.2890625000000002 0.6445312500000001 0.064453125
1.2890624999999998 0.64453125 0.12890625000000003
1.2890625 0.64453125 0.19335937500000003
1.2890625 0.64453125 0.25781250000000006
1.2890625 0.64453125 0.322265625
1.2890625 0.6445312499999999 0.38671875000000006
1.2890625 0.6445312499999999 0.45117187499999994
-4.0 -4.0 -4.0
-4.0 -4.0 -4.0
1.2890624999999998 0.7734375 0.06445312499999997
1.2890625 0.7734375 0.12890625
1.2890625 0.7734375 0.193359375
1.2890625 0.7734375 0.2578125
1.2890625 0.7734374999999999 0.322265625
1.2890625 0.7734375 0.38671875
1.2890625000000002 0.7734375 0.45117187499999994
-4.0 -4.0 -4.0
-4.0 -4.0 -4.0
1.2890625 0.90234375 0.064453125
1.2890625 0.90234375 0.12890625
1.2890625 0.9023437499999999 0.193359375
1.2890625000000002 0.9023437500000001 0.2578125
1.2890625 0.90234375 0.322265625
1.2890625 0.90234375 0.38671875
-4.0 -4.0 -4.0
-4.0 -4.0 -4.0
-4.0 -4.0 -4.0
-4.0 -4.0 -4.0
-4.0 -4.0 -4.0
-4.0 -4.0 -4.0
-4.0 -4.0 -4.0
-4.0 -4.0 -4.0
-4.0 -4.0 -4.0
-4.0 -4.0 -4.0
-4.0 -4.0 -4.0
-4.0 -4.0 -4.0
-4.0 -4.0 -4.0
1.5468749999999998 0.0 0.12890625
1.546875 0.0 0.193359375
1.5468749999999998 0.0 0.25781249999999994
1.546875 0.0 0.322265625
1.546875 0.0 0.38671875
1.546875 0.0 0.451171875
-4.0 -4.0 -4.0
-4.0 -4.0 -4.0
1.5468750000000002 0.12890624999999975 0.06445312500000003
1.5468750000000002 0.12890625 0.12890625000000003
1.546875 0.12890625 0.19335937500000003
1.5468749999999998 0.12890625 0.2578125
1.546875 0.12890625 0.322265625
1.546875 0.12890625 0.38671875000000006
1.546875 0.12890624999999997 0.451171875
-4.0 -4.0 -4.0
-4.0 -4.0 -4.0
1.546875 0.25781250000000006 0.064453125
1.5468749999999998 0.2578125 0.12890625
1.546875 0.2578125 0.19335937500000003
1.5468750000000002 0.25781250000000006 0.25781250000000006
1.546875 0.2578125 0.32226562500000006
1.5468749999999998 0.25781249999999994 0.38671875
1.5468749999999998 0.2578125 0.451171875
-4.0 -4.0 -4.0
-4.0 -4.0 -4.0
1.546875 0.38671875 0.064453125
1.546875 0.38671875 0.12890624999999997
1.546875 0.38671875 0.193359375
1.546875 0.38671875 0.2578125
1.546875 0.38671875 0.322265625
1.5468749999999998 0.38671874999999994 0.38671875
1.546875 0.38671875 0.451171875
-4.0 -4.0 -4.0
-4.0 -4.0 -4.0
1.546875 0.515625 0.064453125
1.546875 0.515625 0.12890625
1.546875 0.515625 0.19335937500000003
1.546875 0.515625 0.2578125
1.546875 0.515625 0.32226562500000006
1.546875 0.515625 0.38671875
1.546875 0.5156250000000001 0.451171875
-4.0 -4.0 -4.0
-4.0 -4.0 -4.0
1.546875 0.6445312499999999 0.064453125
1.546875 0.6445312500000001 0.12890625000000003
1.546875 0.64453125 0.193359375
1.5468750000000002 0.6445312500000001 0.2578125
1.546875 0.6445312500000001 0.32226562500000006
1.546875 0.64453125 0.38671874999999994
1.546875 0.64453125 0.45117187500000006
-4.0 -4.0 -4.0
-4.0 -4.0 -4.0
1.5468749999999998 0.7734374999999999 0.06445312499999999
1.5468750000000002 0.7734375 0.12890625
1.546875 0.7734375 0.193359375
1.546875 0.7734375 0.2578125
1.546875 0.7734375000000001 0.322265625
1.546875 0.7734375 0.38671875
-4.0 -4.0 -4.0
-4.0 -4.0 -4.0
-4.0 -4.0 -4.0
1.546875 0.90234375 0.064453125
1.546875 0.90234375 0.12890625
1.546875 0.90234375 0.193359375
1.546875 0.90234375 0.2578125
1.546875 0.9023437499999999 0.322265625
-4.0 -4.0 -4.0
-4.0 -4.0 -4.0
-4.0 -4.0 -4.0
-4.0 -4.0 -4.0
-4.0 -4.0 -4.0
-4.0 -4.0 -4.0
-4.0 -4.0 -4.0
-4.0 -4.0 -4.0
-4.0 -4.0 -4.0
-4.0 -4.0 -4.0
-4.0 -4.0 -4.0
-4.0 -4.0 -4.0
-4.0 -4.0 -4.0
-4.0 -4.0 -4.0
-4.0 -4.0 -4.0
-4.0 -4.0 -4.0
-4.0 -4.0 -4.0
-4.0 -4.0 -4.0
-4.0 -4.0 -4.0
1.8046875 0.0 0.451171875
-4.0 -4.0 -4.0
-4.0 -4.0 -4.0
-4.0 -4.0 -4.0
1.8046874999999998 0.12890625 0.12890625
1.8046874999999998 0.12890625 0.193359375
1.8046875 0.12890625 0.2578125
1.8046875 0.12890625 0.322265625
1.8046875 0.12890625 0.38671875
1.8046875000000002 0.12890625 0.45117187500000006
-4.0 -4.0 -4.0
-4.0 -4.0 -4.0
-4.0 -4.0 -4.0
1.8046875 0.2578125 0.12890625
1.8046875 0.2578125 0.193359375
1.8046875 0.25781249999999994 0.2578125
1.8046875 0.2578125 0.32226562500000006
1.8046874999999998 0.2578125 0.38671875
1.8046875 0.2578125 0.45117187500000006
-4.0 -4.0 -4.0
-4.0 -4.0 -4.0
-4.0 -4.0 -4.0
1.8046875000000002 0.38671875 0.12890625
1.8046875 0.38671875 0.193359375
1.8046874999999996 0.38671875 0.2578125
1.8046875 0.38671875000000006 0.32226562500000006
1.8046875000000002 0.38671874999999994 0.38671875000000006
1.8046875 0.38671875 0.451171875
-4.0 -4.0 -4.0
-4.0 -4.0 -4.0
-4.0 -4.0 -4.0
1.8046874999999998 0.515625 0.12890625
1.8046875000000002 0.5156250000000002 0.193359375
1.8046875 0.515625 0.2578125
1.8046874999999998 0.5156249999999999 0.322265625
1.8046875 0.515625 0.38671875
1.8046874999999998 0.515625 0.45117187499999994
-4.0 -4.0 -4.0
-4.0 -4.0 -4.0
-4.0 -4.0 -4.0
1.8046874999999998 0.64453125 0.12890625000000003
1.8046874999999998 0.64453125 0.193359375
1.8046875 0.6445312499999998 0.2578125
1.8046875000000002 0.64453125 0.322265625
1.8046875 0.6445312499999999 0.38671875
-4.0 -4.0 -4.0
-4.0 -4.0 -4.0
-4.0 -4.0 -4.0
-4.0 -4.0 -4.0
1.8046875000000002 0.7734375 0.12890625000000003
1.8046875 0.7734375 0.193359375
1.8046874999999998 0.7734375 0.2578125
1.8046875 0.7734375 0.322265625
1.8046875 0.7734375 0.38671875
-4.0 -4.0 -4.0
-4.0 -4.0 -4.0
-4.0 -4.0 -4.0
-4.0 -4.0 -4.0
-4.0 -4.0 -4.0
-4.0 -4.0 -4.0
-4.0 -4.0 -4.0
-4.0 -4.0 -4.0
-4.0 -4.0 -4.0
-4.0 -4.0 -4.0
-4.0 -4.0 -4.0
-4.0 -4.0 -4.0
-4.0 -4.0 -4.0
-4.0 -4.0 -4.0
-4.0 -4.0 -4.0
-4.0 -4.0 -4.0
-4.0 -4.0 -4.0
-4.0 -4.0 -4.0
-4.0 -4.0 -4.0
-4.0 -4.0 -4.0
-4.0 -4.0 -4.0
-4.0 -4.0 -4.0
-4.0 -4.0 -4.0
-4.0 -4.0 -4.0
-4.0 -4.0 -4.0
-4.0 -4.0 -4.0
-4.0 -4.0 -4.0
-4.0 -4.0 -4.0
-4.0 -4.0 -4.0
-4.0 -4.0 -4.0
-4.0 -4.0 -4.0
-4.0 -4.0 -4.0
-4.0 -4.0 -4.0
-4.0 -4.0 -4.0
-4.0 -4.0 -4.0
-4.0 -4.0 -4.0
-4.0 -4.0 -4.0
-4.0 -4.0 -4.0
-4.0 -4.0 -4.0
-4.0 -4.0 -4.0
-4.0 -4.0 -4.0
-4.0 -4.0 -4.0
-4.0 -4.0 -4.0
-4.0 -4.0 -4.0
-4.0 -4.0 -4.0
-4.0 -4.0 -4.0
-4.0 -4.0 -4.0
-4.0 -4.0 -4.0
-4.0 -4.0 -4.0
-4.0 -4.0 -4.0
-4.0 -4.0 -4.0
-4.0 -4.0 -4.0
-4.0 -4.0 -4.0
-4.0 -4.0 -4.0
-4.0 -4.0 -4.0
-4.0 -4.0 -4.0
-4.0 -4.0 -4.0
-4.0 -4.0 -4.0
-4.0 -4.0 -4.0
-4.0 -4.0 -4.0
-4.0 -4.0 -4.0
-4.0 -4.0 -4.0
-4.0 -4.0 -4.0
-4.0 -4.0 -4.0
-4.0 -4.0 -4.0
-4.0 -4.0 -4.0
-4.0 -4.0 -4.0
-4.0 -4.0 -4.0
-4.0 -4.0 -4.0
-4.0 -4.0 -4.0
-4.0 -4.0 -4.0
-4.0 -4.0 -4.0
-4.0 -4.0 -4.0
-4.0 -4.0 -4.0
-4.0 -4.0 -4.0
-4.0 -4.0 -4.0
-4.0 -4.0 -4.0
-4.0 -4.0 -4.0
-4.0 -4.0 -4.0
-4.0 -4.0 -4.0
-4.0 -4.0 -4.0
-4.0 -4.0 -4.0
-4.0 -4.0 -4.0
-4.0 -4.0 -4.0
-4.0 -4.0 -4.0
-4.0 -4.0 -4.0
-4.0 -4.0 -4.0
-4.0 -4.0 -4.0
-4.0 -4.0 -4.0
-4.0 -4.0 -4.0
-4.0 -4.0 -4.0
-4.0 -4.0 -4.0
-4.0 -4.0 -4.0
-4.0 -4.0 -4.0
-4.0 -4.0 -4.0
-4.0 -4.0 -4.0
-4.0 -4.0 -4.0
-4.0 -4.0 -4.0
-4.0 -4.0 -4.0
-4.0 -4.0 -4.0
-4.0 -4.0 -4.0
