LUTs/nullTransform116.cube

#Loaded 117 keypoints.
# header
LUT_3D_SIZE 9
-4.0 -4.0 -4.0
-4.0 -4.0 -4.0
-4.0 -4.0 -4.0
-4.0 -4.0 -4.0
-4.0 -4.0 -4.0
-4.0 -4.0 -4.0
-4.0 -4.0 -4.0
-4.0 -4.0 -4.0
-4.0 -4.0 -4.0
-4.0 -4.0 -4.0
-4.0 -4.0 -4.0
-4.0 -4.0 -4.0
-4.0 -4.0 -4.0
-4.0 -4.0 -4.0
-4.0 -4.0 -4.0
-4.0 -4.0 -4.0
-4.0 -4.0 -4.0
-4.0 -4.0 -4.0
-4.0 -4.0 -4.0
-4.0 -4.0 -4.0
-4.0 -4.0 -4.0
-4.0 -4.0 -4.0
-4.0 -4.0 -4.0
-4.0 -4.0 -4.0
-4.0 -4.0 -4.0
-4.0 -4.0 -4.0
-4.0 -4.0 -4.0
-4.0 -4.0 -4.0
-4.0 -4.0 -4.0
-4.0 -4.0 -4.0
-4.0 -4.0 -4.0
0.5312500000000001 0.39843750000000006 0.0
-4.0 -4.0 -4.0
-4.0 -4.0 -4.0
-4.0 -4.0 -4.0
-4.0 -4.0 -4.0
-4.0 -4.0 -4.0
-4.0 -4.0 -4.0
0.2656250000000001 0.53125 0.0
0.3984375000000001 0.53125 0.0
-4.0 -4.0 -4.0
-4.0 -4.0 -4.0
-4.0 -4.0 -4.0
-4.0 -4.0 -4.0
-4.0 -4.0 -4.0
-4.0 -4.0 -4.0
-4.0 -4.0 -4.0
0.2656250000000001 0.6640624999999999 0.0
-4.0 -4.0 -4.0
-4.0 -4.0 -4.0
-4.0 -4.0 -4.0
-4.0 -4.0 -4.0
-4.0 -4.0 -4.0
-4.0 -4.0 -4.0
-4.0 -4.0 -4.0
-4.0 -4.0 -4.0
-4.0 -4.0 -4.0
-4.0 -4.0 -4.0
-4.0 -4.0 -4.0
-4.0 -4.0 -4.0
-4.0 -4.0 -4.0
-4.0 -4.0 -4.0
-4.0 -4.0 -4.0
-4.0 -4.0 -4.0
-4.0 -4.0 -4.0
-4.0 -4.0 -4.0
-4.0 -4.0 -4.0
-4.0 -4.0 -4.0
-4.0 -4.0 -4.0
-4.0 -4.0 -4.0
-4.0 -4.0 -4.0
-4.0 -4.0 -4.0
-4.0 -4.0 -4.0
-4.0 -4.0 -4.0
-4.0 -4.0 -4.0
-4.0 -4.0 -4.0
-4.0 -4.0 -4.0
-4.0 -4.0 -4.0
-4.0 -4.0 -4.0
-4.0 -4.0 -4.0
-4.0 -4.0 -4.0
-4.0 -4.0 -4.0
-4.0 -4.0 -4.0
-4.0 -4.0 -4.0
-4.0 -4.0 -4.0
-4.0 -4.0 -4.0
-4.0 -4.0 -4.0
-4.0 -4.0 -4.0
-4.0 -4.0 -4.0
-4.0 -4.0 -4.0
-4.0 -4.0 -4.0
0.1328125 0.1328125 0.1328125
0.26562499999999994 0.13281250000000003 0.1328125
0.3984375 0.1328125 0.1328125
0.53125 0.1328125 0.13281249999999997
0.6640625 0.1328125 0.1328125
0.796875 0.13281249999999997 0.1328125
-4.0 -4.0 -4.0
-4.0 -4.0 -4.0
-4.0 -4.0 -4.0
0.1328125 0.265625 0.1328125
0.265625 0.265625 0.1328125
0.3984375 0.265625 0.1328125
0.53125 0.265625 0.1328125
0.6640625 0.26562499999999994 0.13281249999999997
0.796875 0.265625 0.13281249999999997
-4.0 -4.0 -4.0
-4.0 -4.0 -4.0
-4.0 -4.0 -4.0
0.1328125 0.3984375 0.1328125
0.265625 0.3984375 0.13281250000000003
0.39843750000000006 0.39843750000000006 0.13281250000000003
0.53125 0.39843749999999994 0.1328125
0.6640624999999999 0.39843749999999994 0.13281249999999997
0.796875 0.3984375 0.1328125
-4.0 -4.0 -4.0
-4.0 -4.0 -4.0
0.0 0.53125 0.13281250000000006
0.13281249999999997 0.53125 0.13281250000000006
0.265625 0.53125 0.13281249999999997
0.3984375 0.53125 0.13281249999999997
0.53125 0.53125 0.1328125
0.6640625000000002 0.5312500000000001 0.1328125
0.7968749999999999 0.53125 0.13281249999999997
-4.0 -4.0 -4.0
-4.0 -4.0 -4.0
0.0 0.6640625 0.1328125
0.1328125 0.6640625 0.1328125
0.265625 0.6640625 0.1328125
0.3984375 0.6640625 0.1328125
0.53125 0.6640625 0.1328125
0.6640625000000001 0.6640625 0.1328125
-4.0 -4.0 -4.0
-4.0 -4.0 -4.0
-4.0 -4.0 -4.0
-4.0 -4.0 -4.0
-4.0 -4.0 -4.0
0.2656250000000002 0.7968750000000008 0.13281250000000067
0.3984375 0.7968749999999999 0.13281249999999994
0.53125 0.796875 0.1328125
-4.0 -4.0 -4.0
-4.0 -4.0 -4.0
-4.0 -4.0 -4.0
-4.0 -4.0 -4.0
-4.0 -4.0 -4.0
-4.0 -4.0 -4.0
-4.0 -4.0 -4.0
-4.0 -4.0 -4.0
-4.0 -4.0 -4.0
-4.0 -4.0 -4.0
-4.0 -4.0 -4.0
-4.0 -4.0 -4.0
-4.0 -4.0 -4.0
-4.0 -4.0 -4.0
-4.0 -4.0 -4.0
-4.0 -4.0 -4.0
-4.0 -4.0 -4.0
-4.0 -4.0 -4.0
-4.0 -4.0 -4.0
-4.0 -4.0 -4.0
-4.0 -4.0 -4.0
-4.0 -4.0 -4.0
-4.0 -4.0 -4.0
-4.0 -4.0 -4.0
-4.0 -4.0 -4.0
-4.0 -4.0 -4.0
-4.0 -4.0 -4.0
-4.0 -4.0 -4.0
-4.0 -4.0 -4.0
-4.0 -4.0 -4.0
-4.0 -4.0 -4.0
-4.0 -4.0 -4.0
0.1328125 0.1328125 0.265625
0.265625 0.13281250000000003 0.265625
0.3984375 0.1328125 0.265625
0.53125 0.1328125 0.265625
0.6640625 0.13281249999999997 0.265625
0.796875 0.1328125 0.265625
-4.0 -4.0 -4.0
-4.0 -4.0 -4.0
-4.0 -4.0 -4.0
0.13281250000000003 0.26562500000000006 0.265625
0.265625 0.265625 0.265625
0.3984375 0.265625 0.265625
0.5312500000000001 0.26562500000000006 0.265625
0.6640625000000001 0.26562500000000006 0.265625
0.796875 0.26562499999999994 0.26562499999999994
-4.0 -4.0 -4.0
-4.0 -4.0 -4.0
-4.0 -4.0 -4.0
0.1328125 0.39843749999999994 0.26562499999999994
0.265625 0.3984375 0.265625
0.3984375 0.3984375 0.265625
0.53125 0.3984375 0.265625
0.6640625 0.3984375 0.265625
0.796875 0.3984375 0.26562499999999994
-4.0 -4.0 -4.0
-4.0 -4.0 -4.0
0.0 0.53125 0.265625
0.13281249999999994 0.53125 0.26562500000000006
0.265625 0.53125 0.265625
0.39843750000000006 0.53125 0.265625
0.53125 0.53125 0.265625
0.6640625 0.53125 0.265625
0.796875 0.53125 0.265625
-4.0 -4.0 -4.0
-4.0 -4.0 -4.0
0.0 0.6640625 0.265625
0.13281249999999997 0.6640625 0.26562499999999994
0.265625 0.6640624999999999 0.26562499999999994
0.39843749999999994 0.6640624999999999 0.265625
0.53125 0.6640625 0.265625
0.6640625 0.6640624999999999 0.265625
0.796875 0.6640625 0.265625
-4.0 -4.0 -4.0
-4.0 -4.0 -4.0
0.0 0.796875 0.265625
0.1328125 0.796875 0.265625
0.265625 0.796875 0.265625
0.39843750000000006 0.7968749999999999 0.265625
0.53125 0.796875 0.265625
0.6640625 0.796875 0.265625
0.796875 0.796875 0.265625
-4.0 -4.0 -4.0
-4.0 -4.0 -4.0
-4.0 -4.0 -4.0
-4.0 -4.0 -4.0
-4.0 -4.0 -4.0
0.3984375 0.9296875000000001 0.265625
0.53125 0.9296875 0.265625
0.6640624999999999 0.9296875 0.265625
-4.0 -4.0 -4.0
-4.0 -4.0 -4.0
-4.0 -4.0 -4.0
-4.0 -4.0 -4.0
-4.0 -4.0 -4.0
-4.0 -4.0 -4.0
-4.0 -4.0 -4.0
-4.0 -4.0 -4.0
-4.0 -4.0 -4.0
-4.0 -4.0 -4.0
-4.0 -4.0 -4.0
-4.0 -4.0 -4.0
-4.0 -4.0 -4.0
-4.0 -4.0 -4.0
-4.0 -4.0 -4.0
-4.0 -4.0 -4.0
-4.0 -4.0 -4.0
-4.0 -4.0 -4.0
-4.0 -4.0 -4.0
-4.0 -4.0 -4.0
-4.0 -4.0 -4.0
-4.0 -4.0 -4.0
0.1328125 0.1328125 0.3984375
0.265625 0.1328125 0.39843750000000006
0.39843750000000006 0.13281250000000003 0.39843750000000006
0.5312499999999999 0.13281249999999997 0.3984375
0.6640625 0.13281249999999997 0.3984375
0.796875 0.1328125 0.3984375
-4.0 -4.0 -4.0
-4.0 -4.0 -4.0
-4.0 -4.0 -4.0
0.13281249999999997 0.265625 0.3984375
0.265625 0.265625 0.3984375
0.3984375 0.265625 0.3984375
0.53125 0.265625 0.3984375
0.6640625 0.265625 0.3984375
0.7968750000000001 0.26562499999999994 0.39843750000000006
-4.0 -4.0 -4.0
-4.0 -4.0 -4.0
0.0 0.3984375 0.3984375
0.13281249999999997 0.39843750000000006 0.3984375
0.265625 0.3984375 0.3984375
0.3984375 0.39843749999999994 0.39843749999999994
0.53125 0.39843749999999994 0.3984375
0.6640624999999999 0.3984375 0.3984375
0.7968750000000001 0.3984374999999999 0.39843750000000006
-4.0 -4.0 -4.0
-4.0 -4.0 -4.0
4.6007118556585695e-18 0.53125 0.3984374999999999
0.1328125 0.53125 0.3984375
0.265625 0.53125 0.3984375
0.3984375 0.53125 0.3984375
0.5312499999999999 0.53125 0.39843749999999994
0.6640625 0.53125 0.3984375
0.796875 0.53125 0.3984375
-4.0 -4.0 -4.0
-4.0 -4.0 -4.0
0.0 0.6640625000000001 0.3984375
0.13281249999999997 0.6640625 0.39843749999999994
0.265625 0.6640625 0.3984375
0.3984375 0.6640624999999999 0.3984375
0.53125 0.6640625 0.3984375
0.6640625 0.6640625000000001 0.3984375
0.796875 0.6640625 0.3984375
-4.0 -4.0 -4.0
-4.0 -4.0 -4.0
0.0 0.796875 0.3984375
0.1328125 0.796875 0.3984375
0.26562499999999994 0.796875 0.3984375
0.3984375 0.796875 0.3984375
0.53125 0.796875 0.3984375
0.6640624999999999 0.796875 0.39843749999999994
0.796875 0.7968750000000001 0.3984375
-4.0 -4.0 -4.0
-4.0 -4.0 -4.0
-4.0 -4.0 -4.0
0.1328125 0.9296875000000001 0.3984375
0.265625 0.9296875 0.3984375
0.39843749999999994 0.9296875 0.3984375
0.53125 0.9296875 0.3984375
0.6640625 0.9296875 0.39843750000000006
0.7968750000000001 0.9296875 0.3984375
-4.0 -4.0 -4.0
-4.0 -4.0 -4.0
-4.0 -4.0 -4.0
-4.0 -4.0 -4.0
-4.0 -4.0 -4.0
-4.0 -4.0 -4.0
-4.0 -4.0 -4.0
-4.0 -4.0 -4.0
-4.0 -4.0 -4.0
-4.0 -4.0 -4.0
-4.0 -4.0 -4.0
-4.0 -4.0 -4.0
-4.0 -4.0 -4.0
0.265625 0.0 0.53125
0.39843750000000006 -8.239936510889832e-18 0.53125
0.53125 6.938893903907228e-18 0.5312500000000001
0.6640625 2.5638192549363164e-18 0.53125
0.796875 -3.673532066774419e-18 0.53125
-4.0 -4.0 -4.0
-4.0 -4.0 -4.0
-4.0 -4.0 -4.0
0.1328125 0.1328125 0.53125
0.265625 0.1328125 0.53125
0.3984375 0.13281249999999997 0.53125
0.53125 0.1328125 0.53125
0.6640625 0.13281249999999997 0.53125
0.796875 0.13281249999999997 0.53125
0.9296875000000001 0.13281249999999997 0.53125
-4.0 -4.0 -4.0
0.0 0.26562499999999994 0.53125
0.1328125 0.265625 0.53125
0.265625 0.265625 0.53125
0.3984375 0.265625 0.53125
0.53125 0.265625 0.53125
0.6640625 0.265625 0.5312499999999999
0.796875 0.265625 0.53125
0.9296875 0.265625 0.53125
-4.0 -4.0 -4.0
2.2977168961721193e-18 0.3984375 0.53125
0.1328125 0.3984375 0.53125
0.265625 0.3984375 0.53125
0.3984375 0.3984375 0.53125
0.53125 0.3984375 0.53125
0.6640624999999999 0.3984375 0.53125
0.796875 0.3984375 0.5312500000000001
0.9296875000000001 0.39843750000000006 0.53125
-4.0 -4.0 -4.0
3.0753515578168953e-18 0.53125 0.53125
0.13281249999999997 0.53125 0.53125
0.26562499999999994 0.53125 0.53125
0.3984375 0.53125 0.53125
0.53125 0.53125 0.53125
0.6640625 0.53125 0.53125
0.796875 0.53125 0.53125
0.9296875 0.5312500000000001 0.53125
-4.0 -4.0 -4.0
0.0 0.6640625 0.53125
0.1328125 0.6640625 0.53125
0.265625 0.6640625 0.53125
0.3984375 0.6640625 0.53125
0.53125 0.6640625 0.53125
0.6640625 0.6640625 0.53125
0.7968749999999999 0.6640625 0.53125
-4.0 -4.0 -4.0
-4.0 -4.0 -4.0
-2.7755575615628914e-17 0.7968749999999999 0.5312500000000001
0.13281249999999997 0.796875 0.5312499999999999
0.2656249999999999 0.7968750000000001 0.5312499999999999
0.39843750000000006 0.796875 0.53125
0.53125 0.796875 0.53125
0.6640625 0.796875 0.5312500000000001
0.7968750000000001 0.7968750000000001 0.5312500000000001
-4.0 -4.0 -4.0
-4.0 -4.0 -4.0
-4.0 -4.0 -4.0
-4.0 -4.0 -4.0
0.265625 0.9296875 0.53125
0.3984375 0.9296875 0.53125
0.53125 0.9296875000000001 0.5312500000000001
-4.0 -4.0 -4.0
-4.0 -4.0 -4.0
-4.0 -4.0 -4.0
-4.0 -4.0 -4.0
-4.0 -4.0 -4.0
-4.0 -4.0 -4.0
-4.0 -4.0 -4.0
-4.0 -4.0 -4.0
-4.0 -4.0 -4.0
-4.0 -4.0 -4.0
-4.0 -4.0 -4.0
-4.0 -4.0 -4.0
-4.0 -4.0 -4.0
-4.0 -4.0 -4.0
-4.0 -4.0 -4.0
0.265625 0.0 0.6640625
0.3984375 -8.673617379884035e-18 0.6640625
0.53125 -5.204170427930421e-18 0.6640624999999999
0.6640625 -1.2723431377109301e-17 0.6640624999999999
-4.0 -4.0 -4.0
-4.0 -4.0 -4.0
-4.0 -4.0 -4.0
0.0 0.1328125 0.6640625
0.1328125 0.1328125 0.6640625
0.265625 0.13281249999999997 0.6640625
0.3984375 0.1328125 0.6640625
0.53125 0.1328125 0.6640625
0.6640625 0.1328125 0.6640625
0.796875 0.13281249999999997 0.6640625
-4.0 -4.0 -4.0
-4.0 -4.0 -4.0
0.0 0.265625 0.6640625
0.1328125 0.265625 0.6640625
0.265625 0.265625 0.6640625
0.39843749999999994 0.26562499999999994 0.6640625
0.53125 0.265625 0.6640625
0.6640625 0.265625 0.6640625
0.796875 0.265625 0.6640625
-4.0 -4.0 -4.0
-4.0 -4.0 -4.0
-9.627077525687462e-18 0.3984375 0.6640625
0.1328125 0.3984375 0.6640625
0.265625 0.39843749999999994 0.6640625
0.39843750000000006 0.3984375000000001 0.6640625
0.53125 0.3984375 0.6640625
0.6640625 0.3984375 0.6640625
0.796875 0.39843749999999994 0.6640624999999999
0.9296875 0.3984375 0.6640625
-4.0 -4.0 -4.0
-2.437222707149032e-17 0.53125 0.6640625
0.1328125 0.5312500000000001 0.6640625
0.26562499999999994 0.5312499999999999 0.6640624999999999
0.3984375 0.53125 0.6640624999999999
0.53125 0.53125 0.6640625
0.6640625 0.53125 0.6640625
0.7968750000000001 0.53125 0.6640625
0.9296875000000001 0.53125 0.6640625
-4.0 -4.0 -4.0
-3.911737661729318e-17 0.6640624999999999 0.6640625
0.1328125 0.6640625 0.6640625
0.265625 0.6640625 0.6640625
0.39843749999999994 0.6640625 0.6640625
0.5312499999999999 0.6640625 0.6640625
0.6640624999999999 0.6640625 0.6640624999999999
0.796875 0.6640625 0.6640625
-4.0 -4.0 -4.0
-4.0 -4.0 -4.0
-4.0 -4.0 -4.0
0.13281250000000003 0.796875 0.6640624999999999
0.265625 0.796875 0.6640625000000001
0.3984375 0.796875 0.6640624999999999
0.53125 0.796875 0.6640625
0.6640625 0.7968750000000001 0.6640625000000001
0.796875 0.7968750000000001 0.6640625
-4.0 -4.0 -4.0
-4.0 -4.0 -4.0
-4.0 -4.0 -4.0
-4.0 -4.0 -4.0
-4.0 -4.0 -4.0
-4.0 -4.0 -4.0
-4.0 -4.0 -4.0
-4.0 -4.0 -4.0
-4.0 -4.0 -4.0
-4.0 -4.0 -4.0
-4.0 -4.0 -4.0
-4.0 -4.0 -4.0
-4.0 -4.0 -4.0
-4.0 -4.0 -4.0
-4.0 -4.0 -4.0
-4.0 -4.0 -4.0
-4.0 -4.0 -4.0
-4.0 -4.0 -4.0
-4.0 -4.0 -4.0
-4.0 -4.0 -4.0
-4.0 -4.0 -4.0
-4.0 -4.0 -4.0
0.265625 -2.168404344971009e-18 0.796875
0.39843750000000006 0.0 0.796875
0.53125 0.0 0.796875
-4.0 -4.0 -4.0
-4.0 -4.0 -4.0
-4.0 -4.0 -4.0
-4.0 -4.0 -4.0
-4.0 -4.0 -4.0
0.1328125 0.1328125 0.796875
0.265625 0.1328125 0.796875
0.39843750000000006 0.1328125 0.796875
0.53125 0.1328125 0.7968749999999999
0.6640625000000001 0.1328125 0.796875
-4.0 -4.0 -4.0
-4.0 -4.0 -4.0
-4.0 -4.0 -4.0
-4.0 -4.0 -4.0
0.1328125 0.265625 0.796875
0.265625 0.265625 0.796875
0.3984375 0.265625 0.796875
0.53125 0.26562500000000006 0.7968750000000001
0.6640625 0.26562499999999994 0.7968749999999999
0.796875 0.265625 0.796875
-4.0 -4.0 -4.0
-4.0 -4.0 -4.0
5.204170427930421e-17 0.3984374999999999 0.796875
0.1328125 0.3984375 0.796875
0.265625 0.3984375 0.796875
0.3984375 0.3984375 0.7968750000000001
0.53125 0.3984375 0.796875
0.6640625 0.3984375 0.796875
0.7968750000000001 0.3984374999999999 0.796875
-4.0 -4.0 -4.0
-4.0 -4.0 -4.0
1.9643192301502076e-18 0.53125 0.7968749999999999
0.1328125 0.53125 0.7968750000000001
0.265625 0.53125 0.796875
0.3984375 0.53125 0.796875
0.53125 0.53125 0.796875
0.6640625 0.53125 0.7968750000000001
0.796875 0.53125 0.7968750000000001
0.9296875000000003 0.5312500000000004 0.7968749999999999
-4.0 -4.0 -4.0
-4.0 -4.0 -4.0
0.13281249999999997 0.6640624999999999 0.7968749999999999
0.265625 0.6640625 0.796875
0.39843749999999994 0.6640625 0.7968749999999998
0.53125 0.6640625 0.796875
0.6640624999999999 0.6640625 0.796875
0.796875 0.6640625 0.796875
0.9296875000000002 0.6640624999999999 0.796875
-4.0 -4.0 -4.0
-4.0 -4.0 -4.0
0.13281250000000003 0.7968750000000001 0.796875
0.26562499999999994 0.7968749999999999 0.7968749999999999
0.3984375 0.796875 0.796875
0.5312499999999999 0.796875 0.796875
0.6640625 0.796875 0.7968750000000001
0.796875 0.796875 0.7968750000000001
-4.0 -4.0 -4.0
-4.0 -4.0 -4.0
-4.0 -4.0 -4.0
-4.0 -4.0 -4.0
-4.0 -4.0 -4.0
-4.0 -4.0 -4.0
-4.0 -4.0 -4.0
-4.0 -4.0 -4.0
-4.0 -4.0 -4.0
-4.0 -4.0 -4.0
-4.0 -4.0 -4.0
-4.0 -4.0 -4.0
-4.0 -4.0 -4.0
-4.0 -4.0 -4.0
-4.0 -4.0 -4.0
-4.0 -4.0 -4.0
-4.0 -4.0 -4.0
-4.0 -4.0 -4.0
-4.0 -4.0 -4.0
-4.0 -4.0 -4.0
-4.0 -4.0 -4.0
-4.0 -4.0 -4.0
0.265625 0.0 0.9296875000000001
0.3984375 0.0 0.9296875
-4.0 -4.0 -4.0
-4.0 -4.0 -4.0
-4.0 -4.0 -4.0
-4.0 -4.0 -4.0
-4.0 -4.0 -4.0
-4.0 -4.0 -4.0
-4.0 -4.0 -4.0
0.265625 0.1328125 0.9296875
0.3984375 0.1328125 0.9296874999999999
0.53125 0.1328125 0.9296875000000002
-4.0 -4.0 -4.0
-4.0 -4.0 -4.0
-4.0 -4.0 -4.0
-4.0 -4.0 -4.0
-4.0 -4.0 -4.0
0.1328125 0.265625 0.9296875
0.265625 0.265625 0.9296875
0.39843749999999994 0.265625 0.9296875
0.53125 0.265625 0.9296875000000001
-4.0 -4.0 -4.0
-4.0 -4.0 -4.0
-4.0 -4.0 -4.0
-4.0 -4.0 -4.0
-4.0 -4.0 -4.0
0.1328125 0.3984375 0.9296875
0.265625 0.3984375 0.9296875
0.39843750000000006 0.3984375000000001 0.9296875
0.53125 0.39843750000000006 0.9296875
-4.0 -4.0 -4.0
-4.0 -4.0 -4.0
-4.0 -4.0 -4.0
-4.0 -4.0 -4.0
-4.0 -4.0 -4.0
0.1328125 0.53125 0.9296875
0.265625 0.53125 0.9296875
0.3984375 0.5312500000000001 0.9296875000000001
0.53125 0.53125 0.9296875
-4.0 -4.0 -4.0
-4.0 -4.0 -4.0
-4.0 -4.0 -4.0
-4.0 -4.0 -4.0
-4.0 -4.0 -4.0
0.1328125 0.6640625 0.9296875
0.265625 0.6640625 0.9296875
-4.0 -4.0 -4.0
-4.0 -4.0 -4.0
-4.0 -4.0 -4.0
-4.0 -4.0 -4.0
-4.0 -4.0 -4.0
-4.0 -4.0 -4.0
-4.0 -4.0 -4.0
0.1328125 0.796875 0.9296875000000001
-4.0 -4.0 -4.0
-4.0 -4.0 -4.0
-4.0 -4.0 -4.0
-4.0 -4.0 -4.0
-4.0 -4.0 -4.0
-4.0 -4.0 -4.0
-4.0 -4.0 -4.0
-4.0 -4.0 -4.0
-4.0 -4.0 -4.0
-4.0 -4.0 -4.0
-4.0 -4.0 -4.0
-4.0 -4.0 -4.0
-4.0 -4.0 -4.0
-4.0 -4.0 -4.0
-4.0 -4.0 -4.0
-4.0 -4.0 -4.0
-4.0 -4.0 -4.0
-4.0 -4.0 -4.0
-4.0 -4.0 -4.0
-4.0 -4.0 -4.0
-4.0 -4.0 -4.0
-4.0 -4.0 -4.0
-4.0 -4.0 -4.0
-4.0 -4.0 -4.0
-4.0 -4.0 -4.0
-4.0 -4.0 -4.0
-4.0 -4.0 -4.0
-4.0 -4.0 -4.0
-4.0 -4.0 -4.0
-4.0 -4.0 -4.0
-4.0 -4.0 -4.0
-4.0 -4.0 -4.0
-4.0 -4.0 -4.0
-4.0 -4.0 -4.0
-4.0 -4.0 -4.0
-4.0 -4.0 -4.0
-4.0 -4.0 -4.0
-4.0 -4.0 -4.0
-4.0 -4.0 -4.0
-4.0 -4.0 -4.0
-4.0 -4.0 -4.0
-4.0 -4.0 -4.0
-4.0 -4.0 -4.0
-4.0 -4.0 -4.0
-4.0 -4.0 -4.0
-4.0 -4.0 -4.0
-4.0 -4.0 -4.0
-4.0 -4.0 -4.0
-4.0 -4.0 -4.0
-4.0 -4.0 -4.0
-4.0 -4.0 -4.0
-4.0 -4.0 -4.0
-4.0 -4.0 -4.0
-4.0 -4.0 -4.0
-4.0 -4.0 -4.0
-4.0 -4.0 -4.0
-4.0 -4.0 -4.0
-4.0 -4.0 -4.0
-4.0 -4.0 -4.0
-4.0 -4.0 -4.0
-4.0 -4.0 -4.0
-4.0 -4.0 -4.0
-4.0 -4.0 -4.0
-4.0 -4.0 -4.0
-4.0 -4.0 -4.0
-4.0 -4.0 -4.0
-4.0 -4.0 -4.0
-4.0 -4.0 -4.0
-4.0 -4.0 -4.0
-4.0 -4.0 -4.0
-4.0 -4.0 -4.0
-4.0 -4.0 -4.0
-4.0 -4.0 -4.0
-4.0 -4.0 -4.0
-4.0 -4.0 -4.0
-4.0 -4.0 -4.0
-4.0 -4.0 -4.0
-4.0 -4.0 -4.0
-4.0 -4.0 -4.0
-4.0 -4.0 -4.0
-4.0 -4.0 -4.0
-4.0 -4.0 -4.0
-4.0 -4.0 -4.0
-4.0 -4.0 -4.0
-4.0 -4.0 -4.0
-4.0 -4.0 -4.0
-4.0 -4.0 -4.0
-4.0 -4.0 -4.0
-4.0 -4.0 -4.0
-4.0 -4.0 -4.0
-4.0 -4.0 -4.0
-4.0 -4.0 -4.0
-4.0 -4.0 -4.0
-4.0 -4.0 -4.0
-4.0 -4.0 -4.0
-4.0 -4.0 -4.0
-4.0 -4.0 -4.0
-4.0 -4.0 -4.0
-4.0 -4.0 -4.0
-4.0 -4.0 -4.0
-4.0 -4.0 -4.0
-4.0 -4.0 -4.0
-4.0 -4.0 -4.0
-4.0 -4.0 -4.0
-4.0 -4.0 -4.0
-4.0 -4.0 -4.0
