LUTs/orangeAndTeal_interp.cube
#Loaded 117 keypoints.
# header
LUT_3D_SIZE 5
-4.0 -4.0 -4.0
-4.0 -4.0 -4.0
-4.0 -4.0 -4.0
-4.0 -4.0 -4.0
-4.0 -4.0 -4.0
-4.0 -4.0 -4.0
-4.0 -4.0 -4.0
-4.0 -4.0 -4.0
-4.0 -4.0 -4.0
-4.0 -4.0 -4.0
-4.0 -4.0 -4.0
-4.0 -4.0 -4.0
-4.0 -4.0 -4.0
-4.0 -4.0 -4.0
-4.0 -4.0 -4.0
-4.0 -4.0 -4.0
-4.0 -4.0 -4.0
-4.0 -4.0 -4.0
-4.0 -4.0 -4.0
-4.0 -4.0 -4.0
-4.0 -4.0 -4.0
-4.0 -4.0 -4.0
-4.0 -4.0 -4.0
-4.0 -4.0 -4.0
-4.0 -4.0 -4.0
-4.0 -4.0 -4.0
-4.0 -4.0 -4.0
0.227998025781457 -0.00875677344061647 0.5441434622153108
-4.0 -4.0 -4.0
-4.0 -4.0 -4.0
-4.0 -4.0 -4.0
0.24177637047463388 0.25338308156536404 0.3152587787452654
0.24551813700489877 0.2500779120848097 0.536855299472159
0.23668542073573745 0.24736021686112747 0.8081216734523466
-4.0 -4.0 -4.0
-4.0 -4.0 -4.0
0.24268396638897224 0.5083463394551625 0.2992624349526685
0.22770707798823459 0.5077492556790759 0.5091798703250909
0.229004736867134 0.5078754281022262 0.7639461901422883
-4.0 -4.0 -4.0
-4.0 -4.0 -4.0
0.23684519058409803 0.7622676323044948 0.3000627373046474
0.23811498325934655 0.7618711589781779 0.5065261083495428
0.2378808028291084 0.7626089625400153 0.738790408785339
-4.0 -4.0 -4.0
-4.0 -4.0 -4.0
-4.0 -4.0 -4.0
-4.0 -4.0 -4.0
-4.0 -4.0 -4.0
-4.0 -4.0 -4.0
-4.0 -4.0 -4.0
-4.0 -4.0 -4.0
0.4975278098641421 -0.0027172188906110306 0.5270885499110043
0.5144610402129564 -0.008828898222722328 0.7711159889595992
-4.0 -4.0 -4.0
-4.0 -4.0 -4.0
0.5078359631256824 0.2538963967925792 0.30178103201529544
0.510333181803772 0.25082567626029084 0.5165591672727231
0.512921261135487 0.24656900088302655 0.7745423451997331
-4.0 -4.0 -4.0
-4.0 -4.0 -4.0
0.5096270517504491 0.5098233003861504 0.27019790363634144
0.5086524155028928 0.5077074326916908 0.5040780932547498
0.50635153751012 0.5055269079919592 0.7597440160393565
-4.0 -4.0 -4.0
-4.0 -4.0 -4.0
0.5180722093361647 0.7628401877435923 0.2903098861979828
0.5074138805557077 0.7623586735497246 0.5048364272271528
0.5054252772939923 0.7625391427260153 0.7473123044502441
-4.0 -4.0 -4.0
-4.0 -4.0 -4.0
-4.0 -4.0 -4.0
-4.0 -4.0 -4.0
-4.0 -4.0 -4.0
-4.0 -4.0 -4.0
-4.0 -4.0 -4.0
-4.0 -4.0 -4.0
0.8013821488135145 -0.0007881059870881749 0.513401531895612
0.7723155522512059 -0.0017440956758542165 0.7537933326222822
-4.0 -4.0 -4.0
-4.0 -4.0 -4.0
0.7785547232186352 0.2536285243652486 0.3006561012179758
0.7714038180350326 0.2538369413876358 0.504499828998759
0.7670720219612118 0.2536813243002209 0.74459653938317
-4.0 -4.0 -4.0
-4.0 -4.0 -4.0
0.7860977068225421 0.5052083871952279 0.2943320621090096
0.7819693240769731 0.5072403731939243 0.5074797294388589
0.7864805356665121 0.5043123970656765 0.7633801780852769
-4.0 -4.0 -4.0
-4.0 -4.0 -4.0
0.8074562544948285 0.7636759988631991 0.264971723122308
0.7805301890665379 0.7640825824211201 0.49147546956929156
0.7756818175449991 0.7617187280562813 0.7479038492392858
-4.0 -4.0 -4.0
-4.0 -4.0 -4.0
-4.0 -4.0 -4.0
-4.0 -4.0 -4.0
-4.0 -4.0 -4.0
-4.0 -4.0 -4.0
-4.0 -4.0 -4.0
-4.0 -4.0 -4.0
-4.0 -4.0 -4.0
-4.0 -4.0 -4.0
-4.0 -4.0 -4.0
-4.0 -4.0 -4.0
-4.0 -4.0 -4.0
-4.0 -4.0 -4.0
-4.0 -4.0 -4.0
-4.0 -4.0 -4.0
-4.0 -4.0 -4.0
-4.0 -4.0 -4.0
-4.0 -4.0 -4.0
-4.0 -4.0 -4.0
-4.0 -4.0 -4.0
-4.0 -4.0 -4.0
-4.0 -4.0 -4.0
-4.0 -4.0 -4.0
-4.0 -4.0 -4.0
-4.0 -4.0 -4.0
-4.0 -4.0 -4.0
-4.0 -4.0 -4.0
-4.0 -4.0 -4.0
-4.0 -4.0 -4.0
-4.0 -4.0 -4.0
