LUTs/orangeAndTeal_interp.cube
#Loaded 117 keypoints.
# header
LUT_3D_SIZE 9
-4.0 -4.0 -4.0
-4.0 -4.0 -4.0
-4.0 -4.0 -4.0
-4.0 -4.0 -4.0
-4.0 -4.0 -4.0
-4.0 -4.0 -4.0
-4.0 -4.0 -4.0
-4.0 -4.0 -4.0
-4.0 -4.0 -4.0
-4.0 -4.0 -4.0
-4.0 -4.0 -4.0
-4.0 -4.0 -4.0
-4.0 -4.0 -4.0
-4.0 -4.0 -4.0
-4.0 -4.0 -4.0
-4.0 -4.0 -4.0
-4.0 -4.0 -4.0
-4.0 -4.0 -4.0
-4.0 -4.0 -4.0
-4.0 -4.0 -4.0
-4.0 -4.0 -4.0
-4.0 -4.0 -4.0
-4.0 -4.0 -4.0
-4.0 -4.0 -4.0
-4.0 -4.0 -4.0
-4.0 -4.0 -4.0
-4.0 -4.0 -4.0
-4.0 -4.0 -4.0
-4.0 -4.0 -4.0
-4.0 -4.0 -4.0
-4.0 -4.0 -4.0
-4.0 -4.0 -4.0
-4.0 -4.0 -4.0
-4.0 -4.0 -4.0
-4.0 -4.0 -4.0
-4.0 -4.0 -4.0
-4.0 -4.0 -4.0
-4.0 -4.0 -4.0
-4.0 -4.0 -4.0
-4.0 -4.0 -4.0
-4.0 -4.0 -4.0
-4.0 -4.0 -4.0
-4.0 -4.0 -4.0
-4.0 -4.0 -4.0
-4.0 -4.0 -4.0
-4.0 -4.0 -4.0
-4.0 -4.0 -4.0
-4.0 -4.0 -4.0
-4.0 -4.0 -4.0
-4.0 -4.0 -4.0
-4.0 -4.0 -4.0
-4.0 -4.0 -4.0
-4.0 -4.0 -4.0
-4.0 -4.0 -4.0
-4.0 -4.0 -4.0
-4.0 -4.0 -4.0
-4.0 -4.0 -4.0
-4.0 -4.0 -4.0
-4.0 -4.0 -4.0
-4.0 -4.0 -4.0
-4.0 -4.0 -4.0
-4.0 -4.0 -4.0
-4.0 -4.0 -4.0
-4.0 -4.0 -4.0
-4.0 -4.0 -4.0
-4.0 -4.0 -4.0
-4.0 -4.0 -4.0
-4.0 -4.0 -4.0
-4.0 -4.0 -4.0
-4.0 -4.0 -4.0
-4.0 -4.0 -4.0
-4.0 -4.0 -4.0
-4.0 -4.0 -4.0
-4.0 -4.0 -4.0
-4.0 -4.0 -4.0
-4.0 -4.0 -4.0
-4.0 -4.0 -4.0
-4.0 -4.0 -4.0
-4.0 -4.0 -4.0
-4.0 -4.0 -4.0
-4.0 -4.0 -4.0
-4.0 -4.0 -4.0
-4.0 -4.0 -4.0
-4.0 -4.0 -4.0
-4.0 -4.0 -4.0
-4.0 -4.0 -4.0
-4.0 -4.0 -4.0
-4.0 -4.0 -4.0
-4.0 -4.0 -4.0
-4.0 -4.0 -4.0
-4.0 -4.0 -4.0
0.09963229617231781 0.12649819065909207 0.20494876592100425
0.09517152018502409 0.12423856495239219 0.3066572937780259
0.09441727003462198 0.12213157903148066 0.41941406865961667
0.09475620345640628 0.1223049243836501 0.557436831634475
0.10058535433800089 0.12188820121758795 0.6837157061946432
0.09646215319134545 0.11977824753888616 0.8129274133952594
-4.0 -4.0 -4.0
-4.0 -4.0 -4.0
-4.0 -4.0 -4.0
0.09894987602185792 0.2553652038406406 0.16715076100707343
0.10515625014701291 0.2539172319782539 0.3040610878795311
0.1085140608373768 0.252140363524554 0.40529540041893464
0.09614478109007733 0.25294934255760876 0.5383835661949372
0.09199556975993353 0.2532443812414391 0.6770098275956291
0.08240758283780081 0.251639434351373 0.8017347644154821
-4.0 -4.0 -4.0
-4.0 -4.0 -4.0
-4.0 -4.0 -4.0
0.09614860957748471 0.38209572163246075 0.16593983737916268
0.1093832152848098 0.38135680892473806 0.28756742974144894
0.10634993250704886 0.3804361249882068 0.3957106394862604
0.07407146682671206 0.38238016284425913 0.5217375203754407
0.06754842530316364 0.38389579594127327 0.6547281034238714
0.08336108944301131 0.38365879687545645 0.7822603286218106
0.09087641680243512 0.3812633468626998 0.9185932261716648
-4.0 -4.0 -4.0
-4.0 -4.0 -4.0
0.09550161730805677 0.507970984368971 0.19957377599945536
0.10411373094484186 0.5079260240083802 0.2955862923160979
0.10239545025686037 0.5078206320508272 0.3906323593884735
0.08075049989125255 0.5080871819821808 0.5103429235817697
0.0793364243454314 0.509045698900514 0.6378733229817923
0.08700712451093548 0.5100636160935662 0.7627834422931186
0.09272978141179518 0.5097308413096258 0.9006825679259993
-4.0 -4.0 -4.0
-4.0 -4.0 -4.0
0.089016810264475 0.6348902323742496 0.2092543526942352
0.09915265422156505 0.6347656723143401 0.29907596223845756
0.09664417868159252 0.6347656188258785 0.39847581885079036
0.08736462018830135 0.6349791796564341 0.5097112110969255
0.08446975729602674 0.6353409018102855 0.627057567440056
0.08810675056486211 0.6354812534347487 0.7443831503067938
-4.0 -4.0 -4.0
-4.0 -4.0 -4.0
-4.0 -4.0 -4.0
0.08865262680091635 0.7621993764337208 0.18826605369020188
0.09482676924840044 0.7617187976825036 0.30720516557247224
0.09244200201864594 0.76171875940357 0.4054591335313953
0.08962129543677588 0.7618053717865991 0.5079301677289458
0.091810189305651 0.7621764308652856 0.6243431840502472
0.0950028626072078 0.7624273996560601 0.7379095855569505
-4.0 -4.0 -4.0
-4.0 -4.0 -4.0
-4.0 -4.0 -4.0
-4.0 -4.0 -4.0
0.09054483466227403 0.889241935305413 0.27490316865292486
0.09210867431068125 0.8889022576405692 0.3924129510091416
0.09586029250560157 0.8886718588656392 0.5084250949323177
0.10413189463836109 0.8886718815208386 0.6237925542344553
0.11737874993257987 0.8887278263028895 0.7449236812722825
-4.0 -4.0 -4.0
-4.0 -4.0 -4.0
-4.0 -4.0 -4.0
-4.0 -4.0 -4.0
-4.0 -4.0 -4.0
-4.0 -4.0 -4.0
-4.0 -4.0 -4.0
-4.0 -4.0 -4.0
-4.0 -4.0 -4.0
-4.0 -4.0 -4.0
-4.0 -4.0 -4.0
-4.0 -4.0 -4.0
-4.0 -4.0 -4.0
-4.0 -4.0 -4.0
0.22056905310062064 -0.005825193766752953 0.4222315552342963
0.227998025781457 -0.00875677344061647 0.5441434622153108
0.24044890537947697 -0.012289621193994215 0.668253575373127
-4.0 -4.0 -4.0
-4.0 -4.0 -4.0
-4.0 -4.0 -4.0
-4.0 -4.0 -4.0
0.2414749794091384 0.1261600992092265 0.21918023571546139
0.23083000839661763 0.12397694615154756 0.31221516277427375
0.23306629163977527 0.12224781688917104 0.42539820195268474
0.23752775957945776 0.12032542977508925 0.5413859866697477
0.24620782622940113 0.11825285111178027 0.6671175641811791
0.25167683156579956 0.11573954797256839 0.8054488314688177
0.24975263854672544 0.11276740332225729 0.9482805010088525
-4.0 -4.0 -4.0
-4.0 -4.0 -4.0
0.23744928811684812 0.25458548279001286 0.20264079721760025
0.24177637047463388 0.25338308156536404 0.3152587787452654
0.2454739112957898 0.25215546090757585 0.41021237246884396
0.24551813700489877 0.2500779120848097 0.536855299472159
0.24417194238334447 0.24799357880564615 0.6757810023047142
0.23668542073573745 0.24736021686112747 0.8081216734523466
0.23726266993737008 0.24463671778700125 0.9522251105818014
-4.0 -4.0 -4.0
-4.0 -4.0 -4.0
0.2373296273539641 0.3821250651563929 0.18278142058157595
0.24394904690808614 0.3816167964519424 0.3035015170883347
0.2328488303905712 0.38067060484076465 0.4004040471004501
0.2247795117490074 0.3792091171774601 0.5175006259554672
0.22964684214637904 0.37860501116081635 0.6545003459433485
0.22747639413265708 0.3802229387356997 0.783851602059954
0.2327786900615489 0.3778000584343545 0.9261849067416239
-4.0 -4.0 -4.0
-4.0 -4.0 -4.0
0.23323444174501123 0.509354302211443 0.19426251791558735
0.24268396638897224 0.5083463394551625 0.2992624349526685
0.2319751936331306 0.5080461342025719 0.39423761492171244
0.22770707798823459 0.5077492556790759 0.5091798703250909
0.22777744653786441 0.5079514712355184 0.637389261708703
0.229004736867134 0.5078754281022262 0.7639461901422883
0.23338715982619263 0.5040087131661357 0.9127636571052735
-4.0 -4.0 -4.0
-4.0 -4.0 -4.0
0.2283764199486802 0.6363064193863859 0.1926006355592401
0.23562786485176884 0.6356009212513261 0.28857928306223474
0.23389588565556943 0.6347656307417314 0.3915587108018341
0.23054124711502186 0.635052153764717 0.5034198293510032
0.22759288276867815 0.6355520258005447 0.6263450091206686
0.2296968674169331 0.6357379885521774 0.7452151814256747
0.22720862204302547 0.6340035346416836 0.8940360357046663
-4.0 -4.0 -4.0
-4.0 -4.0 -4.0
0.23111825783266965 0.7640631634866419 0.19576441782777532
0.23684519058409803 0.7622676323044948 0.3000627373046474
0.23926900058407 0.7617187491987261 0.3955997011642526
0.23811498325934655 0.7618711589781779 0.5065261083495428
0.23694667662776062 0.7623273987793484 0.624603103164963
0.2378808028291084 0.7626089625400153 0.738790408785339
0.22983933154570085 0.7628420752768631 0.8766768085978173
-4.0 -4.0 -4.0
-4.0 -4.0 -4.0
0.2306707922736502 0.8898438279267795 0.15287053616533772
0.24204354727714245 0.8888359113694425 0.28731177422512316
0.24495459222027083 0.8886718333245758 0.4000707320083245
0.24471245713421866 0.888708583937196 0.5078624827521185
0.24733703447362612 0.8888189882899692 0.6221448618632092
0.24902522989139853 0.8888360269236453 0.7370447163722195
0.24992802848275125 0.8890015357468698 0.8747199981003528
-4.0 -4.0 -4.0
-4.0 -4.0 -4.0
-4.0 -4.0 -4.0
-4.0 -4.0 -4.0
-4.0 -4.0 -4.0
-4.0 -4.0 -4.0
-4.0 -4.0 -4.0
-4.0 -4.0 -4.0
-4.0 -4.0 -4.0
-4.0 -4.0 -4.0
-4.0 -4.0 -4.0
-4.0 -4.0 -4.0
-4.0 -4.0 -4.0
-4.0 -4.0 -4.0
0.3585135247538911 -0.005228121911874544 0.5351990594573324
0.3712295329972067 -0.008792835831669399 0.6576297255874551
0.3839455412405222 -0.012357549751464254 0.7800603917175779
0.39307369451437957 -0.015602699547473597 0.919054733855381
-4.0 -4.0 -4.0
-4.0 -4.0 -4.0
0.38006467879791345 0.12685220354631854 0.22349599969271697
0.37082370800803344 0.12567869665011502 0.3051630803596324
0.36951840259253066 0.1245284742139407 0.40654298162941616
0.3723253566880906 0.12326116198307191 0.5273933807681328
0.3793880544776768 0.12079540998449795 0.6552911535852464
0.3860905798440283 0.11682468375069342 0.7802471352638591
0.38681339045144447 0.11320521825388541 0.9243059339741587
-4.0 -4.0 -4.0
-4.0 -4.0 -4.0
0.38189194632917683 0.2543214261606005 0.20303395517530146
0.38082206321968937 0.25395764851321556 0.30090193435372237
0.3801454949594576 0.2524749025423696 0.40272678241230836
0.37948717697533907 0.24970428133303732 0.5263209529093145
0.3817065905896015 0.2475736938688593 0.6600783587899023
0.38204734044448085 0.24482677063134012 0.7949152996148108
0.37776801672439936 0.24413056140711792 0.9281926732204075
-4.0 -4.0 -4.0
-4.0 -4.0 -4.0
0.3842506012344851 0.38238313058793016 0.15506649423170676
0.3817640783592045 0.38172537197021084 0.2926453966909889
0.38097459970875286 0.3804891137969209 0.393599371488539
0.3786901409202215 0.37785933935810534 0.5176806749338917
0.37875799462199145 0.3778762879471018 0.6453548657397408
0.3735333314662617 0.37831310669977225 0.7731126508429673
0.3736747289178099 0.37439210299405923 0.9184909409755045
-4.0 -4.0 -4.0
-4.0 -4.0 -4.0
0.37420912997490446 0.5113485604434866 0.17245938770742392
0.3807371434284303 0.5090175795001136 0.2935904104065451
0.38025061083654693 0.5080240047703293 0.39103863763407004
0.37861347896978315 0.5076337889768191 0.5084375841543083
0.37715716892853496 0.5072081382386404 0.6334429504349836
0.37286912400329764 0.5072766310304411 0.7614258675317549
0.36561424094686423 0.507200008957303 0.9101434582351733
-4.0 -4.0 -4.0
-4.0 -4.0 -4.0
0.3675484365765985 0.6388619744326283 0.15758621307432977
0.3794208472941609 0.6360948250227256 0.2974772836702564
0.37784701270752097 0.635108631748427 0.39214542462530655
0.37543176755703067 0.6350713899747944 0.5031256073764929
0.3749183049033278 0.6356324345610344 0.6214790850106919
0.3736668680296423 0.6358795986619115 0.7454645353001252
0.3655604145982291 0.6346418391788617 0.8962576205179318
-4.0 -4.0 -4.0
-4.0 -4.0 -4.0
0.3704970673922777 0.7655775643678562 0.17769948115451167
0.3749682083725945 0.7635435421879451 0.28873972738018405
0.37731543190546296 0.7619539743207527 0.39496984781856187
0.3771927790702133 0.7619289553350288 0.5045900080074983
0.3781894892557147 0.7624851644049453 0.6230175456530342
0.3781365003762059 0.7627037794048345 0.7405289622644604
0.3703064342695911 0.7628550249387851 0.8784551042249704
-4.0 -4.0 -4.0
-4.0 -4.0 -4.0
0.37407584967794305 0.8929135331202062 0.17751383196175985
0.3794304168998076 0.8897826217401463 0.29909709375351756
0.3808457934327671 0.8886814405841242 0.3880050404658235
0.38085894477044274 0.8886720932330111 0.5079230085549031
0.380859357600585 0.8886718717335873 0.6258633648337191
0.3808593422646924 0.8886719451826269 0.7416058272775555
0.3807202303254305 0.8887279614439761 0.8643371995355261
-4.0 -4.0 -4.0
-4.0 -4.0 -4.0
-4.0 -4.0 -4.0
-4.0 -4.0 -4.0
-4.0 -4.0 -4.0
-4.0 -4.0 -4.0
-4.0 -4.0 -4.0
-4.0 -4.0 -4.0
-4.0 -4.0 -4.0
-4.0 -4.0 -4.0
-4.0 -4.0 -4.0
-4.0 -4.0 -4.0
-4.0 -4.0 -4.0
-4.0 -4.0 -4.0
0.4975278098641421 -0.0027172188906110306 0.5270885499110043
0.5017450319696408 -0.005264184302927471 0.6486853228294767
0.5144610402129564 -0.008828898222722328 0.7711159889595992
0.522615596918125 -0.01213405996427983 0.9065062158874082
-4.0 -4.0 -4.0
-4.0 -4.0 -4.0
0.5078253704593876 0.12694767422191447 0.22310748863344643
0.5078186868949046 0.12695051335442417 0.30223085311822595
0.506260823969051 0.12675607973916142 0.3891754476475629
0.5065380917276276 0.1257634292212966 0.5131294367082406
0.5107189860615514 0.12388291377423954 0.6419217854798306
0.5148926638827016 0.11941691153638334 0.7610330979536175
0.5170055809935928 0.11557636569800384 0.8995018700941894
-4.0 -4.0 -4.0
-4.0 -4.0 -4.0
0.5089475584921263 0.25400182963149526 0.21007022238246292
0.5078359631256824 0.2538963967925792 0.30178103201529544
0.5081067392926572 0.25349319001940535 0.3902868719390998
0.510333181803772 0.25082567626029084 0.5165591672727231
0.5127455188689122 0.2487734258540991 0.6449152677702059
0.512921261135487 0.24656900088302655 0.7745423451997331
0.5129084342129885 0.24362872596830162 0.907581848317856
-4.0 -4.0 -4.0
-4.0 -4.0 -4.0
0.5161284868417112 0.3809910750895496 0.12708211446321863
0.510720041666859 0.3804757139991486 0.2929616869923152
0.5086318911254409 0.38057987532019594 0.387915029844641
0.509608871062061 0.3790383199442944 0.5115329211295341
0.5110319324004763 0.37750938642581655 0.6380972728624132
0.5102319208149035 0.3753756158285616 0.7718062781620181
0.5097247194122175 0.3719048826403443 0.9136606589654969
-4.0 -4.0 -4.0
-4.0 -4.0 -4.0
0.5115563919290942 0.5114433477893381 0.1579958844128279
0.5096270517504491 0.5098233003861504 0.27019790363634144
0.509313023151377 0.5079574068958744 0.3872639506459668
0.5086524155028928 0.5077074326916908 0.5040780932547498
0.5077886416036355 0.5066702930423511 0.6307156041967322
0.50635153751012 0.5055269079919592 0.7597440160393565
0.5058462409424646 0.5022364009378697 0.905783412909069
-4.0 -4.0 -4.0
-4.0 -4.0 -4.0
0.5085047106264885 0.6403380617287067 0.14542143545751643
0.508059143893478 0.6385785958958353 0.2639398192361753
0.5075287265646125 0.6367020677259209 0.38578146855531437
0.5073220480488659 0.6361336344804767 0.4977321836992346
0.5056660959307056 0.6363737292739795 0.6181473977407667
0.5036123527304888 0.6354243065240389 0.7466798339378217
0.5002787269842947 0.6342055294662706 0.8954026872913057
-4.0 -4.0 -4.0
-4.0 -4.0 -4.0
0.5059286423899496 0.7680611561058555 0.14436266959120458
0.5180722093361647 0.7628401877435923 0.2903098861979828
0.516957081985242 0.7630362385377406 0.3856589867339516
0.5074138805557077 0.7623586735497246 0.5048364272271528
0.5073502760149177 0.761910289518009 0.6286383884574034
0.5054252772939923 0.7625391427260153 0.7473123044502441
0.5019329916163606 0.7635416471373239 0.8691512677017749
-4.0 -4.0 -4.0
-4.0 -4.0 -4.0
0.5024683181327166 0.8962918937772673 0.13889088083211126
0.5212804179081003 0.8913410146819449 0.28603771343254036
0.5225956660148223 0.88966423572571 0.3750548055781005
0.507792812288066 0.8886953724550655 0.5093934051837826
0.5078124515138662 0.8886718929954928 0.630691014667427
0.5078124506887743 0.8886719365594455 0.7476432089773437
0.5062825548720667 0.889216838352174 0.8670401277252464
-4.0 -4.0 -4.0
-4.0 -4.0 -4.0
-4.0 -4.0 -4.0
-4.0 -4.0 -4.0
-4.0 -4.0 -4.0
-4.0 -4.0 -4.0
-4.0 -4.0 -4.0
-4.0 -4.0 -4.0
-4.0 -4.0 -4.0
-4.0 -4.0 -4.0
-4.0 -4.0 -4.0
-4.0 -4.0 -4.0
-4.0 -4.0 -4.0
-4.0 -4.0 -4.0
0.6494549793388283 -0.0017526624388496024 0.5202450409033081
0.6322605309420748 -0.0017355327741855448 0.6397409200714981
0.6434203459777756 -0.005286774410504024 0.7624489485234434
0.6521574993218703 -0.008665420381086072 0.8939576979194354
-4.0 -4.0 -4.0
-4.0 -4.0 -4.0
0.6347731301214506 0.12694994641043725 0.2231023949392685
0.6347712669254439 0.12695073545616906 0.3010660458189387
0.6353409407992822 0.12695312327853334 0.38597701198460005
0.6351507960879893 0.1269531313991598 0.5079362740300568
0.6357477789604515 0.12631606122894817 0.6295958189749965
0.6396088924427867 0.1241165185613732 0.7477101043542549
0.650246184189233 0.12050854844779207 0.8815103698697156
-4.0 -4.0 -4.0
0.6466583318504678 0.25205321748044146 -0.018920953248764354
0.6430418169949819 0.25327247581393064 0.22163205313026635
0.6348059991852796 0.25388927232435776 0.3024684829055666
0.6353656336951716 0.25381765538253337 0.38373400093271126
0.6362468349725242 0.2523914961719323 0.5085272808954852
0.6360477722670121 0.25264377664797616 0.6290062212318901
0.6371927712563126 0.25104214259519575 0.7519438324987137
0.6438489219472577 0.24692875164279224 0.8825370578375503
-4.0 -4.0 -4.0
0.6674326694546581 0.3794214109388693 -0.03556039585517002
0.6450055069286765 0.3802071726076465 0.2003740560864247
0.6389042992808843 0.3794911781011185 0.29725861523722635
0.6361206084776392 0.3810039127747009 0.38518706531478747
0.6350806603615186 0.3813439149288683 0.5001645013596339
0.6353903629591198 0.38102379388042873 0.6222567409772053
0.6344229144625032 0.379763609124567 0.7505992328965403
0.6394597897287334 0.3736813643748643 0.8966182212324687
-4.0 -4.0 -4.0
-4.0 -4.0 -4.0
0.6446665171450383 0.5084301665871651 0.17152568905260504
0.6395017305601365 0.5087091454975607 0.27563634301184314
0.6384249126346566 0.5077546806639966 0.3904474071274872
0.6435078449999401 0.5089022885679768 0.49928679545024035
0.6361727618221408 0.5083885955630425 0.6216595580682676
0.6344558088271632 0.5080287060835335 0.745503863583552
0.637868143781259 0.502111321072767 0.8930503225727646
-4.0 -4.0 -4.0
-4.0 -4.0 -4.0
0.6518426323570846 0.6380623345706544 0.15543989956382945
0.6547347539447821 0.6340866470468065 0.28997398043985645
0.6508803144233424 0.6362154729227565 0.3789389339209433
0.6378584165696227 0.6360849488698161 0.49934367098213345
0.63791273805794 0.6353425089409064 0.6228239441703975
0.6375401192753457 0.6351894007901933 0.7465557717912497
0.6373906856232913 0.6328655041860773 0.8870423346660004
-4.0 -4.0 -4.0
-4.0 -4.0 -4.0
0.6547833312799517 0.7690441853304713 0.13333120181328614
0.6627642319154965 0.7632580933033957 0.2776408046601454
0.6601194554800853 0.7640517423639183 0.3691686481019543
0.6393926546881994 0.7639711427120117 0.49727406740791835
0.6372545768569069 0.7623581025099159 0.6284438697530577
0.6372709092166704 0.762276902057858 0.7426708108041338
0.6415081599473809 0.761768512771966 0.8707760882874326
-4.0 -4.0 -4.0
-4.0 -4.0 -4.0
0.6474037717086687 0.8978167453800373 0.12013099357354955
0.6684268411798809 0.8928047260443783 0.27027177266203306
0.6641161534488863 0.8907942736850102 0.364367270489146
0.6410804506188319 0.8906486460931338 0.5001289735730485
0.6343046158443906 0.8893190039970376 0.6315103146113715
0.6346876116712455 0.8887813842561856 0.740138971216408
0.6334527974419848 0.8891213673711105 0.8656585063010951
-4.0 -4.0 -4.0
-4.0 -4.0 -4.0
-4.0 -4.0 -4.0
-4.0 -4.0 -4.0
-4.0 -4.0 -4.0
-4.0 -4.0 -4.0
-4.0 -4.0 -4.0
-4.0 -4.0 -4.0
-4.0 -4.0 -4.0
-4.0 -4.0 -4.0
-4.0 -4.0 -4.0
-4.0 -4.0 -4.0
-4.0 -4.0 -4.0
-4.0 -4.0 -4.0
0.8013821488135145 -0.0007881059870881749 0.513401531895612
0.7770449730567627 -4.301546141505546e-09 0.632406483055091
0.7723155522512059 -0.0017440956758542165 0.7537933326222822
0.7816994017256156 -0.0051967807978923084 0.8814091799514626
-4.0 -4.0 -4.0
-4.0 -4.0 -4.0
-4.0 -4.0 -4.0
0.7801542654983679 0.12695312516535262 0.3091589852486657
0.7849995772305302 0.12695309118237288 0.3903846881973225
0.7677798400069268 0.12692538109725293 0.5077825272570002
0.7710408725877216 0.1268162227730596 0.6313454045025824
0.7693846581710697 0.12667268556025355 0.746815913253362
0.786354660925503 0.12467935924889713 0.877783668387259
-4.0 -4.0 -4.0
-4.0 -4.0 -4.0
0.778735617919526 0.2528768564288576 0.22069461673203003
0.7785547232186352 0.2536285243652486 0.3006561012179758
0.7678715247512775 0.2538395984246409 0.3830264325877372
0.7714038180350326 0.2538369413876358 0.504499828998759
0.7706467452148601 0.253712222552687 0.6255879175883773
0.7670720219612118 0.2536813243002209 0.74459653938317
0.7806396650740112 0.2510986148510953 0.8839167561927594
-4.0 -4.0 -4.0
0.8070418225266957 0.3775910081771693 -0.03184017195151383
0.7950581020512012 0.37833287386911585 0.21433841023714345
0.7760688998839917 0.37956296311070564 0.29788914097783276
0.7768091985008045 0.38028775810921106 0.39172191065924206
0.7845436858816979 0.38082699230629324 0.5063585315347279
0.7835495965655424 0.3807155114632419 0.627450489941294
0.7678395487333968 0.37933650628743276 0.7510532800917468
0.7741338554615221 0.3766325724034666 0.8877060949089385
-4.0 -4.0 -4.0
-4.0 -4.0 -4.0
0.7967712800753748 0.5052429505607544 0.17940892122293858
0.7860977068225421 0.5052083871952279 0.2943320621090096
0.7744504968300738 0.5062088627011401 0.39873795415517477
0.7819693240769731 0.5072403731939243 0.5074797294388589
0.7828008383379085 0.5074309672836822 0.6280533703662714
0.7864805356665121 0.5043123970656765 0.7633801780852769
0.7695787397628797 0.5021369909452421 0.8905858258566152
-4.0 -4.0 -4.0
-4.0 -4.0 -4.0
0.7946516080888577 0.6353440829050461 0.1521539694986537
0.7993566165280526 0.6341466483517338 0.27692459681333914
0.7909673266835643 0.634553477818021 0.3862757715042018
0.7813172872004682 0.6344815690247159 0.5012945910326833
0.7781596236069739 0.6343612791912532 0.6282325386538239
0.7799034665160081 0.6328653380788957 0.7572342144410623
0.7842688993405588 0.6309021365728087 0.8860792405038131
-4.0 -4.0 -4.0
-4.0 -4.0 -4.0
0.7950590267998255 0.7664887746982947 0.1330792630593397
0.8074562544948285 0.7636759988631991 0.264971723122308
0.8034372775168914 0.7649654766907912 0.3530448017190614
0.7805301890665379 0.7640825824211201 0.49147546956929156
0.7711190954575888 0.763593319184563 0.6242860630137751
0.7756818175449991 0.7617187280562813 0.7479038492392858
0.7856068754889143 0.7596125462455373 0.8753955475584769
-4.0 -4.0 -4.0
-4.0 -4.0 -4.0
0.7954664455107933 0.8976334664915435 0.11400455662002565
0.8155732644516615 0.8942684374068114 0.25450583189152565
0.8065926196914195 0.8918287194801152 0.35351448801737556
0.7878690745919078 0.8912519019014287 0.48853080556244777
0.7743375927972153 0.890538675433318 0.6196670522480038
0.7705143587831073 0.8897055080595504 0.7373073064973078
0.7664340674228812 0.8886718196320739 0.8678323442573311
-4.0 -4.0 -4.0
-4.0 -4.0 -4.0
-4.0 -4.0 -4.0
-4.0 -4.0 -4.0
-4.0 -4.0 -4.0
-4.0 -4.0 -4.0
-4.0 -4.0 -4.0
-4.0 -4.0 -4.0
-4.0 -4.0 -4.0
-4.0 -4.0 -4.0
-4.0 -4.0 -4.0
-4.0 -4.0 -4.0
-4.0 -4.0 -4.0
-4.0 -4.0 -4.0
-4.0 -4.0 -4.0
0.9352871963754271 1.7264392226934216e-08 0.6267007335554806
0.9161100133322165 3.2654497772453918e-09 0.7466353412019084
0.911241304129361 -0.0017281412146985435 0.8688606619834899
-4.0 -4.0 -4.0
-4.0 -4.0 -4.0
-4.0 -4.0 -4.0
-4.0 -4.0 -4.0
-4.0 -4.0 -4.0
0.9307069690641862 0.12695314456354378 0.5078659452673373
0.9135530491359545 0.12695313124180085 0.6296259702260911
0.9093672596149565 0.1268841285464852 0.7455970911312989
0.9180361330509175 0.12684484913212402 0.8768768666371377
-4.0 -4.0 -4.0
-4.0 -4.0 -4.0
-4.0 -4.0 -4.0
0.9484090463895516 0.25241690656034066 0.30148830595252685
0.9212723196351092 0.25370814674534176 0.3903702252943585
0.9148628821364552 0.253888430587723 0.5083798775787074
0.9103649942449537 0.2538387110617624 0.6276508409299433
0.9020086486995955 0.2538225497347864 0.7447301194803699
0.9156990932545421 0.2526875286058149 0.8824096879868484
-4.0 -4.0 -4.0
-4.0 -4.0 -4.0
0.9530315902829143 0.3780491685122253 0.19730288431048165
0.9217089427440311 0.3797849821995645 0.2988427227626096
0.9112829546425991 0.3805663197619945 0.3888157833146363
0.9235945001484682 0.3807730544697808 0.5101562481857068
0.9128946289768307 0.3808119355431094 0.6278489229278044
0.8984743601425329 0.3806804571298611 0.747255247772697
0.9139242740216019 0.3791271952920578 0.8833205999981923
-4.0 -4.0 -4.0
-4.0 -4.0 -4.0
-4.0 -4.0 -4.0
0.9289809225040573 0.5053228918469069 0.28918067681487153
0.9052721524544118 0.5064638768638913 0.3916216704227734
0.9238054979621677 0.5075747891661786 0.5077626556805388
0.9217086690817498 0.507806941158374 0.6287147258486714
0.9018357644062106 0.5060509944568876 0.7533949076147854
0.9140105450393927 0.5060125442230123 0.8834432700824304
-4.0 -4.0 -4.0
-4.0 -4.0 -4.0
-4.0 -4.0 -4.0
0.9519335877305151 0.6339024505452757 0.2733451820509226
0.9218938263887058 0.6353827137224543 0.37201034710347264
0.9334074041752645 0.635996359421149 0.49250114927946337
0.9142523040297603 0.6356400623619116 0.6166117384019547
0.9050599477474487 0.6345075835583138 0.7486299664076577
0.9144431683361864 0.6329328345193883 0.8833424580793385
-4.0 -4.0 -4.0
-4.0 -4.0 -4.0
-4.0 -4.0 -4.0
