LUTs/Sam_CustomColorScience_+0ev.cube
TITLE "Generated by Resolve"
LUT_3D_SIZE 9
0.0264439 0.0214847 0.0295567
0.0296025 0.0265202 0.031632
0.0942702 0.0374914 0.0349279
0.217288 0.0382696 0.0146792
0.32401 0.0229343 0.0229343
0.410224 0.0272068 0.0272068
0.482383 0.0299992 0.0299992
0.545769 0.0313726 0.0315557
0.582147 0.0336767 0.0336767
0.0175784 0.0628367 0.0505226
0.0284123 0.057908 0.0506447
0.117891 0.0799878 0.0557565
0.284001 0.102983 0.0274052
0.380118 0.0986191 0.0392615
0.42475 0.027924 0.027924
0.482139 0.0299992 0.0299992
0.54522 0.0314946 0.0316167
0.582086 0.0336767 0.0336767
0 0.159655 0.0676738
0 0.148516 0.0718547
0.139406 0.17232 0.033814
0.36524 0.234531 0.0492103
0.475776 0.246433 0.0688792
0.567727 0.222919 0.0685435
0.594507 0.134752 0.0493782
0.545098 0.0314946 0.0316167
0.582025 0.0336767 0.0336767
0 0.270512 0.0568399
0 0.26949 0.0573892
0.0654612 0.295064 0.0071107
0.410834 0.377371 0.0297398
0.553414 0.380346 0.0707866
0.657832 0.376867 0.0791791
0.726818 0.354055 0.0790265
0.73814 0.292744 0.0791943
0.582025 0.0336767 0.0336767
0.0271916 0.384985 0.0281529
0.0271916 0.384741 0.0281987
0.0271153 0.378393 0.0306096
0.354101 0.479194 0.0168765
0.608316 0.515785 0.00775158
0.744472 0.512917 0.0162661
0.846006 0.500404 0.0276188
0.899367 0.475563 0.0337224
0.886046 0.418982 0.0583505
0.0287785 0.453849 0.0288396
0.0287785 0.453788 0.0288396
0.0288396 0.453666 0.0288396
0.0282597 0.518013 0.026627
0.574762 0.645441 0.00834669
0.824643 0.651377 0.00553903
0.952239 0.639628 0.00332647
0.998718 0.631128 0.00254826
0.998642 0.610071 0.002533
0.026978 0.517205 0.026978
0.026978 0.517205 0.026978
0.026978 0.517143 0.026978
0.026978 0.517143 0.027039
0.323796 0.692836 0.00827039
0.804303 0.77789 0.00512703
0.999344 0.771557 0.00207523
0.999222 0.741802 0.00222782
0.999146 0.723857 0.00231937
0.0233768 0.547951 0.0233921
0.0233768 0.547951 0.0233921
0.0233768 0.547951 0.0233921
0.0233768 0.54789 0.0233921
0.0233768 0.54789 0.0233921
0.58584 0.824384 0.00674449
0.97525 0.854383 0.00189212
0.999588 0.82771 0.00172427
0.999496 0.809888 0.00187686
0.0196689 0.567102 0.0197299
0.0196689 0.567102 0.0197299
0.0196689 0.567102 0.0197299
0.0196689 0.567102 0.0197299
0.0196689 0.567102 0.0197299
0.0197299 0.567041 0.0197299
0.82565 0.90132 0.00340276
0.999741 0.87924 0.00129702
0.999664 0.856321 0.0015259
0.0214389 0.0236667 0.053254
0.0141146 0.0241703 0.0474556
0.113466 0.0362707 0.0544137
0.255329 0.0222171 0.0379797
0.348867 0.0242161 0.0242771
0.422034 0.0278019 0.0278019
0.482261 0.0299992 0.0299992
0.545281 0.0314946 0.0316167
0.582086 0.0336767 0.0336767
0.0135348 0.0569772 0.061387
0.0191196 0.052903 0.0552834
0.120607 0.0721447 0.0609445
0.294682 0.0876173 0.031632
0.372519 0.0458534 0.028809
0.422034 0.0278019 0.0278019
0.482628 0.0298772 0.0298772
0.54522 0.0314946 0.0316167
0.582086 0.0336767 0.0336767
0 0.164401 0.0898451
0 0.152468 0.0823224
0.144869 0.175555 0.0476844
0.382284 0.24416 0.056199
0.488502 0.240696 0.0689097
0.559197 0.209171 0.0654002
0.57142 0.0753185 0.040116
0.545037 0.0314946 0.0316167
0.582025 0.0336767 0.0336767
0 0.274479 0.0521859
0 0.273213 0.0534371
0.0603952 0.295064 0.00933852
0.410452 0.375418 0.0300755
0.549722 0.375875 0.0720073
0.653452 0.372412 0.0796216
0.722667 0.348684 0.0792859
0.730831 0.281819 0.0785534
0.581964 0.0336767 0.0336767
0.0271611 0.383337 0.0283665
0.0271611 0.383093 0.0284276
0.0269474 0.374685 0.0323033
0.3505 0.4757 0.0178836
0.605615 0.513085 0.00773632
0.741985 0.51017 0.0185092
0.84361 0.495903 0.0296635
0.896864 0.472572 0.0355993
0.881849 0.415213 0.0601816
0.0288396 0.4533 0.0288396
0.0288243 0.453239 0.0288396
0.0288243 0.453117 0.0288396
0.0272068 0.514214 0.0272068
0.572885 0.644083 0.00836194
0.823835 0.650278 0.00555428
0.951446 0.638529 0.00334173
0.998718 0.629786 0.00254826
0.998611 0.609049 0.00254826
0.027039 0.517082 0.027039
0.027039 0.517082 0.027039
0.027039 0.516899 0.027039
0.027039 0.516838 0.027039
0.319554 0.691035 0.00827039
0.803449 0.777279 0.00514229
0.999344 0.77113 0.00207523
0.999222 0.741314 0.00222782
0.999146 0.723552 0.00231937
0.0233768 0.54789 0.0233921
0.0233768 0.54789 0.0233921
0.0233768 0.54789 0.0233921
0.0233768 0.54789 0.0233921
0.0233768 0.547768 0.0233921
0.584024 0.824002 0.00675975
0.975128 0.854078 0.00189212
0.999588 0.82771 0.00172427
0.999496 0.809705 0.00187686
0.0196689 0.567102 0.0197299
0.0196689 0.567102 0.0197299
0.0196689 0.567102 0.0197299
0.0196689 0.567102 0.0197299
0.0197299 0.567041 0.0197299
0.0197299 0.567041 0.0197299
0.825101 0.901259 0.00340276
0.999741 0.879301 0.00128176
0.999664 0.856321 0.0015259
0.00129702 0.00129702 0.17467
0.0030518 0.00115969 0.158206
0.161318 0 0.25539
0.374273 0.00822461 0.233814
0.472999 0.016556 0.196475
0.557107 0.0215152 0.165286
0.582055 0.0268559 0.0978561
0.54522 0.0314946 0.0316167
0.582086 0.0336767 0.0336767
0.00135805 0.018204 0.181109
0.00238041 0.0240177 0.162448
0.143877 0.027863 0.234119
0.373266 0.00944533 0.214542
0.470695 0.0176394 0.18407
0.549752 0.0220951 0.156527
0.567285 0.0285801 0.0822156
0.545098 0.0314946 0.0316167
0.582086 0.0336767 0.0336767
0.00453193 0.195911 0.292531
0 0.170504 0.259312
0.108446 0.167865 0.229908
0.365805 0.17409 0.199664
0.527687 0.199161 0.184237
0.615854 0.13753 0.132357
0.584649 0.0334936 0.034165
0.544976 0.0314946 0.0316167
0.582025 0.0336767 0.0336767
0.0253605 0.356283 0.296162
0.0250553 0.354726 0.293248
0.0268711 0.375265 0.2766
0.376684 0.349996 0.161791
0.586343 0.386526 0.182391
0.70074 0.380316 0.0948653
0.760052 0.354467 0.0780499
0.718242 0.262455 0.0776989
0.581964 0.0336767 0.0336767
0.0289006 0.437247 0.178943
0.0288853 0.43595 0.173739
0.0287022 0.424216 0.152499
0.363119 0.53167 0.00788891
0.666163 0.561624 0.00761425
0.790921 0.535592 0.00602731
0.84007 0.489113 0.0329747
0.892103 0.466896 0.0389105
0.873991 0.407095 0.0635996
0.0288243 0.452323 0.0288243
0.0288243 0.452323 0.0288243
0.0288243 0.45214 0.0288243
0.0276188 0.506218 0.0276341
0.569406 0.641871 0.00836194
0.822095 0.648203 0.00555428
0.949905 0.636561 0.00337224
0.998703 0.627649 0.00251774
0.998596 0.606836 0.00254826
0.026978 0.516655 0.027039
0.026978 0.516655 0.027039
0.027039 0.516594 0.027039
0.027039 0.516472 0.027039
0.312444 0.687907 0.00823987
0.80209 0.776287 0.00517281
0.999344 0.770382 0.00209049
0.999222 0.740444 0.00224308
0.999146 0.723003 0.00231937
0.0233768 0.547768 0.0233921
0.0233768 0.547768 0.0233921
0.0233768 0.547768 0.0233921
0.0233768 0.547768 0.0233921
0.0233768 0.547707 0.0234531
0.580865 0.823209 0.00677501
0.974823 0.853834 0.00189212
0.999588 0.827588 0.00172427
0.999496 0.809583 0.00187686
0.0197299 0.567041 0.0197299
0.0197299 0.567041 0.0197299
0.0197299 0.567041 0.0197299
0.0197299 0.567041 0.0197299
0.0197299 0.567041 0.0197299
0.0197299 0.567041 0.0197299
0.823514 0.901061 0.0034638
0.999741 0.879362 0.00128176
0.999664 0.85626 0.0015259
0.00553903 0.00553903 0.276219
0.00408942 0.00408942 0.263706
0.122545 0.0104524 0.324987
0.395865 0.00737011 0.436851
0.585428 0.00929274 0.425055
0.704005 0.0135348 0.396033
0.781277 0.0195926 0.359136
0.778012 0.0241855 0.277928
0.584161 0.0338598 0.0338598
0.00508125 0.00508125 0.274739
0.00407416 0.00407416 0.263462
0.110887 0.00993362 0.318349
0.390112 0.0075227 0.433036
0.581262 0.0090486 0.420188
0.700862 0.013901 0.390799
0.777005 0.0200961 0.353399
0.771939 0.0246281 0.269871
0.582025 0.0336767 0.0336767
0.023209 0.118044 0.370993
0.0215457 0.115236 0.362875
0.0877241 0.145724 0.383337
0.428885 0.129778 0.476143
0.668437 0.0854963 0.442649
0.754986 0.0170138 0.38735
0.768765 0.0208438 0.343175
0.761486 0.0255589 0.258366
0.582025 0.0336767 0.0336767
0.0317693 0.350729 0.485023
0.031754 0.349752 0.484047
0.030457 0.362417 0.474006
0.309926 0.328054 0.416327
0.610101 0.344305 0.389715
0.749035 0.395758 0.417243
0.831373 0.364523 0.387579
0.813382 0.142748 0.204486
0.581903 0.0336767 0.0336767
0.0216983 0.505608 0.518257
0.0217594 0.504982 0.517342
0.0231022 0.492302 0.504051
0.175097 0.574212 0.452476
0.585153 0.54725 0.322133
0.763989 0.563882 0.373098
0.862989 0.539223 0.326207
0.937835 0.478279 0.0700542
0.857908 0.390204 0.0691386
0.00740063 0.583734 0.427939
0.00741588 0.583108 0.426001
0.00741588 0.582132 0.422675
0.00766003 0.628031 0.385641
0.538811 0.734386 0.1449
0.852644 0.714244 0.0104677
0.999054 0.706844 0.00239567
0.998703 0.623041 0.002533
0.998596 0.60206 0.00254826
0.0270848 0.515984 0.0271
0.0270848 0.515984 0.0271
0.0270848 0.515923 0.0271
0.0270848 0.515862 0.0271
0.293324 0.680751 0.00816358
0.799146 0.774517 0.00521859
0.998169 0.768795 0.002121
0.999222 0.738735 0.00225834
0.999146 0.721584 0.00233463
0.0234379 0.547646 0.0234531
0.0234379 0.547585 0.0234531
0.0234379 0.547585 0.0234531
0.0234379 0.547585 0.0234531
0.0233768 0.547524 0.0233921
0.573266 0.821454 0.0068513
0.973907 0.853223 0.00192264
0.999588 0.827344 0.00173953
0.999496 0.809277 0.00187686
0.0197299 0.567041 0.0197299
0.0197299 0.567041 0.0197299
0.0197299 0.567041 0.0197299
0.0197299 0.567041 0.0197299
0.0197299 0.566979 0.0197299
0.0197299 0.566979 0.0197299
0.820523 0.900633 0.00349432
0.999741 0.879423 0.00128176
0.999664 0.856077 0.0015259
0.00970474 0.00970474 0.316472
0.00967422 0.00967422 0.315129
0.0541695 0.0119478 0.337026
0.342443 0.0111543 0.528496
0.610193 0.00788891 0.608759
0.786633 0.0110933 0.607279
0.895766 0.0144656 0.588876
0.956222 0.0176394 0.561685
0.957809 0.0210269 0.491737
0.00968948 0.00968948 0.315953
0.00968948 0.00968948 0.315892
0.0390478 0.0110323 0.329107
0.334218 0.0114748 0.522316
0.606882 0.00801099 0.606531
0.78526 0.0111543 0.605066
0.894362 0.0143587 0.586664
0.954849 0.0175326 0.558801
0.955581 0.0213474 0.486183
0.00968948 0.00968948 0.316106
0.00968948 0.00968948 0.315435
0.0138399 0.00915541 0.314672
0.319799 0.0121614 0.512825
0.600809 0.00833143 0.602808
0.782605 0.0111238 0.600946
0.891554 0.0141299 0.582238
0.952422 0.0173037 0.554101
0.95198 0.0216678 0.479408
0.0440833 0.291814 0.599237
0.0439918 0.290532 0.598321
0.0429236 0.28014 0.581323
0.32018 0.331426 0.610101
0.73196 0.341482 0.753368
0.952895 0.360204 0.730617
0.977264 0.272694 0.652247
0.97995 0.0219272 0.545388
0.943297 0.020737 0.464637
0.029572 0.493019 0.675242
0.029572 0.492256 0.674693
0.0297551 0.491112 0.67364
0.0361334 0.565286 0.672923
0.510216 0.515892 0.595605
0.84918 0.562432 0.622934
0.964401 0.586999 0.640803
0.994018 0.567514 0.620722
0.992874 0.446784 0.526497
0.00605783 0.631113 0.708049
0.00605783 0.630869 0.707622
0.00607309 0.630671 0.70695
0.00604257 0.650263 0.707256
0.408362 0.741817 0.610452
0.783475 0.725032 0.532876
0.90898 0.730251 0.581003
0.959548 0.7205 0.557046
0.981765 0.674876 0.413596
0.00640879 0.694499 0.662287
0.00642405 0.69424 0.661433
0.00645457 0.693996 0.659907
0.00648508 0.693309 0.656672
0.00541695 0.856794 0.60029
0.710124 0.850706 0.449058
0.921508 0.839918 0.427375
0.984771 0.816587 0.356481
0.999176 0.732616 0.00230411
0.0234379 0.547158 0.0234379
0.0234379 0.547158 0.0234379
0.0234379 0.547158 0.0234379
0.0234379 0.547158 0.0234379
0.0234379 0.547097 0.0234989
0.555291 0.817609 0.00697337
0.971679 0.852613 0.00195315
0.999588 0.82678 0.00173953
0.999496 0.808484 0.00187686
0.0197299 0.566918 0.0197299
0.0197299 0.566918 0.0197299
0.0197299 0.566918 0.0197299
0.0197299 0.566918 0.0197299
0.0197299 0.566918 0.0197299
0.0197299 0.566918 0.0197299
0.814359 0.899825 0.00357061
0.999741 0.879484 0.00128176
0.999664 0.855772 0.0015259
0.0107576 0.0107576 0.363775
0.0107576 0.0107576 0.363775
0.0107576 0.0107576 0.361242
0.254765 0.0173648 0.531365
0.572274 0.00923171 0.707027
0.808255 0.00944533 0.765911
0.944274 0.0136721 0.76936
0.997375 0.026566 0.760449
0.996338 0.0654154 0.730282
0.0107576 0.0107576 0.363653
0.0107576 0.0107576 0.363607
0.0106813 0.0106813 0.357443
0.241993 0.0176089 0.524483
0.568246 0.00941482 0.705455
0.807263 0.00944533 0.764767
0.943847 0.0136721 0.768734
0.997375 0.0263828 0.759365
0.996353 0.065156 0.729397
0.0107576 0.0107576 0.363302
0.0107576 0.0107576 0.36318
0.0106813 0.0106813 0.35642
0.220569 0.0177615 0.509361
0.561547 0.00972 0.702739
0.80531 0.00952163 0.763226
0.942718 0.0137331 0.767254
0.997375 0.0260777 0.757519
0.996338 0.0648508 0.728054
0.0111543 0.0111543 0.383932
0.0110781 0.0110933 0.382727
0.0110781 0.0110781 0.380667
0.199725 0.0177462 0.503426
0.568627 0.00944533 0.713237
0.801328 0.00973526 0.759152
0.940551 0.0138857 0.76434
0.99733 0.0254215 0.752773
0.996338 0.0643626 0.72517
0.05066 0.452537 0.780224
0.0508431 0.451926 0.779675
0.0510414 0.45095 0.779049
0.0387274 0.501564 0.796124
0.580728 0.567407 0.855207
0.973724 0.5682 0.978058
0.994934 0.603174 0.98854
0.994247 0.539162 0.989624
0.995621 0.122866 0.79234
0.0039826 0.639765 0.862135
0.0039826 0.639582 0.861891
0.0039826 0.639399 0.861585
0.00399786 0.638911 0.860899
0.326909 0.741314 0.819486
0.699901 0.686137 0.784634
0.992889 0.7458 0.82771
1 0.772122 0.848676
1 0.77232 0.851743
0.00337224 0.71696 0.894041
0.0033875 0.716762 0.893782
0.0033875 0.716762 0.893477
0.00340276 0.716457 0.892805
0.002121 0.864149 0.924437
0.648905 0.874861 0.807004
0.95642 0.862211 0.82005
1 0.863478 0.857008
1 0.8607 0.842847
0.00378424 0.741024 0.859251
0.00378424 0.741024 0.858946
0.00378424 0.740963 0.858396
0.0037995 0.740703 0.857237
0.00383001 0.740581 0.855024
0.30341 0.900481 0.731792
0.91754 0.905852 0.753674
1 0.905959 0.779339
1 0.906554 0.730068
0.019791 0.566735 0.019791
0.019791 0.566735 0.019791
0.019791 0.566735 0.019791
0.019791 0.566735 0.019791
0.019791 0.566735 0.019791
0.019791 0.566735 0.019791
0.802197 0.897887 0.00375372
0.999741 0.879911 0.00128176
0.999664 0.855146 0.0015259
0.0113527 0.0113527 0.396719
0.0113527 0.0113527 0.396719
0.0113527 0.0113527 0.396719
0.0529946 0.0139315 0.429831
0.483024 0.0124056 0.733639
0.793652 0.0091249 0.854322
0.963714 0.0134127 0.884504
0.997803 0.0491188 0.87155
0.996597 0.0982681 0.849515
0.0113527 0.0113527 0.396658
0.0113527 0.0113527 0.396658
0.0113527 0.0113527 0.396597
0.0368963 0.0130007 0.422171
0.477531 0.0121614 0.729747
0.79205 0.0091249 0.853819
0.963287 0.0134127 0.884321
0.997818 0.0489357 0.871366
0.996597 0.0982071 0.849317
0.0113527 0.0113527 0.396597
0.0113527 0.0113527 0.396597
0.0113527 0.0113527 0.396536
0.0116121 0.0116121 0.410483
0.468238 0.0127108 0.724987
0.789578 0.00914015 0.853117
0.9626 0.0134127 0.88394
0.997818 0.0488136 0.871183
0.996597 0.098024 0.848966
0.0113527 0.0114137 0.396353
0.0113527 0.0114137 0.396353
0.0113527 0.0114137 0.396292
0.0114748 0.0114748 0.404028
0.447456 0.0139773 0.713756
0.784466 0.00927749 0.851453
0.961105 0.013489 0.882872
0.997818 0.0483101 0.870771
0.996597 0.0976577 0.848035
0.0127718 0.0127718 0.472465
0.0127108 0.0127718 0.472053
0.0127108 0.0127108 0.471077
0.0125887 0.0125887 0.466346
0.473396 0.0677501 0.826032
0.8645 0.0128786 0.951873
0.981201 0.0153201 0.895674
0.997833 0.0471504 0.869978
0.996612 0.0970474 0.846311
0.00283818 0.609384 0.936507
0.00285344 0.608835 0.936126
0.00285344 0.608347 0.935943
0.0028687 0.60737 0.935378
0.136507 0.700633 0.928145
0.796155 0.75523 1
1 0.78146 1
1 0.893767 1
1 0.967117 1
0.00187686 0.724941 0.998703
0.00187686 0.724941 0.998703
0.00187686 0.72488 0.998703
0.00187686 0.724697 0.998703
0.00189212 0.723781 0.998688
0.594736 0.872663 0.916671
0.894697 0.840955 0.941619
1 0.89073 0.991608
1 0.907988 1
0.00173953 0.7673 0.998932
0.00173953 0.7673 0.998932
0.00173953 0.7673 0.998932
0.00173953 0.767178 0.998932
0.00173953 0.767117 0.998932
0.000228885 0.979477 0.999939
0.926513 0.917098 0.980499
1 0.935805 1
1 0.95346 1
0.00167849 0.776257 0.999008
0.00167849 0.776196 0.999008
0.00167849 0.776196 0.999008
0.00167849 0.776135 0.999008
0.00167849 0.775952 0.998993
0.00169375 0.775647 0.998688
0.64831 0.936706 0.887266
1 0.94345 0.99913
1 0.953719 1
0.0117342 0.0117494 0.418692
0.0117342 0.0117494 0.418692
0.0117342 0.0117494 0.418692
0.0117342 0.0117494 0.418692
0.284184 0.018265 0.61886
0.729519 0.0111238 0.889876
0.959701 0.0139315 0.949004
0.998184 0.0584878 0.929015
0.996902 0.112596 0.909636
0.0117342 0.0117494 0.418692
0.0117342 0.0117494 0.418692
0.0117342 0.0117494 0.418692
0.0117342 0.0117494 0.418692
0.275822 0.0185397 0.612634
0.727611 0.0111391 0.889235
0.95903 0.0138705 0.94876
0.998184 0.0583047 0.928954
0.996902 0.112474 0.909514
0.0117342 0.0117494 0.418631
0.0117342 0.0117494 0.418631
0.0117342 0.0117494 0.418631
0.0117342 0.0117494 0.418631
0.260243 0.0190433 0.600855
0.723735 0.0112001 0.887953
0.958282 0.0137484 0.948501
0.998199 0.0579843 0.929015
0.996902 0.112398 0.909453
0.0116732 0.0117494 0.418524
0.0116732 0.0117494 0.418524
0.0116732 0.0117494 0.418524
0.0116732 0.0117494 0.418524
0.219196 0.0198062 0.576043
0.715984 0.0111086 0.88542
0.956558 0.0135195 0.947936
0.998215 0.0573739 0.929091
0.996902 0.112215 0.909148
0.0116732 0.0117494 0.418402
0.0116732 0.0117494 0.418402
0.0116732 0.0117494 0.418402
0.0116732 0.0117494 0.418402
0.149722 0.0174868 0.517662
0.698573 0.0108644 0.876631
0.953048 0.0131533 0.94667
0.99823 0.0561379 0.929061
0.996902 0.111788 0.908476
0.0484932 0.265797 0.763165
0.0479896 0.263279 0.760754
0.047425 0.259251 0.756817
0.0463264 0.249973 0.748104
0.0433356 0.222354 0.736934
0.858366 0.454963 0.992874
0.994644 0.292271 0.994644
0.997604 0.117739 0.985336
0.996902 0.110933 0.907256
0.00192264 0.70808 0.998596
0.00192264 0.708019 0.998596
0.00192264 0.707958 0.998596
0.00192264 0.707774 0.998596
0.00192264 0.707347 0.998596
0.489998 0.849241 0.977951
0.959777 0.870497 1
1 0.898039 1
1 0.966476 1
0.00172427 0.771221 0.998962
0.00172427 0.771221 0.998962
0.00172427 0.77116 0.998962
0.00172427 0.77116 0.998962
0.00172427 0.771099 0.998962
0.00129702 0.849668 0.99939
0.896529 0.916228 1
1 0.935256 1
1 0.974975 1
0.00164797 0.7879 0.999069
0.00164797 0.7879 0.999069
0.00164797 0.7879 0.999069
0.00164797 0.7879 0.999069
0.00164797 0.7879 0.999069
0.00164797 0.787839 0.999069
0.504189 0.934676 0.957137
1 0.962081 1
1 0.97612 1
0.0118715 0.0118715 0.429511
0.0118715 0.0118715 0.429511
0.0118715 0.0118715 0.429511
0.0118715 0.0118715 0.429511
0.0118715 0.0118715 0.429511
0.528786 0.0141299 0.820035
0.922225 0.0137484 0.979416
0.998627 0.0574044 0.973632
0.997238 0.116945 0.948806
0.0118715 0.0118715 0.429511
0.0118715 0.0118715 0.429511
0.0118715 0.0118715 0.429511
0.0118715 0.0118715 0.429511
0.0118715 0.0118715 0.429511
0.524178 0.013901 0.816602
0.921538 0.0138247 0.979095
0.998657 0.0572671 0.973816
0.997238 0.116945 0.948745
0.0118715 0.0118715 0.429511
0.0118715 0.0118715 0.429511
0.0118715 0.0118715 0.429511
0.0118715 0.0118715 0.429511
0.0118715 0.0118715 0.429511
0.515694 0.0139773 0.811139
0.920424 0.0138857 0.978714
0.998672 0.057084 0.973938
0.997238 0.116945 0.948745
0.0118715 0.0118715 0.429511
0.0118715 0.0118715 0.429511
0.0118715 0.0118715 0.429511
0.0118715 0.0118715 0.429511
0.0118715 0.0118715 0.42945
0.494224 0.0150912 0.80177
0.917967 0.0139467 0.977768
0.998688 0.0565347 0.97438
0.997238 0.116884 0.948684
0.0118715 0.0118715 0.42945
0.0118715 0.0118715 0.42945
0.0118715 0.0118715 0.42945
0.0118715 0.0118715 0.42945
0.0118715 0.0118715 0.42945
0.455558 0.0157321 0.778607
0.912688 0.0140993 0.975677
0.998703 0.0555428 0.975143
0.997238 0.116884 0.948562
0.0118715 0.0118715 0.429328
0.0118715 0.0118715 0.429328
0.0118715 0.0118715 0.429328
0.0118715 0.0118715 0.429328
0.0118715 0.0118715 0.429328
0.364752 0.0178225 0.70251
0.899977 0.0139773 0.971084
0.998749 0.0536202 0.976608
0.997238 0.116823 0.948257
0.0579995 0.492699 0.937285
0.0581216 0.491997 0.936904
0.0585489 0.490242 0.936065
0.0592508 0.487694 0.934432
0.0605325 0.483528 0.930983
0.0679179 0.534035 0.960082
1 0.738552 1
0.995727 0.666346 0.995727
0.996216 0.198749 0.996216
0.00172427 0.763226 0.998932
0.00172427 0.763226 0.998932
0.00172427 0.763149 0.998932
0.00172427 0.763149 0.998932
0.00172427 0.762844 0.998932
0.00172427 0.762539 0.998932
0.78085 0.912825 1
1 0.954574 1
1 0.969238 1
0.00167849 0.782559 0.999023
0.00167849 0.782559 0.999023
0.00167849 0.782559 0.999023
0.00167849 0.782559 0.999023
0.00167849 0.78262 0.999023
0.00167849 0.78262 0.999023
0.000503548 0.949126 0.999832
1 0.95967 1
1 0.961883 1
