LUTs/Sam_CustomColorScience_+0ev.cube
TITLE "Generated by Resolve"
LUT_3D_SIZE 5
0.0264439 0.0214847 0.0295567
0.0942702 0.0374914 0.0349279
0.32401 0.0229343 0.0229343
0.482383 0.0299992 0.0299992
0.582147 0.0336767 0.0336767
0 0.159655 0.0676738
0.139406 0.17232 0.033814
0.475776 0.246433 0.0688792
0.594507 0.134752 0.0493782
0.582025 0.0336767 0.0336767
0.0271916 0.384985 0.0281529
0.0271153 0.378393 0.0306096
0.608316 0.515785 0.00775158
0.846006 0.500404 0.0276188
0.886046 0.418982 0.0583505
0.026978 0.517205 0.026978
0.026978 0.517143 0.026978
0.323796 0.692836 0.00827039
0.999344 0.771557 0.00207523
0.999146 0.723857 0.00231937
0.0196689 0.567102 0.0197299
0.0196689 0.567102 0.0197299
0.0196689 0.567102 0.0197299
0.82565 0.90132 0.00340276
0.999664 0.856321 0.0015259
0.00129702 0.00129702 0.17467
0.161318 0 0.25539
0.472999 0.016556 0.196475
0.582055 0.0268559 0.0978561
0.582086 0.0336767 0.0336767
0.00453193 0.195911 0.292531
0.108446 0.167865 0.229908
0.527687 0.199161 0.184237
0.584649 0.0334936 0.034165
0.582025 0.0336767 0.0336767
0.0289006 0.437247 0.178943
0.0287022 0.424216 0.152499
0.666163 0.561624 0.00761425
0.84007 0.489113 0.0329747
0.873991 0.407095 0.0635996
0.026978 0.516655 0.027039
0.027039 0.516594 0.027039
0.312444 0.687907 0.00823987
0.999344 0.770382 0.00209049
0.999146 0.723003 0.00231937
0.0197299 0.567041 0.0197299
0.0197299 0.567041 0.0197299
0.0197299 0.567041 0.0197299
0.823514 0.901061 0.0034638
0.999664 0.85626 0.0015259
0.00970474 0.00970474 0.316472
0.0541695 0.0119478 0.337026
0.610193 0.00788891 0.608759
0.895766 0.0144656 0.588876
0.957809 0.0210269 0.491737
0.00968948 0.00968948 0.316106
0.0138399 0.00915541 0.314672
0.600809 0.00833143 0.602808
0.891554 0.0141299 0.582238
0.95198 0.0216678 0.479408
0.029572 0.493019 0.675242
0.0297551 0.491112 0.67364
0.510216 0.515892 0.595605
0.964401 0.586999 0.640803
0.992874 0.446784 0.526497
0.00640879 0.694499 0.662287
0.00645457 0.693996 0.659907
0.00541695 0.856794 0.60029
0.921508 0.839918 0.427375
0.999176 0.732616 0.00230411
0.0197299 0.566918 0.0197299
0.0197299 0.566918 0.0197299
0.0197299 0.566918 0.0197299
0.814359 0.899825 0.00357061
0.999664 0.855772 0.0015259
0.0113527 0.0113527 0.396719
0.0113527 0.0113527 0.396719
0.483024 0.0124056 0.733639
0.963714 0.0134127 0.884504
0.996597 0.0982681 0.849515
0.0113527 0.0113527 0.396597
0.0113527 0.0113527 0.396536
0.468238 0.0127108 0.724987
0.9626 0.0134127 0.88394
0.996597 0.098024 0.848966
0.0127718 0.0127718 0.472465
0.0127108 0.0127108 0.471077
0.473396 0.0677501 0.826032
0.981201 0.0153201 0.895674
0.996612 0.0970474 0.846311
0.00187686 0.724941 0.998703
0.00187686 0.72488 0.998703
0.00189212 0.723781 0.998688
0.894697 0.840955 0.941619
1 0.907988 1
0.00167849 0.776257 0.999008
0.00167849 0.776196 0.999008
0.00167849 0.775952 0.998993
0.64831 0.936706 0.887266
1 0.953719 1
0.0118715 0.0118715 0.429511
0.0118715 0.0118715 0.429511
0.0118715 0.0118715 0.429511
0.922225 0.0137484 0.979416
0.997238 0.116945 0.948806
0.0118715 0.0118715 0.429511
0.0118715 0.0118715 0.429511
0.0118715 0.0118715 0.429511
0.920424 0.0138857 0.978714
0.997238 0.116945 0.948745
0.0118715 0.0118715 0.42945
0.0118715 0.0118715 0.42945
0.0118715 0.0118715 0.42945
0.912688 0.0140993 0.975677
0.997238 0.116884 0.948562
0.0579995 0.492699 0.937285
0.0585489 0.490242 0.936065
0.0605325 0.483528 0.930983
1 0.738552 1
0.996216 0.198749 0.996216
0.00167849 0.782559 0.999023
0.00167849 0.782559 0.999023
0.00167849 0.78262 0.999023
0.000503548 0.949126 0.999832
1 0.961883 1
