LUTs/Sam_CustomColorScience_+0ev.cube
TITLE "Generated by Resolve"
LUT_3D_SIZE 33
0.0264439 0.0214847 0.0295567
0.0255741 0.0226596 0.029221
0.0263523 0.0240787 0.0298772
0.0215305 0.0247654 0.0293431
0.0296025 0.0265202 0.031632
0.0441901 0.0278325 0.0296025
0.0529488 0.0322271 0.0318608
0.0673228 0.0362707 0.0343328
0.0942702 0.0374914 0.0349279
0.124971 0.0368658 0.0315251
0.154513 0.037583 0.0283513
0.184176 0.0398566 0.0236362
0.217288 0.0382696 0.0146792
0.250034 0.0301213 0.0115053
0.282506 0.0187381 0.0161593
0.304143 0.0206149 0.0206149
0.32401 0.0229343 0.0229343
0.348516 0.0243229 0.0243229
0.369345 0.0253452 0.0253452
0.389593 0.0263371 0.0263371
0.410224 0.0272068 0.0272068
0.429236 0.0281224 0.0281224
0.448005 0.0288701 0.0288701
0.465156 0.0294652 0.0294652
0.482383 0.0299992 0.0299992
0.505074 0.0304265 0.0304265
0.519234 0.0309606 0.0309606
0.532006 0.031281 0.031281
0.545769 0.0313726 0.0315557
0.555642 0.031693 0.0323033
0.565408 0.0322576 0.0325017
0.573892 0.0330053 0.0330053
0.582147 0.0336767 0.0336767
0.0276951 0.0286717 0.0323186
0.0270695 0.0284276 0.0325475
0.0270085 0.0283055 0.0330968
0.0256962 0.028748 0.0335699
0.030457 0.0298924 0.0345464
0.0467994 0.0306554 0.0334173
0.0563821 0.0361028 0.0368963
0.0712139 0.0396887 0.0382696
0.0973983 0.0417639 0.0390326
0.129137 0.043183 0.0343786
0.159258 0.0458076 0.0328374
0.1888 0.0462959 0.026154
0.223774 0.0442817 0.0168002
0.254505 0.0388952 0.0125124
0.285313 0.0246738 0.0168002
0.304036 0.0205539 0.0205539
0.32369 0.022858 0.022858
0.348287 0.0243229 0.0243229
0.369162 0.0253452 0.0253452
0.389899 0.026215 0.026215
0.409628 0.0273289 0.0273289
0.429664 0.0280156 0.0280156
0.448005 0.0288701 0.0288701
0.465583 0.0293431 0.0293431
0.482383 0.0299992 0.0299992
0.505074 0.0304265 0.0304265
0.519234 0.0309606 0.0309606
0.532006 0.031281 0.031281
0.545281 0.0314946 0.0316167
0.555642 0.031693 0.0323033
0.565408 0.0322576 0.0325017
0.573892 0.0330053 0.0330053
0.582147 0.0336767 0.0336767
0.0279545 0.0367895 0.0363775
0.0273442 0.035996 0.0366217
0.0268559 0.0350195 0.0371099
0.0271611 0.0348821 0.0375677
0.0293431 0.0353704 0.0381628
0.0488136 0.0379492 0.0394751
0.0601358 0.0421454 0.041474
0.0743267 0.0465248 0.043473
0.102449 0.0489662 0.0444343
0.134218 0.0521553 0.0391089
0.166171 0.0550851 0.0388952
0.198108 0.0563516 0.0291142
0.23653 0.057435 0.020676
0.273838 0.0573281 0.0168154
0.303304 0.0525368 0.0233005
0.317388 0.0375982 0.0241703
0.333288 0.0244602 0.0234379
0.35285 0.0244907 0.0244907
0.370428 0.0252995 0.0252995
0.389242 0.0263371 0.0263371
0.409506 0.0273289 0.0273289
0.429053 0.0281224 0.0281224
0.447944 0.0288701 0.0288701
0.464912 0.0294652 0.0294652
0.482261 0.0299992 0.0299992
0.505074 0.0304265 0.0304265
0.519234 0.0309606 0.0309606
0.532555 0.0311589 0.0311589
0.545281 0.0314946 0.0316167
0.55552 0.031693 0.0322881
0.565347 0.0322576 0.0325017
0.573892 0.0330053 0.0330053
0.582086 0.0336767 0.0336767
0.0277104 0.0487678 0.0421912
0.0276951 0.0480201 0.0421302
0.0278172 0.0466468 0.0423285
0.0301518 0.0463722 0.043183
0.0304417 0.0469825 0.0443427
0.0523537 0.0498817 0.0462806
0.0657511 0.0549783 0.049073
0.0800336 0.0599222 0.0509346
0.107622 0.0637369 0.0506294
0.142351 0.0675517 0.0459144
0.176364 0.071458 0.0454871
0.2159 0.0761578 0.0323491
0.253971 0.0792554 0.025742
0.298085 0.0821851 0.0244297
0.322637 0.0818647 0.0308232
0.340856 0.0740673 0.0310826
0.352865 0.0523384 0.02916
0.365805 0.0314336 0.0263218
0.381079 0.0260014 0.0260014
0.397284 0.0267948 0.0267948
0.411978 0.0272831 0.0272831
0.429419 0.0280156 0.0280156
0.447822 0.0288701 0.0288701
0.464912 0.0294652 0.0294652
0.482261 0.0299992 0.0299992
0.504295 0.0305486 0.0305486
0.519173 0.0309606 0.0309606
0.532555 0.0311589 0.0311589
0.545281 0.0314946 0.0316167
0.55552 0.031693 0.0322881
0.565347 0.0322576 0.0325017
0.573831 0.0330053 0.0330053
0.582086 0.0336767 0.0336767
0.0175784 0.0628367 0.0505226
0.0187533 0.061387 0.0500191
0.0217594 0.0581064 0.0486152
0.0311589 0.0575875 0.0490272
0.0284123 0.057908 0.0506447
0.0540017 0.0620584 0.0509499
0.0726787 0.0673991 0.0527199
0.0882429 0.0734264 0.0561379
0.117891 0.0799878 0.0557565
0.154177 0.0837568 0.0517128
0.195697 0.0868238 0.0493935
0.236789 0.0973068 0.034699
0.284001 0.102983 0.0274052
0.31928 0.11075 0.0310063
0.344915 0.113832 0.0371099
0.362921 0.109682 0.0397955
0.380118 0.0986191 0.0392615
0.394217 0.0835584 0.0360723
0.402121 0.0509651 0.0304417
0.409628 0.0273289 0.0273289
0.42475 0.027924 0.027924
0.437293 0.028397 0.028397
0.4477 0.0288701 0.0288701
0.465339 0.0293431 0.0293431
0.482139 0.0299992 0.0299992
0.504295 0.0305486 0.0305486
0.519173 0.0309606 0.0309606
0.532555 0.0311589 0.0311589
0.54522 0.0314946 0.0316167
0.55552 0.031693 0.0322881
0.565347 0.0322576 0.0325017
0.573831 0.0330053 0.0330053
0.582086 0.0336767 0.0336767
0.00836194 0.0883345 0.0575265
0.00840772 0.0877394 0.0574502
0.00854505 0.084535 0.0575113
0.0140536 0.082475 0.055314
0.0127108 0.0833753 0.0572366
0.0475624 0.0795605 0.0552529
0.0763256 0.086656 0.0551308
0.0973831 0.0938125 0.0534066
0.127871 0.10193 0.0542153
0.165682 0.1084 0.0544442
0.210895 0.116976 0.0471199
0.257694 0.128634 0.0318303
0.31078 0.137224 0.0292058
0.34287 0.145632 0.0387732
0.368063 0.147341 0.0463722
0.387945 0.14374 0.049073
0.407095 0.133577 0.0484627
0.425269 0.125505 0.0466621
0.438682 0.111406 0.0435187
0.446052 0.0869764 0.0376287
0.443244 0.0344549 0.029221
0.453346 0.0291295 0.0290684
0.464118 0.0293431 0.0293431
0.469703 0.0296635 0.0296635
0.482628 0.0298772 0.0298772
0.504234 0.0305486 0.0305486
0.519051 0.0309606 0.0309606
0.531884 0.031281 0.031281
0.54522 0.0314946 0.0316167
0.55552 0.031693 0.0322881
0.565347 0.0322576 0.0325017
0.573831 0.0330053 0.0330053
0.582086 0.0336767 0.0336767
0.00663767 0.112352 0.0611124
0.00665293 0.111955 0.0610971
0.0071107 0.10692 0.0620432
0.00749218 0.102037 0.0627756
0.00732433 0.103349 0.0639506
0.0267185 0.104799 0.0582742
0.0727092 0.108568 0.0567636
0.0994736 0.11809 0.0522316
0.137331 0.125765 0.0426337
0.182254 0.134218 0.0505379
0.229267 0.145586 0.0355993
0.284459 0.158724 0.0278782
0.329015 0.173114 0.034226
0.365789 0.181033 0.0485389
0.387747 0.181979 0.0538033
0.410452 0.179492 0.0564889
0.433371 0.176761 0.0571145
0.453407 0.170611 0.0565042
0.469551 0.157015 0.0547036
0.483299 0.144137 0.0519265
0.494591 0.124163 0.0468757
0.493523 0.0784161 0.0366369
0.488991 0.0307622 0.0302129
0.497322 0.0304112 0.0304112
0.500893 0.0304875 0.0304875
0.504051 0.0305486 0.0305486
0.519051 0.0309606 0.0309606
0.531884 0.031281 0.031281
0.54522 0.0314946 0.0316167
0.555459 0.031693 0.0323033
0.565347 0.0322576 0.0325017
0.573831 0.0330053 0.0330053
0.582086 0.0336767 0.0336767
0.00062562 0.135958 0.0668956
0.000701915 0.135637 0.0667582
0.00122072 0.132204 0.0669871
0.00308232 0.126314 0.0671397
0.00314336 0.126009 0.0682078
0.0107576 0.127932 0.0642252
0.059556 0.126406 0.0542916
0.0973678 0.136019 0.0486458
0.140139 0.146456 0.0391089
0.19469 0.157931 0.0350805
0.246296 0.172457 0.0248722
0.304158 0.186221 0.0275578
0.34789 0.203021 0.042298
0.380957 0.212604 0.0550546
0.404089 0.21178 0.0589609
0.430167 0.211032 0.0619516
0.454887 0.209888 0.0628061
0.478828 0.206622 0.0630198
0.500832 0.200855 0.0626078
0.522805 0.192996 0.0615854
0.537545 0.180606 0.0595407
0.552163 0.161624 0.0578775
0.555856 0.128206 0.051606
0.544884 0.062623 0.0361791
0.530068 0.031281 0.03122
0.527504 0.0310369 0.0310369
0.519356 0.0309606 0.0309606
0.531762 0.031281 0.031281
0.545098 0.0314946 0.0316167
0.555459 0.031693 0.0323033
0.565286 0.0322576 0.0325017
0.573831 0.0330053 0.0330053
0.582086 0.0336767 0.0336767
0 0.159655 0.0676738
0 0.159457 0.0677043
0 0.157931 0.0683452
0 0.151568 0.0714122
0 0.148516 0.0718547
0 0.154314 0.0726024
0.0350042 0.148928 0.0555581
0.0883497 0.158206 0.0465858
0.139406 0.17232 0.033814
0.20325 0.187716 0.0103914
0.272541 0.205295 0.0109712
0.322881 0.221271 0.028397
0.36524 0.234531 0.0492103
0.394903 0.24712 0.0588998
0.420233 0.249149 0.0644541
0.448692 0.249989 0.0675669
0.475776 0.246433 0.0688792
0.503716 0.242512 0.0697795
0.528161 0.238331 0.0701457
0.548409 0.232486 0.0698253
0.567727 0.222919 0.0685435
0.582757 0.212406 0.0663767
0.593668 0.197009 0.0652934
0.598535 0.172549 0.0592966
0.594507 0.134752 0.0493782
0.569757 0.0428931 0.0341497
0.553262 0.031632 0.032105
0.539315 0.0314794 0.0314794
0.545098 0.0314946 0.0316167
0.555398 0.031693 0.0322881
0.565286 0.0322576 0.0325017
0.57377 0.0330053 0.0330053
0.582025 0.0336767 0.0336767
0 0.184176 0.0672465
0 0.183841 0.0672923
0 0.18378 0.0673075
0 0.178485 0.0686198
0 0.17319 0.0696727
0 0.177279 0.0707866
0.00418097 0.180682 0.0594644
0.0653544 0.18732 0.0408789
0.131563 0.203571 0.0209659
0.203464 0.22092 0
0.278538 0.242512 0.0041352
0.338277 0.265538 0.0294957
0.383444 0.280156 0.051606
0.409339 0.283207 0.0618753
0.437598 0.282048 0.0694438
0.465995 0.283513 0.0736706
0.49601 0.283391 0.0758221
0.526024 0.280827 0.0767834
0.547585 0.278462 0.0770581
0.571496 0.274464 0.0773022
0.590921 0.268788 0.0750286
0.606729 0.261952 0.0742962
0.620325 0.247013 0.0726635
0.630335 0.22945 0.071107
0.636439 0.208286 0.0685435
0.634562 0.180072 0.0616312
0.620523 0.119905 0.0472572
0.582269 0.0337377 0.0337377
0.56022 0.0319371 0.0324254
0.555398 0.031693 0.0322881
0.565225 0.0322576 0.0325017
0.57377 0.0330053 0.0330053
0.582025 0.0336767 0.0336767
0 0.212039 0.0618448
0 0.211978 0.0618601
0 0.21178 0.0619059
0 0.209415 0.0632486
0 0.201175 0.0674601
0 0.201297 0.0678874
0 0.211749 0.0592355
0.027985 0.211566 0.0340581
0.119661 0.234623 0.00141909
0.201587 0.262257 0
0.278325 0.278325 0.00872816
0.351064 0.301411 0.0293126
0.39559 0.312657 0.0445563
0.424659 0.314244 0.0594034
0.454582 0.317723 0.0693065
0.48484 0.321569 0.0765545
0.517937 0.319509 0.0806897
0.544244 0.319722 0.0800336
0.570047 0.318425 0.0809339
0.591867 0.315862 0.0779126
0.614008 0.308751 0.0779278
0.631601 0.303563 0.0780346
0.646479 0.29482 0.0784161
0.660349 0.28101 0.078172
0.669963 0.269139 0.0764324
0.67335 0.248676 0.0741131
0.669825 0.216403 0.0705577
0.66041 0.17438 0.0606394
0.624521 0.0614328 0.0383917
0.581231 0.0334325 0.0334325
0.565225 0.0322576 0.0325017
0.573648 0.0329442 0.0329442
0.582025 0.0336767 0.0336767
0 0.238651 0.057847
0 0.238529 0.057847
0 0.238407 0.0577859
0 0.238285 0.057847
0 0.232166 0.0596323
0 0.226078 0.0615396
0 0.23505 0.0576181
0 0.246891 0.035996
0.0961776 0.273182 0
0.1906 0.293751 0
0.279332 0.310521 0.0162661
0.356786 0.337072 0.0288243
0.405264 0.347723 0.0354467
0.439734 0.348363 0.0487221
0.471336 0.347707 0.0630961
0.504479 0.349432 0.0733043
0.53576 0.351019 0.07776
0.561242 0.348684 0.0809949
0.58883 0.348898 0.0792401
0.613046 0.349111 0.0799878
0.635416 0.344366 0.0801251
0.65684 0.340963 0.0800031
0.675898 0.334295 0.0797894
0.689326 0.326772 0.0795453
0.700099 0.318441 0.081117
0.705501 0.303563 0.0807965
0.708492 0.28275 0.0784619
0.703792 0.257847 0.0764019
0.692454 0.213504 0.0701152
0.667842 0.139193 0.0512551
0.602823 0.0343023 0.0343023
0.573648 0.0329442 0.0329442
0.582025 0.0336767 0.0336767
0 0.270512 0.0568399
0 0.270359 0.0569162
0 0.270253 0.0569772
0 0.270085 0.0569772
0 0.26949 0.0573892
0 0.256367 0.0616159
0 0.259998 0.0593881
0.00198367 0.275044 0.0390173
0.0654612 0.295064 0.0071107
0.17818 0.325231 0.0108644
0.277333 0.351202 0.0243381
0.356085 0.371298 0.0289311
0.410834 0.377371 0.0297398
0.450233 0.377783 0.0370031
0.485435 0.378653 0.0510414
0.524666 0.377844 0.0641184
0.553414 0.380346 0.0707866
0.581247 0.381369 0.0752117
0.607874 0.380484 0.0772869
0.633738 0.379294 0.0785534
0.657832 0.376867 0.0791791
0.680552 0.374746 0.0791791
0.699458 0.369558 0.0791943
0.714885 0.361471 0.078996
0.726818 0.354055 0.0790265
0.737179 0.346441 0.0788891
0.742138 0.335836 0.079408
0.741497 0.317968 0.0810254
0.73814 0.292744 0.0791943
0.723888 0.25745 0.076936
0.700267 0.191455 0.0658579
0.630808 0.0365454 0.0347448
0.582025 0.0336767 0.0336767
0.00833143 0.293187 0.0515297
0.00823987 0.293034 0.0515908
0.00823987 0.293034 0.0515908
0.00819409 0.292927 0.0515602
0.0081178 0.292775 0.0515602
0.0059205 0.289357 0.0537728
0.00224308 0.282795 0.0561074
0.0107729 0.293156 0.0406195
0.0270085 0.317906 0.0233921
0.136141 0.357275 0.0229801
0.264607 0.382452 0.0279545
0.346578 0.397848 0.0281529
0.409293 0.408148 0.0258335
0.457557 0.407721 0.0274968
0.498802 0.409415 0.0347295
0.538323 0.410864 0.0471962
0.569574 0.409705 0.0598154
0.601801 0.411917 0.0658579
0.628092 0.412924 0.0707713
0.65568 0.41326 0.0732891
0.679515 0.408225 0.0749065
0.701549 0.406699 0.0753643
0.721813 0.402472 0.0756542
0.739101 0.398795 0.0755169
0.756329 0.392966 0.0755474
0.772503 0.384451 0.075639
0.781353 0.374517 0.076173
0.784665 0.362676 0.076936
0.78436 0.349065 0.0777447
0.777798 0.327398 0.0802319
0.760357 0.293385 0.0802472
0.728328 0.233021 0.0737011
0.665766 0.0747539 0.0404364
0.0215763 0.323049 0.0434577
0.0215763 0.323049 0.0434577
0.0215152 0.322835 0.0435187
0.0215152 0.322835 0.0435187
0.0214389 0.32256 0.0435187
0.0213626 0.322286 0.0435645
0.0171359 0.312093 0.05066
0.0188144 0.314336 0.0450446
0.0260471 0.34548 0.0286412
0.057557 0.37821 0.0272831
0.222293 0.401495 0.0287633
0.324117 0.418616 0.0272374
0.397742 0.432303 0.0232395
0.457923 0.441428 0.0188602
0.508659 0.442237 0.0208896
0.5505 0.440757 0.0287327
0.586801 0.440665 0.039704
0.619837 0.442802 0.0480049
0.646326 0.444358 0.0539254
0.675883 0.444587 0.0598001
0.700099 0.443442 0.0636454
0.723171 0.441993 0.0654002
0.745708 0.434958 0.0671397
0.769024 0.43209 0.0674144
0.787671 0.427237 0.0677501
0.803189 0.422858 0.0676127
0.812253 0.415061 0.0685893
0.818372 0.404364 0.0700084
0.82092 0.391012 0.071809
0.81828 0.376287 0.0740673
0.810971 0.358663 0.0763409
0.796567 0.325383 0.079881
0.7617 0.275547 0.0795911
0.0266117 0.357977 0.0308843
0.0266117 0.357977 0.0308843
0.0266117 0.357794 0.0309453
0.0266117 0.357794 0.0309453
0.0266117 0.35761 0.0309453
0.0266117 0.35761 0.0309453
0.0265965 0.357427 0.03093
0.0253452 0.34432 0.0445106
0.0269169 0.36321 0.026978
0.0275731 0.391135 0.0275731
0.165469 0.417517 0.0288548
0.293446 0.438361 0.0262303
0.381247 0.455589 0.0202182
0.446021 0.470283 0.0123903
0.509239 0.474235 0.00759899
0.554665 0.472892 0.00939956
0.597375 0.474693 0.0163272
0.636088 0.474113 0.0256962
0.669184 0.476738 0.0328832
0.698634 0.477012 0.0384527
0.723613 0.475502 0.043534
0.74992 0.474052 0.0464179
0.779904 0.470085 0.0479744
0.799359 0.465049 0.049424
0.819806 0.461585 0.0496223
0.835615 0.457572 0.0500954
0.846494 0.451469 0.0513771
0.856016 0.444389 0.0533303
0.86247 0.434455 0.0565652
0.863325 0.423041 0.0606241
0.858961 0.406683 0.0654154
0.848676 0.387335 0.0703288
0.830411 0.361334 0.074876
0.0271916 0.384985 0.0281529
0.0271916 0.384863 0.0281529
0.0271916 0.384863 0.0281529
0.0271916 0.384741 0.0281987
0.0271916 0.384741 0.0281987
0.0271763 0.384619 0.0281987
0.0271763 0.384619 0.0281987
0.0271611 0.382971 0.02916
0.0271153 0.378393 0.0306096
0.0278172 0.400961 0.0278172
0.0725109 0.429297 0.0287633
0.245914 0.455802 0.0257115
0.354101 0.479194 0.0168765
0.428702 0.497139 0.00772107
0.504204 0.515694 0.00796521
0.559731 0.516457 0.00791943
0.608316 0.515785 0.00775158
0.649622 0.51458 0.0075227
0.68365 0.514275 0.00726329
0.715236 0.514427 0.00978103
0.744472 0.512917 0.0162661
0.778088 0.513252 0.0205997
0.802823 0.509804 0.0240635
0.823774 0.505348 0.0264286
0.846006 0.500404 0.0276188
0.863233 0.495689 0.0280308
0.878599 0.487907 0.0296788
0.891051 0.482338 0.0312963
0.899367 0.475563 0.0337224
0.903395 0.466163 0.0377508
0.904128 0.455238 0.0423438
0.899397 0.441001 0.0486305
0.886046 0.418982 0.0583505
0.0279088 0.40412 0.0279088
0.0279088 0.40412 0.0279088
0.0279088 0.40412 0.0279088
0.0279088 0.403998 0.0279088
0.0279088 0.403998 0.0279088
0.0279088 0.403998 0.0279088
0.0279088 0.403876 0.0279088
0.0279088 0.403754 0.0279088
0.0278019 0.399496 0.0278019
0.027924 0.405341 0.027985
0.0287175 0.436515 0.0287175
0.140291 0.467964 0.0272374
0.316793 0.501122 0.0153048
0.409201 0.524529 0.00791943
0.483452 0.541543 0.00816358
0.55848 0.552026 0.00814832
0.61503 0.549798 0.00791943
0.6636 0.549844 0.00759899
0.703899 0.549554 0.00721752
0.73753 0.54818 0.00680552
0.775372 0.546441 0.00630198
0.802655 0.545144 0.00587472
0.827344 0.543709 0.00544747
0.850217 0.540505 0.005066
0.872343 0.538933 0.00468452
0.892378 0.534417 0.00430304
0.907576 0.531121 0.00402838
0.920043 0.527077 0.00459297
0.930404 0.521096 0.0074464
0.937102 0.513817 0.0112764
0.9411 0.502144 0.0157168
0.940764 0.486519 0.0218967
0.935286 0.471672 0.0303502
0.0283665 0.422553 0.0283665
0.0283055 0.422492 0.0283665
0.0283055 0.422492 0.0283665
0.0283055 0.422492 0.0283665
0.0283055 0.42237 0.0283665
0.0283055 0.42237 0.0283665
0.0283055 0.42237 0.0283665
0.0283055 0.422309 0.0283665
0.0283055 0.422309 0.0283665
0.0281682 0.415351 0.0281682
0.0287022 0.436027 0.0287022
0.0422217 0.473411 0.0283055
0.260075 0.518288 0.0161288
0.375296 0.54374 0.00802625
0.460761 0.565133 0.00831617
0.544472 0.580346 0.00833143
0.614176 0.586053 0.00807202
0.671275 0.584848 0.00764477
0.718486 0.584878 0.00712596
0.764096 0.585199 0.00653086
0.798932 0.584421 0.00601205
0.830472 0.5841 0.00549325
0.856626 0.580667 0.00503548
0.880934 0.577691 0.00459297
0.905257 0.574899 0.00416571
0.925444 0.572335 0.00381476
0.940703 0.570382 0.00354009
0.954238 0.566949 0.00329595
0.965255 0.56144 0.00309758
0.972839 0.555016 0.00292973
0.977493 0.547738 0.00283818
0.977691 0.538369 0.00283818
0.974182 0.526574 0.0028687
0.0287327 0.43859 0.0287327
0.0287327 0.438529 0.0287327
0.0287327 0.438529 0.0287327
0.0287327 0.438529 0.0287327
0.0287327 0.438529 0.0287327
0.0287327 0.438468 0.0287327
0.0287327 0.438468 0.0287327
0.0287327 0.438468 0.0287327
0.0287327 0.438346 0.0287327
0.0287327 0.438346 0.0287327
0.0285954 0.431998 0.0285954
0.0286412 0.469825 0.0286412
0.110994 0.523384 0.0227207
0.327871 0.556924 0.00799573
0.432441 0.584543 0.00840772
0.521309 0.604181 0.00846876
0.600931 0.620371 0.00819409
0.670665 0.622156 0.00766003
0.724529 0.620081 0.00708019
0.776486 0.619425 0.00634775
0.814496 0.619089 0.00575265
0.848707 0.615793 0.00515755
0.87924 0.614069 0.00462348
0.905623 0.610178 0.00418097
0.931243 0.60708 0.0037232
0.951064 0.606043 0.00337224
0.968032 0.604944 0.00306706
0.982132 0.601083 0.00282292
0.993561 0.597177 0.00260929
0.998535 0.593439 0.00254826
0.99852 0.587808 0.00251774
0.998489 0.581201 0.002533
0.998459 0.573175 0.00251774
0.0287785 0.453849 0.0288396
0.0287785 0.453788 0.0288396
0.0287785 0.453788 0.0288396
0.0287785 0.453788 0.0288396
0.0287785 0.453788 0.0288396
0.0287785 0.453788 0.0288396
0.0288396 0.453666 0.0288396
0.0288396 0.453666 0.0288396
0.0288396 0.453666 0.0288396
0.0288396 0.453605 0.0288396
0.0288396 0.453605 0.0288396
0.0287785 0.454627 0.0287938
0.0282597 0.518013 0.026627
0.235798 0.562631 0.00767529
0.383932 0.599374 0.00839246
0.482795 0.629252 0.00857557
0.574762 0.645441 0.00834669
0.661585 0.65481 0.00772107
0.722744 0.65362 0.00703441
0.781506 0.6533 0.00621042
0.824643 0.651377 0.00553903
0.862043 0.648203 0.00489815
0.895918 0.645884 0.0043183
0.92871 0.642725 0.00375372
0.952239 0.639628 0.00332647
0.972808 0.638407 0.00296025
0.990234 0.635538 0.00267033
0.998718 0.634012 0.00254826
0.998718 0.631128 0.00254826
0.998703 0.626474 0.002533
0.998657 0.621408 0.00254826
0.998657 0.616251 0.00254826
0.998642 0.610071 0.002533
0.028687 0.468544 0.028687
0.028687 0.468544 0.028687
0.028687 0.468544 0.028687
0.028687 0.468421 0.028687
0.028687 0.468421 0.028687
0.028687 0.468421 0.028687
0.028687 0.468421 0.028687
0.028687 0.468421 0.028687
0.028687 0.46836 0.028687
0.028687 0.46836 0.028687
0.028687 0.468299 0.028687
0.028687 0.468299 0.028687
0.028336 0.483192 0.028336
0.0394293 0.556848 0.020325
0.3149 0.609079 0.00823987
0.435523 0.646113 0.00860609
0.543069 0.667674 0.0084535
0.636957 0.681056 0.00782788
0.714031 0.684825 0.00701915
0.779965 0.68484 0.00610361
0.828763 0.683558 0.00535592
0.871183 0.681071 0.004654
0.907515 0.678981 0.00404364
0.945251 0.675044 0.00337224
0.970184 0.673289 0.00296025
0.991073 0.671275 0.00262455
0.998886 0.669383 0.00247196
0.998886 0.667475 0.00247196
0.998856 0.662531 0.00250248
0.998825 0.655741 0.00248722
0.998825 0.651072 0.00251774
0.998779 0.646616 0.002533
0.998764 0.64184 0.00251774
0.0283818 0.481971 0.028397
0.0283818 0.481971 0.028397
0.0283818 0.481971 0.028397
0.0283818 0.481971 0.028397
0.0283818 0.481971 0.028397
0.0283818 0.481971 0.028397
0.0283818 0.481971 0.028397
0.0283818 0.48191 0.028397
0.0283818 0.48191 0.028397
0.0283818 0.48191 0.028397
0.0283818 0.481788 0.028397
0.0283818 0.481788 0.028397
0.0283818 0.481727 0.028397
0.0260166 0.527779 0.0260166
0.159335 0.600153 0.00746166
0.371786 0.655604 0.00851453
0.490684 0.686061 0.00852979
0.604395 0.703258 0.00798047
0.693507 0.714412 0.00708019
0.771634 0.71754 0.00602731
0.826581 0.715908 0.0052491
0.873549 0.713985 0.00445563
0.918151 0.710628 0.00375372
0.957076 0.706813 0.00309758
0.984909 0.705852 0.00263981
0.999039 0.703655 0.00241093
0.999039 0.7028 0.00241093
0.999023 0.697597 0.00239567
0.998978 0.691051 0.00244144
0.998947 0.685176 0.00242618
0.998947 0.680339 0.0024567
0.998917 0.676661 0.00247196
0.998901 0.672923 0.00248722
0.0278172 0.500648 0.0278325
0.0278172 0.500648 0.0278325
0.0278172 0.500648 0.0278325
0.0278172 0.500648 0.0278325
0.0278172 0.500648 0.0278325
0.0278172 0.500648 0.0278325
0.0278172 0.500648 0.0278325
0.0278172 0.500648 0.0278325
0.0278172 0.50042 0.0278325
0.0278172 0.50042 0.0278325
0.0278172 0.50042 0.0278325
0.0278172 0.500267 0.0278172
0.0278172 0.500267 0.0278172
0.0277562 0.500038 0.0278172
0.0201419 0.565133 0.0201572
0.246082 0.649027 0.0080415
0.426352 0.696406 0.00849927
0.553323 0.721233 0.00813306
0.662242 0.735836 0.00723278
0.750256 0.743954 0.00614939
0.818296 0.744762 0.00515755
0.870939 0.743282 0.00436408
0.920424 0.740368 0.00358587
0.96318 0.737423 0.0028687
0.995087 0.736156 0.00233463
0.999176 0.734203 0.00228885
0.999176 0.732921 0.00230411
0.999146 0.726558 0.00230411
0.999115 0.717861 0.00236515
0.999084 0.711986 0.00234989
0.999084 0.707256 0.00238041
0.999039 0.702739 0.00241093
0.999023 0.699077 0.00239567
0.026978 0.517205 0.026978
0.026978 0.517205 0.026978
0.026978 0.517205 0.026978
0.026978 0.517205 0.026978
0.026978 0.517205 0.026978
0.026978 0.517205 0.026978
0.026978 0.517143 0.026978
0.026978 0.517143 0.026978
0.026978 0.517143 0.026978
0.026978 0.517143 0.026978
0.026978 0.517143 0.026978
0.026978 0.517143 0.027039
0.026978 0.517143 0.027039
0.027039 0.517082 0.027039
0.027039 0.516289 0.0271
0.0172885 0.6065 0.0103456
0.323796 0.692836 0.00827039
0.48336 0.733272 0.00825513
0.616632 0.758404 0.00743114
0.719188 0.773114 0.00628672
0.804303 0.77789 0.00512703
0.863569 0.777844 0.00424201
0.918364 0.775982 0.00337224
0.964889 0.772625 0.00263981
0.999344 0.771557 0.00207523
0.999344 0.770199 0.00209049
0.999344 0.768246 0.00210575
0.999283 0.754971 0.00216678
0.999222 0.741802 0.00222782
0.999222 0.736645 0.00227359
0.999176 0.731197 0.00230411
0.999146 0.726925 0.00228885
0.999146 0.723857 0.00231937
0.0261845 0.526192 0.0261845
0.0261845 0.526192 0.0261845
0.0261845 0.526192 0.0261845
0.0261845 0.526192 0.0261845
0.0261845 0.526192 0.0261845
0.0261845 0.526192 0.0261845
0.0261845 0.526192 0.0261845
0.0261845 0.526192 0.0261845
0.0261845 0.526131 0.0261845
0.0261845 0.526131 0.0261845
0.0261845 0.526131 0.0261845
0.0261845 0.526131 0.0261845
0.0261845 0.52607 0.0261845
0.0261845 0.52607 0.0261845
0.0261845 0.526009 0.0262455
0.0263523 0.524422 0.0263676
0.0614328 0.647837 0.00662242
0.385183 0.730571 0.00819409
0.552224 0.770886 0.00767529
0.676875 0.788098 0.00656138
0.779721 0.798825 0.0052491
0.849958 0.8009 0.00422675
0.910521 0.799054 0.00332647
0.961578 0.796551 0.00254826
0.999466 0.796475 0.00195315
0.999435 0.794949 0.00196841
0.999435 0.792309 0.00198367
0.999405 0.781888 0.00202945
