LUTs/SatCurvesInterp3.cube
#Loaded 109 keypoints.
# header
LUT_3D_SIZE 5
0.0 0.0 0.0
0.0 0.0 0.25
0.0 0.0 0.5
0.0 0.0 0.75
0.0 0.0 1.0
0.0 0.25 0.0
-0.010375017300248344 0.2487287705435472 0.2912130995708331
-0.019011755004076168 0.2496361547645365 0.5705987278921542
-0.015847450781858775 0.2544131743113886 0.7970370879211437
0.0 0.25 1.0
0.0 0.5 0.0
-0.010375017300248344 0.4987287705435472 0.2912130995708331
-0.015317910861682563 0.5042657088291009 0.545465351486941
-0.019283022150130242 0.5110281173082158 0.7930646508251982
0.0 0.5 1.0
0.0 0.75 0.0
-0.007658955430841281 0.7521328544145505 0.2727326757434705
-0.011624066719288959 0.7588952628936654 0.5203319750817278
-0.012575693428516417 0.760518240928653 0.7697558069229095
0.0 0.75 1.0
0.0 1.0 0.0
0.0 1.0 0.25
0.0 1.0 0.5
0.0 1.0 0.75
0.0 1.0 1.0
0.25 0.0 0.0
0.25777892508479217 -0.005400506562965029 0.26726808658865936
0.26337975114584244 -0.009288871288299859 0.5297011089324941
0.26337975114584244 -0.009288871288299859 0.7797011089324941
0.25 0.0 1.0
0.25 0.25 1.1207990553949598e-18
0.25622287943029415 0.2522790345359269 0.25620887101951106
0.24362890612972832 0.25467765031063133 0.530796098200593
0.2437392506129217 0.24387754873101308 0.84002383965322
0.25 0.25 1.0
0.25 0.5 2.2415981107899196e-18
0.28194937607632037 0.4887708663195838 0.27840226625608766
0.2572331993588699 0.5049365308247256 0.5138953667208408
0.23331155458779984 0.5120628594433301 0.7938490422337687
0.25 0.5 1.0
0.25 0.75 3.3623971661848798e-18
0.3092801906485474 0.7229122489056666 0.30849059214617514
0.2895111687398465 0.7407159601403837 0.5225733673534672
0.25511251433807136 0.7606587488861638 0.7640129301477885
0.25 0.75 1.0
0.25 1.0 0.0
0.25 1.0 0.25
0.25 1.0 0.5
0.25 1.0 0.75
0.25 1.0 1.0
0.5 0.0 0.0
0.5077789250847922 -0.005400506562965029 0.26726808658865936
0.5155578501695843 -0.010801013125930058 0.5345361731773187
0.5186219479419922 -0.01036053693403344 0.7862125091490899
0.5 0.0 1.0
0.5 0.25 1.1207990553949598e-18
0.4816570886079065 0.26654629305952254 0.25742156074948286
0.5020753872289271 0.2565625952452177 0.5091821010343847
0.5148739091395197 0.24289683723956762 0.7998867337181438
0.5 0.25 1.0
0.5 0.5 2.2415981107899196e-18
0.5060002548668894 0.5084582128505368 0.25533450957067017
0.50435907393694 0.50922756642103 0.5095837190747299
0.4995447497610953 0.5067822268334707 0.788708534338633
0.5 0.5 1.0
0.5 0.75 0.0
0.5217664151682211 0.7478590390799592 0.2886731972623509
0.5272498209535726 0.749246705890187 0.5210522745734029
0.5104802570832775 0.759846497413723 0.7643624413614124
0.5 0.75 1.0
0.5 1.0 0.0
0.49999999999999994 0.9999999999999999 0.24999999999999997
0.5 1.0 0.5
0.5 1.0 0.75
0.5 1.0 1.0
0.75 0.0 0.0
0.7577789250847922 -0.005400506562965029 0.26726808658865936
0.761562065919369 -0.005264041921610422 0.5201509825078555
0.7650212242471717 -0.004678633669094767 0.7718675116160142
0.75 0.0 1.0
0.75 0.25 1.1207990553949598e-18
0.6693269491088991 0.29387126304330546 0.2904471703743366
0.7191718051434366 0.27688290923833675 0.5010953645419306
0.7596303015065713 0.2543349960397948 0.7649887078500408
0.75 0.25 1.0
0.75 0.5 0.0
0.714564245932056 0.5276642876906695 0.27536389777377845
0.7171289532683638 0.5264933916718479 0.5285725415099493
0.7596886934765374 0.508717998936901 0.7623808078579778
0.75 0.5 1.0
0.75 0.75 0.0
0.7595012481865427 0.7615606387598212 0.26053625896573374
0.753510117773732 0.7635098071614566 0.5201197157567634
0.7631877580691476 0.7604919519139944 0.7641829807853185
0.75 0.75 1.0
0.75 1.0 0.0
0.7499999999999999 1.0 0.25
0.75 1.0 0.5000000000000001
0.75 1.0 0.75
0.75 1.0 1.0
1.0 0.0 0.0
1.0 -2.6159965307119185e-18 0.25
1.0 0.0 0.5
1.0 0.0 0.75
1.0 0.0 1.0
1.0 0.25 0.0
1.0 0.24999999999999997 0.25
0.9999999999999999 0.25 0.5
1.0 0.25 0.75
1.0 0.25 1.0
1.0 0.5 0.0
1.0 0.5 0.25
1.0 0.49999999999999994 0.5
1.0 0.49999999999999994 0.75
1.0 0.5 1.0
1.0 0.75 0.0
1.0 0.75 0.25
1.0 0.75 0.5
1.0 0.75 0.75
1.0 0.75 1.0
1.0 1.0 0.0
1.0 1.0 0.25
1.0 1.0 0.5
1.0 1.0 0.75
1.0 1.0 1.0
