LUTs/SatCurves_interp.cube
#Loaded 109 keypoints.
# header
LUT_3D_SIZE 9
0.0 0.0 0.0
0.125 0.0 0.0
0.25 0.0 0.0
0.375 0.0 0.0
0.5 0.0 0.0
0.625 0.0 0.0
0.75 0.0 0.0
0.875 0.0 0.0
1.0 0.0 0.0
0.0 0.125 0.0
0.14560654978541654 0.1243643852717736 -0.005187508650124172
0.2912130995708331 0.1237287705435472 -0.010375017300248344
0.4368196493562496 0.12309315581532077 -0.015562525950372516
0.5824261991416662 0.12245754108709438 -0.020750034600496688
0.6932794582758304 0.12441855326018522 -0.018230360731621032
0.7958990011182011 0.1258125702079398 -0.01307704306127521
0.8985185439605718 0.1272065871556943 -0.007923725390929387
1.0 0.125 0.0
0.0 0.25 0.0
0.14560654978541654 0.2493643852717736 -0.005187508650124172
0.2912130995708331 0.2487287705435472 -0.010375017300248344
0.4368196493562496 0.24809315581532077 -0.015562525950372516
0.5705987278921542 0.2496361547645365 -0.019011755004076168
0.6943983775612829 0.25301735900409383 -0.020994310648300013
0.7970370879211437 0.2544131743113886 -0.015847450781858775
0.8996566307635144 0.25580719125914314 -0.010694133111512953
1.0 0.25 0.0
0.0 0.375 0.0
0.14560654978541654 0.37436438527177357 -0.005187508650124172
0.2912130995708331 0.3737287705435472 -0.010375017300248344
0.43423239002041886 0.3735697275572613 -0.015182277288655528
0.5580320396895475 0.3769509317968187 -0.017164832932879365
0.6818316893586762 0.3803321360363761 -0.019147388577103207
0.7981751747240864 0.38301377841483736 -0.01861785850244234
0.9007947175664572 0.38440779536259195 -0.013464540832096517
1.0 0.375 0.0
0.0 0.5 0.0
0.14560654978541654 0.49936438527177357 -0.005187508650124172
0.2912130995708331 0.4987287705435472 -0.010375017300248344
0.4216657018178123 0.5008845045895435 -0.013335355217458726
0.545465351486941 0.5042657088291009 -0.015317910861682563
0.6692650011560696 0.5076469130686584 -0.0173004665059064
0.7930646508251982 0.5110281173082158 -0.019283022150130242
0.9019328043693997 0.5130083994660408 -0.016234948552680085
1.0 0.5 0.0
0.0 0.625 0.0
0.14560654978541654 0.6243643852717735 -0.005187508650124172
0.2852993639460771 0.6248180773822682 -0.009505877502038084
0.40909901361520573 0.6281992816218257 -0.011488433146261924
0.5328986632843343 0.6315804858613832 -0.01347098879048576
0.656698312953463 0.6349616901009406 -0.0154535444347096
0.7804979626225916 0.6383428943404981 -0.017436100078933436
0.9024386207262631 0.6396086679564624 -0.017466240872939458
1.0 0.625 0.0
0.0 0.75 0.0
0.14560654978541654 0.7493643852717735 -0.005187508650124172
0.2727326757434705 0.7521328544145505 -0.007658955430841281
0.3965323254125991 0.7555140586541079 -0.009641511075065121
0.5203319750817278 0.7588952628936654 -0.011624066719288959
0.6447558069229095 0.7605182409286529 -0.012575693428516417
0.7697558069229095 0.760518240928653 -0.012575693428516417
0.8947558069229095 0.760518240928653 -0.012575693428516417
1.0 0.75 0.0
0.0 0.875 0.0
0.13636633787173524 0.8760664272072752 -0.0038294777154206407
0.2601659875408639 0.8794476314468327 -0.005812033359644479
0.38487790346145473 0.8802591204643265 -0.006287846714258209
0.5098779034614547 0.8802591204643265 -0.006287846714258209
0.6348779034614547 0.8802591204643265 -0.006287846714258209
0.7598779034614547 0.8802591204643265 -0.006287846714258209
0.8848779034614547 0.8802591204643265 -0.006287846714258209
1.0 0.875 0.0
0.0 1.0 0.0
0.125 1.0 0.0
0.25 1.0 0.0
0.375 1.0 0.0
0.5 1.0 0.0
0.625 1.0 0.0
0.75 1.0 0.0
0.875 1.0 0.0
1.0 1.0 0.0
0.0 0.0 0.125
0.13363404329432968 -0.0027002532814825145 0.12888946254239608
0.26485055446624706 -0.004644435644149929 0.13168987557292122
0.38985055446624706 -0.004644435644149929 0.13168987557292122
0.514850554466247 -0.004644435644149929 0.13168987557292122
0.639850554466247 -0.004644435644149929 0.13168987557292122
0.764850554466247 -0.004644435644149929 0.13168987557292122
0.889850554466247 -0.004644435644149929 0.13168987557292122
1.0 0.0 0.125
5.603995276974799e-19 0.125 0.125
0.133883072249297 0.1251729128206325 0.1278058724350972
0.274788965663737 0.1248199196583935 0.12317907523575018
0.4141838344233105 0.12545699226130794 0.11718467859110307
0.5596868002308557 0.12472179007367593 0.11155553375465983
0.7066038084141928 0.12086040149939892 0.11152462108074374
0.8196620430865496 0.12183696371164573 0.11372085751788547
0.9437921885917772 0.12091642044266157 0.11570538342483425
1.0 0.125 0.125
1.1207990553949598e-18 0.25 0.125
0.14369009595428148 0.2492072420386198 0.12979695954567397
0.2643481504726704 0.25174933465809085 0.1272064122311259
0.39864632918400156 0.2553767022197263 0.11728464966675022
0.5479237487719885 0.2545963801897561 0.11030504945109182
0.6996037933614925 0.25241617841051917 0.10515758906810392
0.8513097700295753 0.2500284189431033 0.1004077140993325
0.9956061246046688 0.2471194141858956 0.09931614402188363
1.0 0.25 0.125
1.6811985830924399e-18 0.375 0.125
0.14554907001450934 0.36820508992944123 0.14470610618008917
0.26178907044939903 0.375601481221364 0.13427000361316413
0.38427294489216285 0.38035013304688703 0.12665137695766404
0.522163341956475 0.3823052436120099 0.11864304555925978
0.6753060485829009 0.38033968718214584 0.11251654662191832
0.8187901627383405 0.3822844967759085 0.1023956806344369
0.9693951818114619 0.3798902395399334 0.09807830747771559
1.0 0.375 0.125
2.2415981107899196e-18 0.5 0.12500000000000003
0.15809945166110792 0.48393056839704596 0.16119640072186786
0.27220987242909456 0.48835339400024913 0.15817688170066568
0.38779897401256774 0.49812702902016465 0.143321832837092
0.5124972529146617 0.5049713822492505 0.1307446731125017
0.6473318757907097 0.510078998867394 0.11771240912004313
0.7881256161119504 0.5135810770229807 0.10556006202994642
0.9366108344660901 0.5136301368474938 0.09725412788490492
1.0 0.5 0.125
2.801997638487399e-18 0.625 0.12500000000000003
0.16538378432392897 0.6050411923602226 0.1668983343367781
0.2852815073185538 0.6020984172840614 0.1791233697478738
0.4020209098426966 0.6119604921475139 0.1636561608760884
0.5209202517665223 0.6218183158386155 0.14737381246341352
0.6356241554725512 0.6334392817271812 0.12922969288999292
0.767851648363199 0.6377523390172123 0.11875127029689861
0.9110542020650334 0.6407207632737748 0.1067282317546771
1.0 0.625 0.125
3.3623971661848798e-18 0.75 0.125
0.17266811698675 0.7261518163233995 0.1726002679516883
0.30054162109112154 0.7177261764220142 0.19553915411233702
0.41106672397842214 0.7287311662236278 0.18019755566431397
0.5222153725035493 0.7412577150931327 0.16163104325739147
0.6375208011030755 0.7543426085016187 0.14038354569128228
0.7645263018879052 0.7614128351014848 0.12648324672022895
0.8990449064806704 0.7642802260089231 0.11639064814500573
1.0 0.75 0.125
3.92279669388236e-18 0.875 0.12500000000000003
0.17409640605589188 0.850272979199024 0.17413688756302526
0.31426121645209387 0.8343500463219464 0.21058668460453966
0.41504689132174005 0.8464438845713907 0.19682081093390658
0.5209429019002965 0.8611268634889637 0.17602350752727527
0.6410436502021328 0.8713265631059262 0.15645415663368578
0.7594078364705623 0.8773561010562049 0.13954198625053343
0.8835354577320489 0.8821710834544607 0.12689710051910275
1.0 0.875 0.125
0.0 1.0 0.125
0.125 1.0 0.125
0.25 1.0 0.125
0.375 1.0 0.125
0.5 1.0 0.125
0.625 1.0 0.125
0.75 1.0 0.125
0.875 1.0 0.125
1.0 1.0 0.125
0.0 0.0 0.25
0.13363404329432968 -0.0027002532814825145 0.2538894625423961
0.26726808658865936 -0.005400506562965029 0.25777892508479217
0.40090212988298907 -0.008100759844447546 0.26166838762718825
0.5297011089324941 -0.009288871288299859 0.26337975114584244
0.6547011089324941 -0.009288871288299859 0.26337975114584244
0.7797011089324941 -0.009288871288299859 0.26337975114584244
0.893106254574545 -0.00518026846701672 0.2593109739709961
1.0 0.0 0.25
5.603995276974799e-19 0.125 0.25
0.13321837292438615 0.13357016333674948 0.23852682878731202
0.2538580858578221 0.1277332484408978 0.25239305789615574
0.39332440717161155 0.1266397883915457 0.24976880795453388
0.5392011309469458 0.12471278666792199 0.24633692534093476
0.6831105058016955 0.11938508508985678 0.25033143233134797
0.827553981279961 0.11610941024732616 0.24985691032932625
0.96273495975403 0.11323073042446104 0.2517403386109073
1.0 0.125 0.25
1.1207990553949598e-18 0.25 0.25
0.13747479273268587 0.25151722975979107 0.25458475446272266
0.25620887101951106 0.2522790345359269 0.25622287943029415
0.3909218543153815 0.2535813093973608 0.2507076693216287
0.530796098200593 0.25467765031063133 0.24362890612972832
0.6816535321048779 0.24956452447487298 0.24455302538842547
0.84002383965322 0.24387754873101308 0.2437392506129217
0.9911465193588942 0.24132748365030166 0.2395304249456286
1.0 0.25 0.25
1.6811985830924399e-18 0.375 0.25
0.14482800384795727 0.3710198797245341 0.266408050001757
0.2616851427257342 0.37397857091883074 0.2644488452758769
0.383952102103849 0.37946735762188855 0.2554599262644777
0.5255591571001363 0.38236912679487617 0.2441760941812419
0.6756908264288174 0.38060099705437955 0.23880999624606047
0.8272591375255398 0.3781180424306525 0.23429948817224183
0.9781020228583195 0.37633236595823705 0.22869666683285758
1.0 0.375 0.25
2.2415981107899196e-18 0.5 0.25
0.16622832549163058 0.48508633364649734 0.2835480152512834
0.27840226625608766 0.4887708663195838 0.28194937607632037
0.3897846939610396 0.49689807580877926 0.2719305536051294
0.5138953667208408 0.5049365308247256 0.2572331993588699
0.6460284921555952 0.5109127269029019 0.24352572196664082
0.7938490422337687 0.5120628594433301 0.23331155458779984
0.9444760882589418 0.5109067440994529 0.22655503794152188
1.0 0.5 0.25
2.801997638487399e-18 0.625 0.25
0.1814609594114743 0.6020388429934572 0.2973736223392856
0.2943859612542872 0.6039891911246646 0.29889316554686574
0.39768556263919647 0.613642050308307 0.28896083005416506
0.518500582322106 0.62263338376836 0.27364931453014807
0.6366177773571293 0.6338286914436034 0.2550395046485287
0.7713974800453939 0.6374397418169372 0.2449662048248302
0.9207870670595217 0.6389211364372388 0.23350344582797838
1.0 0.625 0.25
3.3623971661848798e-18 0.75 0.25
0.18743580742950416 0.7241277171748217 0.30366980568560453
0.30849059214617514 0.7229122489056666 0.3092801906485474
0.4116641046821839 0.7306864488318611 0.3030841797256116
0.5225733673534672 0.7407159601403837 0.2895111687398465
0.6378321411440958 0.7534696086336474 0.2689318432841024
0.7640129301477885 0.7606587488861638 0.25511251433807136
0.8960679855330727 0.7648012399939556 0.24503471565965243
1.0 0.75 0.25
0.0 0.875 0.25
0.17785288773601493 0.8568063247177842 0.28891767908804816
0.31800079044725593 0.8431964916894948 0.3187465764319224
0.42229820664959916 0.8507018819967687 0.31264981459334135
0.5284239191905142 0.8579990208876641 0.3062648594123052
0.6442424339021962 0.8695988621251517 0.2856271998125917
0.7649846390403563 0.8752694684883637 0.27107781653517105
0.8885279375030883 0.8809326250496371 0.2578075040912354
1.0 0.875 0.25
0.0 1.0 0.25
0.12499999999999999 1.0 0.24999999999999997
0.25 1.0 0.25
0.375 1.0 0.25
0.5 1.0 0.25
0.625 1.0 0.25
0.75 1.0 0.25
0.875 1.0 0.25
1.0 1.0 0.25
0.0 0.0 0.375
0.13363404329432968 -0.0027002532814825145 0.3788894625423961
0.26726808658865936 -0.005400506562965029 0.38277892508479217
0.40090212988298907 -0.008100759844447546 0.38666838762718825
0.5345361731773187 -0.010801013125930058 0.3905578501695843
0.6681702164716484 -0.013501266407412574 0.39444731271198036
0.784787575518363 -0.010473430872421875 0.39164328804520887
0.894531188205272 -0.005067374528628284 0.3862896338677795
1.0 0.0 0.375
5.603995276974799e-19 0.125 0.375
0.13824114501948817 0.14410677490735718 0.3428793274715487
0.25623125505909683 0.13917944526390183 0.3559700767160241
0.3802607822150939 0.1282701364657642 0.3785019974305283
0.5195165522014445 0.12470088709289094 0.3808185629642182
0.6639139101458449 0.11803320113596384 0.3872576888280526
0.8191639573999671 0.11149862700067933 0.38929763066066925
0.9736726604881475 0.10493130784242086 0.39168455753288856
1.0 0.125 0.375
1.1207990553949598e-18 0.25 0.375
0.13816369102083842 0.2571481135193059 0.3702205513436203
0.2560145728809138 0.2569193762078702 0.3741400811522052
0.3799420180447197 0.2543461447658171 0.3803455230513099
0.5192074298002354 0.2555201827607513 0.3733463755721433
0.6648274770261821 0.2481078890118016 0.3807811066366481
0.8255320903099455 0.23994443361763146 0.38393916455537236
0.9727427314043021 0.237938960762143 0.38015274277073935
1.0 0.25 0.375
1.6811985830924399e-18 0.375 0.37500000000000006
0.14129197599848303 0.3770505298667143 0.382869876328951
0.2546677073948858 0.3807367623102961 0.380809761375238
0.3804696781438728 0.38092301344245716 0.38088300841345185
0.5167531594096746 0.3839979097739656 0.371289016501323
0.6606673788939041 0.37618951389441574 0.3801517608384931
0.8158701254218085 0.37220975121946964 0.37719406354110396
0.9645337784888104 0.37292751449806977 0.3675073392238414
1.0 0.375 0.375
2.2415981107899196e-18 0.5 0.375
0.15163245498472752 0.49682462216225104 0.39302137354013217
0.25874565313098724 0.5017141265461599 0.3909866145984666
0.38590458793479376 0.504619242006679 0.3852048452036917
0.513153331058473 0.5069509386168117 0.3805145635851674
0.6512750195953325 0.5086284270782079 0.3729630540745527
0.8029052872474238 0.5074477888828937 0.3658721899873731
0.9535693756010739 0.5062353863350586 0.35921205573182885
1.0 0.5 0.375
2.801997638487399e-18 0.625 0.375
0.1620314514532651 0.6167780370173466 0.4027985039559397
0.2818573690103558 0.6165526780977194 0.40595829813820344
0.40303698246080033 0.6159417275252337 0.4093589670397635
0.5197586405026442 0.6229042158194709 0.39959108592518333
0.6370499897194993 0.6339333307846329 0.3816224523810747
0.7755882337880445 0.637034180789038 0.3711177535737159
0.9224056024597583 0.6381281566342943 0.36139626903607336
1.0 0.625 0.375
0.0 0.75 0.375
0.1747351349790444 0.7365604755100754 0.4120325531903046
0.3009879403034678 0.7347075035806477 0.4159372761225391
0.4087524712419838 0.7398044001227546 0.4132469825847511
0.5248532074898591 0.7404891800053257 0.4160402945729632
0.6380527302585909 0.7541468063301763 0.3944713954564789
0.7654760024356964 0.7604124999842938 0.3819912958774592
0.8975138642958231 0.7646929395340758 0.371649146044538
1.0 0.75 0.375
0.0 0.875 0.375
0.175532610844613 0.8641971344453676 0.40519081806715534
0.32040954610073086 0.8524321490180279 0.4266497603631769
0.4180828011642339 0.8607513014006225 0.42148106367705945
0.5301671800597407 0.8632975126172874 0.42215135009996707
0.644979085992704 0.869935681942357 0.4137483488364033
0.7681229524385353 0.8760617240979542 0.4001038520960594
0.8905229876961612 0.8823498164614043 0.38413000629659466
1.0 0.875 0.375
0.0 1.0 0.375
0.125 1.0 0.37499999999999994
0.25000000000000006 1.0 0.375
0.375 1.0 0.375
0.5 1.0 0.375
0.625 1.0 0.375
0.75 1.0 0.375
0.875 1.0 0.375
1.0 1.0 0.375
0.0 0.0 0.5
0.13363404329432968 -0.0027002532814825145 0.5038894625423961
0.26726808658865936 -0.005400506562965029 0.5077789250847922
0.40090212988298907 -0.008100759844447546 0.5116683876271882
0.5345361731773187 -0.010801013125930058 0.5155578501695843
0.6627271713534733 -0.011406196221994328 0.517935394347034
0.7862125091490899 -0.01036053693403344 0.5186219479419922
0.895956121835999 -0.004954480590239847 0.5132682937645627
1.0 0.0 0.5
5.603995276974799e-19 0.125 0.5
0.14326391711459016 0.1546433864779649 0.44723182615578533
0.26050233348510166 0.14908972347102525 0.46183879488724944
0.37384328336519806 0.13797369636917095 0.4888518128003938
0.5128741166903421 0.13003302484073484 0.49983615128760256
0.6555398652831878 0.12274101730763406 0.5081611519542559
0.7927459725512946 0.11417771477291493 0.5210635122309183
0.9440350843550167 0.10874912489292288 0.5224423816846353
1.0 0.125 0.5
1.1207990553949598e-18 0.25 0.5
0.146523262205377 0.2695592601550575 0.4696207207256399
0.25742156074948286 0.26654629305952254 0.4816570886079065
0.3755644564851609 0.26157188476398174 0.49478204419313193
0.5091821010343847 0.2565625952452177 0.5020753872289271
0.6469546816654923 0.24892179616531077 0.5129507338118432
0.7998867337181438 0.24289683723956762 0.5148739091395197
0.9462982037677389 0.23992195147408943 0.5132953062863439
1.0 0.25 0.5
1.6811985830924399e-18 0.375 0.5
0.14771136932319484 0.3867008156514685 0.4884299632091083
0.25443190013473743 0.38923433933385504 0.491170261128113
0.3783674312244127 0.38461966279382975 0.5013803831283394
0.507651802990585 0.38400490190833836 0.501698454096917
0.6435057873304003 0.3783279524885888 0.5094498781633869
0.7940065692667994 0.3757503359694335 0.5055322021859922
0.9393453965598204 0.3739175958118478 0.502120264865175
1.0 0.375 0.5
2.2415981107899196e-18 0.5 0.5
0.13856066030729786 0.5074904120417224 0.5040192068441389
0.25533450957067017 0.5084582128505368 0.5060002548668894
0.3826845830336433 0.5072198864649591 0.5082799853823969
0.5095837190747299 0.50922756642103 0.50435907393694
0.6411508093374036 0.507552287801036 0.5058888814814457
0.788708534338633 0.5067822268334707 0.4995447497610953
0.9364457528350055 0.5047094524915162 0.4956895919030261
1.0 0.5 0.5
0.0 0.625 0.5
0.14194163891597333 0.6306527692003788 0.5101722550215382
0.27199891068957716 0.6286497779469459 0.5129209884905539
0.3952642818046285 0.6272547146016603 0.5170657899649063
0.520311613229736 0.6258411727089843 0.5205674789090106
0.6365640124819761 0.6351606369246836 0.5063513618138984
0.7791795279506758 0.635184042325811 0.5003338166148124
0.9294090911746019 0.635415790975096 0.49100413993001046
1.0 0.625 0.5
0.0 0.75 0.5
0.16010044976519783 0.7506712219658964 0.5168630671321651
0.2886731972623509 0.7478590390799592 0.5217664151682211
0.40727126697724225 0.7481605216755007 0.5243600644737954
0.5210522745734029 0.749246705890187 0.5272498209535726
0.6423095625422853 0.7504617689554427 0.5270360403235597
0.7643624413614124 0.759846497413723 0.5104802570832775
0.9003437456314899 0.764592753592995 0.4977200581115079
1.0 0.75 0.5
0.0 0.875 0.5
0.17737993992671194 0.8672692776280235 0.5300409550671245
0.30642224994620926 0.8660543054408807 0.5321927231437114
0.41810930467300855 0.8692793460674031 0.5316818145906492
0.5314075244798676 0.8718206049042163 0.5318990252129343
0.6434109271683423 0.8741818053560947 0.5329634052102469
0.7689732602153978 0.8777657685771798 0.5260788611289677
0.8934430677513303 0.8837151666175083 0.5107833130582866
1.0 0.875 0.5
0.0 1.0 0.5
0.125 1.0 0.49999999999999994
0.24999999999999997 0.9999999999999999 0.49999999999999994
0.375 1.0 0.5
0.5 1.0 0.5
0.625 1.0 0.5
0.75 1.0 0.5
0.875 1.0 0.5
1.0 1.0 0.5
0.0 0.0 0.625
0.13363404329432968 -0.0027002532814825145 0.6288894625423961
0.26726808658865936 -0.005400506562965029 0.6327789250847922
0.40090212988298907 -0.008100759844447546 0.6366683876271882
0.5285099446536248 -0.00848147113493129 0.6388839405512508
0.6543682092077041 -0.008188767008673463 0.6406135197151521
0.7802264737617834 -0.007896062882415634 0.6423430988790535
0.8973810554667261 -0.004841586651851411 0.640246953661346
1.0 0.0 0.625
5.603995276974799e-19 0.125 0.625
0.1443702545804716 0.15696422603096216 0.5676839183769827
0.2639765810744416 0.15908081539716906 0.5678526655381739
0.37285931052073107 0.15105676556133232 0.5904952785613367
0.5090397757074384 0.14194499149088374 0.6048655166400791
0.6444189539800081 0.13055034776528648 0.6240230052421489
0.7800251669246571 0.12074361082726927 0.6399765081598392
0.9228589149075765 0.1141018805092647 0.6469607879740855
1.0 0.125 0.625
1.1207990553949598e-18 0.25 0.625
0.1677626683872136 0.2803992562522749 0.5671947252199734
0.27279166883210226 0.2807010808140409 0.5749611998852642
0.3819629635456162 0.2787576088211176 0.5855563868904924
0.5019829037934426 0.2655035524192526 0.6142203727151521
0.6383662279310265 0.2567761403638448 0.6277586421002823
0.7760343720629033 0.24797113327549666 0.640959324431267
0.91835684442015 0.24230080359906667 0.6462314159167093
1.0 0.25 0.625
1.6811985830924399e-18 0.375 0.625
0.16368281065474533 0.3963185095391632 0.5904121237946922
0.2751127930134463 0.40173343117260374 0.5856999762072695
0.39662098720397987 0.39925183353543553 0.5926478554503192
0.5038596503195473 0.39235059484164053 0.6137130097953286
0.6379517065615596 0.3838613545701154 0.6276573141650464
0.7751081546877935 0.374835052312505 0.6414875549947624
0.9178261625873841 0.37319783238281484 0.6386910518093752
1.0 0.375 0.625
0.0 0.5 0.625
0.15589104229985273 0.5095902450570818 0.6202423575562445
0.26482791460128186 0.5183519910201833 0.609910214306137
0.39187743670154795 0.5174371578390373 0.6116694372434418
0.5185373804067615 0.5145432686140713 0.6174625925329777
0.6358154767995458 0.5091390649042106 0.6317609593950673
0.7757604451564559 0.5046571978409292 0.6356063761858084
0.918032247659256 0.504230740853072 0.6306030574742458
1.0 0.5 0.625
0.0 0.625 0.625
0.1374522411334594 0.633727066468301 0.6328014998987161
0.25454303618911756 0.6349705508677628 0.6341204524050048
0.383420239470502 0.6342980220001582 0.6347071415570198
0.5242985982734409 0.6346057110647297 0.6287938745223195
0.6416160257859245 0.6323914588906913 0.6368146918908915
0.7763661763338903 0.6344502718044259 0.6298000640259008
0.9181979041960502 0.6341924969520844 0.6246333732097242
1.0 0.625 0.625
0.0 0.75 0.625
0.14099960280332607 0.7578412867026338 0.6370223911329245
0.27260432920396355 0.7553470963422166 0.6401454380511217
0.3921975318628992 0.7568613041647457 0.639978984868094
0.5214927980832258 0.7580180607846232 0.6368150039186026
0.6476616656018443 0.7578388500902923 0.6374658201166588
0.7642437520723333 0.759425641983284 0.6383048622491129
0.9040667518577395 0.7629714536487261 0.6264367147710393
1.0 0.75 0.625
0.0 0.875 0.625
0.15838820137633117 0.879795110292853 0.6402072633631897
0.28844165393538135 0.8769784018619347 0.6445550298751829
0.404821864059043 0.8774871699455028 0.647587414476355
0.5167817189008996 0.8800393083017227 0.6482935017932707
0.6399214455891731 0.8790851104530384 0.6516207142851586
0.7659623805558091 0.8800475923005624 0.6500789670739856
0.8949642678436949 0.8861532931396192 0.6373110349769024
1.0 0.875 0.625
0.0 1.0 0.625
0.125 1.0 0.6249999999999999
0.25 1.0 0.6249999999999999
0.375 0.9999999999999998 0.625
0.5 1.0 0.625
0.625 1.0 0.625
0.75 1.0 0.625
0.875 1.0 0.625
1.0 1.0 0.625
0.0 0.0 0.75
0.13363404329432968 -0.0027002532814825145 0.7538894625423961
0.26726808658865936 -0.005400506562965029 0.7577789250847922
0.3942927179537763 -0.00555674604786825 0.7598324867554678
0.5201509825078555 -0.005264041921610422 0.761562065919369
0.646009247061935 -0.004971337795352595 0.7632916450832703
0.7718675116160142 -0.004678633669094767 0.7650212242471717
0.8977257761700935 -0.004385929542836939 0.766750803411073
1.0 0.0 0.75
5.603995276974799e-19 0.125 0.75
0.15267840416159528 0.16136387166881583 0.6816853263219208
0.2721571347626276 0.17507097150190432 0.6602947585515868
0.38045613960033575 0.1620325540835359 0.693004165594267
0.4981926236199896 0.15003813486953335 0.7200658088784072
0.6325036883788102 0.13811086334238504 0.7406761961401802
0.7660412366680708 0.12771087338968817 0.7585831279789493
0.8995856278961553 0.12224270584258419 0.7668051520240997
1.0 0.125 0.75
1.1207990553949598e-18 0.25 0.75
0.1869303397936167 0.29150795276587055 0.6650311235588398
0.2904471703743366 0.29387126304330546 0.6693269491088991
0.3969621666100656 0.28632259555252165 0.6919390831630008
0.5010953645419306 0.27688290923833675 0.7191718051434366
0.6316162429470842 0.2663369066688383 0.7385155019959226
0.7649887078500408 0.2543349960397948 0.7596303015065713
0.8995626303124485 0.2479458923145248 0.7649968009858743
1.0 0.25 0.75
0.0 0.375 0.75
0.17920136661636835 0.40490450043305565 0.6945923855744379
0.2888892217620709 0.4092384204808359 0.6926666646295987
0.4116730244267102 0.41041790425431 0.691940711551282
0.5147501577969916 0.4025093279778956 0.7165701712497731
0.6318741026900667 0.39462630952818434 0.7357937458306008
0.7620077686326207 0.3815964095105084 0.760161698614898
0.900866314923208 0.3748967026606443 0.7671817685115526
1.0 0.375 0.75
0.0 0.5 0.75
